(/Applications/pcbgcode.repo/pcb-gcode.ulp)
(Copyright 2005 - 2012 by John Johnson)
(See readme.txt for licensing terms.)
(This file generated from the board:)
(.../spring_rev_driver_stereoping_8r/spring_reverb_8R_driver.brd)
(Current profile is .../pcbgcode.repo/profiles/mach.pp  )
(This file generated 1/17/16 10:20 PM)
(Settings from pcb-machine.h)
(spindle on time = 0.0000)
(  Tool Size)
(0.0100  )
(spindle speed = 30000.0000)
(tool change at 0.0000  0.0000  3.0000  )
(feed rate xy = F20    )
(feed rate z  = F10    )
(Z Axis Settings)
(  High     Up        Down     Drill)
(1.0000  	0.0500  	-0.0040 	-0.0730 )
(Settings from pcb-defaults.h)
(isolate min = 0.0010)
(isolate max = 0.0170)
(isolate step = 0.0017)
(Generated bottom outlines, bottom drill, )
(Unit of measure: inch)
(Inch Mode)
G20
(Absolute Coordinates)
G90
S30000
G00 Z1.0000  
G00 X0.0000  Y0.0000  
M03
G04 P0.000000
G00 Z0.0500  
G00 X-0.0823 Y0.1113  
G01 Z-0.0040 F10    
G01 X-0.0837 Y0.1102  F20    
G01 X-0.0849 Y0.1090  
G01 X-0.0859 Y0.1084  
G01 X-0.0868 Y0.1077  
G01 X-0.0884 Y0.1070  
G01 X-0.0899 Y0.1061  
G01 X-0.0910 Y0.1058  
G01 X-0.3150 Y0.0054  
G01 X-0.3165 Y0.0045  
G01 X-0.3176 Y0.0042  
G01 X-0.3186 Y0.0037  
G01 X-0.3204 Y0.0035  
G01 X-0.3221 Y0.0030  
G01 X-0.3232 Y0.0030  
G01 X-0.3244 Y0.0028  
G01 X-0.3261 Y0.0030  
G01 X-1.1223 Y0.0030  
G01 X-1.1225 Y0.0030  
G01 X-1.1252 Y0.0030  
G01 X-1.1279 Y0.0030  
G01 X-1.1281 Y0.0030  
G01 X-1.1283 Y0.0031  
G01 X-1.1309 Y0.0038  
G01 X-1.1335 Y0.0045  
G01 X-1.1337 Y0.0046  
G01 X-1.1338 Y0.0046  
G01 X-1.1362 Y0.0060  
G01 X-1.1385 Y0.0074  
G01 X-1.1386 Y0.0075  
G01 X-1.1388 Y0.0076  
G01 X-1.1407 Y0.0096  
G01 X-1.1426 Y0.0115  
G01 X-1.1427 Y0.0117  
G01 X-1.1428 Y0.0118  
G01 X-1.1441 Y0.0142  
G01 X-1.1455 Y0.0165  
G01 X-1.1455 Y0.0167  
G01 X-1.1456 Y0.0169  
G01 X-1.1463 Y0.0195  
G01 X-1.1470 Y0.0221  
G01 X-1.1470 Y0.0223  
G01 X-1.1619 Y0.0820  
G01 X-1.1678 Y0.0820  
G01 X-1.1888 Y0.1030  
G01 X-1.2112 Y0.1030  
G01 X-1.2322 Y0.0820  
G01 X-1.2678 Y0.0820  
G01 X-1.2888 Y0.1030  
G01 X-1.3112 Y0.1030  
G01 X-1.3322 Y0.0820  
G01 X-1.3678 Y0.0820  
G01 X-1.3930 Y0.1072  
G01 X-1.3930 Y0.1428  
G01 X-1.3720 Y0.1638  
G01 X-1.3720 Y0.1862  
G01 X-1.3930 Y0.2072  
G01 X-1.3930 Y0.2428  
G01 X-1.3678 Y0.2680  
G01 X-1.3322 Y0.2680  
G01 X-1.3112 Y0.2470  
G01 X-1.2888 Y0.2470  
G01 X-1.2678 Y0.2680  
G01 X-1.2638 Y0.2680  
G01 X-1.2466 Y0.3540  
G01 X-1.2462 Y0.3565  
G01 X-1.2461 Y0.3568  
G01 X-1.2460 Y0.3572  
G01 X-1.2449 Y0.3594  
G01 X-1.2094 Y0.4375  
G01 X-1.2749 Y0.5030  
G01 X-1.2779 Y0.5030  
G01 X-1.2835 Y0.5045  
G01 X-1.2885 Y0.5074  
G01 X-1.2926 Y0.5115  
G01 X-1.3612 Y0.5801  
G01 X-1.4527 Y0.6030  
G01 X-1.4529 Y0.6030  
G01 X-1.4555 Y0.6037  
G01 X-1.4581 Y0.6044  
G01 X-1.4583 Y0.6045  
G01 X-1.4585 Y0.6045  
G01 X-1.4608 Y0.6059  
G01 X-1.4632 Y0.6072  
G01 X-1.4633 Y0.6073  
G01 X-1.4635 Y0.6074  
G01 X-1.4654 Y0.6093  
G01 X-1.4674 Y0.6112  
G01 X-1.4675 Y0.6114  
G01 X-1.4676 Y0.6115  
G01 X-1.4690 Y0.6138  
G01 X-1.4704 Y0.6162  
G01 X-1.4704 Y0.6163  
G01 X-1.4705 Y0.6165  
G01 X-1.4712 Y0.6191  
G01 X-1.4719 Y0.6217  
G01 X-1.4720 Y0.6219  
G01 X-1.4720 Y0.6221  
G01 X-1.4720 Y0.6248  
G01 X-1.4720 Y0.6275  
G01 X-1.4720 Y0.6277  
G01 X-1.4720 Y2.2984  
G01 X-1.4722 Y2.2998  
G01 X-1.4720 Y2.3013  
G01 X-1.4720 Y2.3029  
G01 X-1.4717 Y2.3042  
G01 X-1.4715 Y2.3055  
G01 X-1.4709 Y2.3070  
G01 X-1.4705 Y2.3085  
G01 X-1.4698 Y2.3096  
G01 X-1.4693 Y2.3109  
G01 X-1.4684 Y2.3121  
G01 X-1.4676 Y2.3135  
G01 X-1.4667 Y2.3145  
G01 X-1.2434 Y2.6121  
G01 X-1.2426 Y2.6135  
G01 X-1.2417 Y2.6145  
G01 X-1.2409 Y2.6155  
G01 X-1.2396 Y2.6165  
G01 X-1.2385 Y2.6176  
G01 X-1.2374 Y2.6183  
G01 X-1.2363 Y2.6191  
G01 X-1.2349 Y2.6197  
G01 X-1.2335 Y2.6205  
G01 X-1.2322 Y2.6208  
G01 X-1.2310 Y2.6214  
G01 X-1.2294 Y2.6216  
G01 X-1.2279 Y2.6220  
G01 X-1.2266 Y2.6220  
G01 X-1.2252 Y2.6222  
G01 X-1.2237 Y2.6220  
G01 X-0.9470 Y2.6220  
G01 X-0.9470 Y2.8279  
G01 X-0.9455 Y2.8335  
G01 X-0.9426 Y2.8385  
G01 X-0.8570 Y2.9241  
G01 X-0.8570 Y2.9383  
G01 X-0.8383 Y2.9570  
G01 X-0.8241 Y2.9570  
G01 X-0.6885 Y3.0926  
G01 X-0.6835 Y3.0955  
G01 X-0.6779 Y3.0970  
G01 X-0.2007 Y3.0970  
G01 X-0.1984 Y3.0971  
G01 X-0.1978 Y3.0970  
G01 X-0.1971 Y3.0970  
G01 X-0.1949 Y3.0964  
G01 X-0.1928 Y3.0960  
G01 X-0.1922 Y3.0957  
G01 X-0.1915 Y3.0955  
G01 X-0.1896 Y3.0944  
G01 X-0.0922 Y3.0457  
G01 X-0.0915 Y3.0455  
G01 X-0.0896 Y3.0444  
G01 X-0.0876 Y3.0434  
G01 X-0.0871 Y3.0429  
G01 X-0.0865 Y3.0426  
G01 X-0.0849 Y3.0410  
G01 X-0.0832 Y3.0395  
G01 X-0.0829 Y3.0390  
G01 X-0.0824 Y3.0385  
G01 X-0.0813 Y3.0366  
G01 X-0.0800 Y3.0347  
G01 X-0.0798 Y3.0341  
G01 X-0.0795 Y3.0335  
G01 X-0.0789 Y3.0313  
G01 X-0.0782 Y3.0292  
G01 X-0.0782 Y3.0285  
G01 X-0.0780 Y3.0279  
G01 X-0.0780 Y3.0257  
G01 X-0.0779 Y3.0241  
G01 X-0.0769 Y3.0237  
G01 X-0.0691 Y3.0197  
G01 X-0.0619 Y3.0146  
G01 X-0.0557 Y3.0083  
G01 X-0.0505 Y3.0012  
G01 X-0.0465 Y2.9933  
G01 X-0.0438 Y2.9850  
G01 X-0.0424 Y2.9763  
G01 X-0.0424 Y2.8674  
G01 X-0.0438 Y2.8587  
G01 X-0.0465 Y2.8504  
G01 X-0.0505 Y2.8425  
G01 X-0.0557 Y2.8354  
G01 X-0.0619 Y2.8291  
G01 X-0.0691 Y2.8240  
G01 X-0.0769 Y2.8200  
G01 X-0.0780 Y2.8196  
G01 X-0.0780 Y2.5656  
G01 X-0.0743 Y2.5638  
G01 X-0.0681 Y2.5592  
G01 X-0.0626 Y2.5538  
G01 X-0.0581 Y2.5475  
G01 X-0.0546 Y2.5407  
G01 X-0.0522 Y2.5333  
G01 X-0.0510 Y2.5257  
G01 X-0.0510 Y2.5180  
G01 X-0.0522 Y2.5104  
G01 X-0.0546 Y2.5030  
G01 X-0.0581 Y2.4962  
G01 X-0.0626 Y2.4899  
G01 X-0.0681 Y2.4845  
G01 X-0.0743 Y2.4799  
G01 X-0.0780 Y2.4781  
G01 X-0.0780 Y2.3688  
G01 X-0.0743 Y2.3669  
G01 X-0.0681 Y2.3624  
G01 X-0.0626 Y2.3569  
G01 X-0.0581 Y2.3507  
G01 X-0.0546 Y2.3438  
G01 X-0.0522 Y2.3365  
G01 X-0.0510 Y2.3289  
G01 X-0.0510 Y2.3211  
G01 X-0.0513 Y2.3190  
G01 X-0.0134 Y2.2937  
G01 X-0.0115 Y2.2926  
G01 X-0.0110 Y2.2921  
G01 X-0.0104 Y2.2917  
G01 X-0.0089 Y2.2901  
G01 X-0.0074 Y2.2885  
G01 X-0.0070 Y2.2879  
G01 X-0.0066 Y2.2873  
G01 X-0.0056 Y2.2854  
G01 X-0.0045 Y2.2835  
G01 X-0.0043 Y2.2828  
G01 X-0.0040 Y2.2822  
G01 X-0.0036 Y2.2800  
G01 X-0.0030 Y2.2779  
G01 X-0.0030 Y2.2772  
G01 X-0.0029 Y2.2765  
G01 X-0.0030 Y2.2743  
G01 X-0.0030 Y2.0507  
G01 X-0.0029 Y2.0484  
G01 X-0.0030 Y2.0478  
G01 X-0.0030 Y2.0471  
G01 X-0.0036 Y2.0449  
G01 X-0.0040 Y2.0428  
G01 X-0.0043 Y2.0422  
G01 X-0.0045 Y2.0415  
G01 X-0.0056 Y2.0396  
G01 X-0.0066 Y2.0376  
G01 X-0.0071 Y2.0371  
G01 X-0.0074 Y2.0365  
G01 X-0.0090 Y2.0349  
G01 X-0.0105 Y2.0332  
G01 X-0.0110 Y2.0329  
G01 X-0.0115 Y2.0324  
G01 X-0.0134 Y2.0313  
G01 X-0.0153 Y2.0300  
G01 X-0.0159 Y2.0298  
G01 X-0.0165 Y2.0295  
G01 X-0.0187 Y2.0289  
G01 X-0.0920 Y2.0045  
G01 X-0.0936 Y2.0038  
G01 X-0.0947 Y2.0036  
G01 X-0.0958 Y2.0032  
G01 X-0.0976 Y2.0031  
G01 X-0.0993 Y2.0028  
G01 X-0.1004 Y2.0029  
G01 X-0.1016 Y2.0029  
G01 X-0.1033 Y2.0032  
G01 X-0.3290 Y2.0258  
G01 X-0.3367 Y2.0180  
G01 X-0.3375 Y2.0180  
G01 X-0.3655 Y1.9340  
G01 X-0.3515 Y1.9201  
G01 X-0.3515 Y1.8799  
G01 X-0.3780 Y1.8534  
G01 X-0.3780 Y1.8233  
G01 X-0.3680 Y1.8133  
G01 X-0.3680 Y1.7867  
G01 X-0.3867 Y1.7680  
G01 X-0.4133 Y1.7680  
G01 X-0.4320 Y1.7867  
G01 X-0.4320 Y1.8133  
G01 X-0.4220 Y1.8233  
G01 X-0.4220 Y1.8534  
G01 X-0.4485 Y1.8799  
G01 X-0.4485 Y1.9201  
G01 X-0.4201 Y1.9485  
G01 X-0.4070 Y1.9485  
G01 X-0.3787 Y2.0335  
G01 X-0.3820 Y2.0367  
G01 X-0.3820 Y2.0633  
G01 X-0.3633 Y2.0820  
G01 X-0.3367 Y2.0820  
G01 X-0.3243 Y2.0695  
G01 X-0.1025 Y2.0474  
G01 X-0.0470 Y2.0659  
G01 X-0.0470 Y2.2632  
G01 X-0.0757 Y2.2824  
G01 X-0.0812 Y2.2796  
G01 X-0.0885 Y2.2772  
G01 X-0.0961 Y2.2760  
G01 X-0.1039 Y2.2760  
G01 X-0.1115 Y2.2772  
G01 X-0.1188 Y2.2796  
G01 X-0.1257 Y2.2831  
G01 X-0.1319 Y2.2876  
G01 X-0.1374 Y2.2931  
G01 X-0.1419 Y2.2993  
G01 X-0.1454 Y2.3062  
G01 X-0.1478 Y2.3135  
G01 X-0.1490 Y2.3211  
G01 X-0.1490 Y2.3289  
G01 X-0.1478 Y2.3365  
G01 X-0.1454 Y2.3438  
G01 X-0.1419 Y2.3507  
G01 X-0.1374 Y2.3569  
G01 X-0.1319 Y2.3624  
G01 X-0.1257 Y2.3669  
G01 X-0.1220 Y2.3688  
G01 X-0.1220 Y2.4781  
G01 X-0.1257 Y2.4799  
G01 X-0.1319 Y2.4845  
G01 X-0.1374 Y2.4899  
G01 X-0.1419 Y2.4962  
G01 X-0.1454 Y2.5030  
G01 X-0.1478 Y2.5104  
G01 X-0.1490 Y2.5180  
G01 X-0.1490 Y2.5257  
G01 X-0.1478 Y2.5333  
G01 X-0.1454 Y2.5407  
G01 X-0.1419 Y2.5475  
G01 X-0.1374 Y2.5538  
G01 X-0.1319 Y2.5592  
G01 X-0.1257 Y2.5638  
G01 X-0.1220 Y2.5656  
G01 X-0.1220 Y2.8210  
G01 X-0.1278 Y2.8240  
G01 X-0.1349 Y2.8291  
G01 X-0.1411 Y2.8354  
G01 X-0.1463 Y2.8425  
G01 X-0.1503 Y2.8504  
G01 X-0.1530 Y2.8587  
G01 X-0.1544 Y2.8674  
G01 X-0.1544 Y2.9763  
G01 X-0.1530 Y2.9850  
G01 X-0.1503 Y2.9933  
G01 X-0.1463 Y3.0012  
G01 X-0.1411 Y3.0083  
G01 X-0.1349 Y3.0146  
G01 X-0.1322 Y3.0165  
G01 X-0.2052 Y3.0530  
G01 X-0.6659 Y3.0530  
G01 X-0.7930 Y2.9259  
G01 X-0.7930 Y2.9117  
G01 X-0.8117 Y2.8930  
G01 X-0.8259 Y2.8930  
G01 X-0.9030 Y2.8159  
G01 X-0.9030 Y2.0971  
G01 X-0.9045 Y2.0915  
G01 X-0.9074 Y2.0865  
G01 X-0.9115 Y2.0824  
G01 X-0.9365 Y2.0574  
G01 X-0.9415 Y2.0545  
G01 X-0.9471 Y2.0530  
G01 X-0.9757 Y2.0530  
G01 X-0.9786 Y2.0501  
G01 X-0.9838 Y2.0466  
G01 X-0.9897 Y2.0442  
G01 X-0.9958 Y2.0430  
G01 X-1.0542 Y2.0430  
G01 X-1.0603 Y2.0442  
G01 X-1.0662 Y2.0466  
G01 X-1.0714 Y2.0501  
G01 X-1.0759 Y2.0546  
G01 X-1.0794 Y2.0598  
G01 X-1.0802 Y2.0619  
G01 X-1.1553 Y2.0744  
G01 X-1.1617 Y2.0680  
G01 X-1.1715 Y2.0680  
G01 X-1.2280 Y1.9927  
G01 X-1.2280 Y1.8659  
G01 X-1.1750 Y1.8482  
G01 X-1.0828 Y1.8789  
G01 X-1.0818 Y1.8843  
G01 X-1.0794 Y1.8902  
G01 X-1.0759 Y1.8954  
G01 X-1.0714 Y1.8999  
G01 X-1.0662 Y1.9034  
G01 X-1.0603 Y1.9058  
G01 X-1.0542 Y1.9070  
G01 X-0.9958 Y1.9070  
G01 X-0.9897 Y1.9058  
G01 X-0.9838 Y1.9034  
G01 X-0.9786 Y1.8999  
G01 X-0.9741 Y1.8954  
G01 X-0.9706 Y1.8902  
G01 X-0.9682 Y1.8843  
G01 X-0.9670 Y1.8782  
G01 X-0.9670 Y1.8718  
G01 X-0.9682 Y1.8657  
G01 X-0.9706 Y1.8598  
G01 X-0.9741 Y1.8546  
G01 X-0.9786 Y1.8501  
G01 X-0.9838 Y1.8466  
G01 X-0.9897 Y1.8442  
G01 X-0.9958 Y1.8430  
G01 X-1.0514 Y1.8430  
G01 X-1.1666 Y1.8046  
G01 X-1.1678 Y1.8040  
G01 X-1.1693 Y1.8037  
G01 X-1.1708 Y1.8032  
G01 X-1.1721 Y1.8031  
G01 X-1.1734 Y1.8029  
G01 X-1.1750 Y1.8030  
G01 X-1.1766 Y1.8029  
G01 X-1.1779 Y1.8031  
G01 X-1.1792 Y1.8032  
G01 X-1.1807 Y1.8037  
G01 X-1.1822 Y1.8040  
G01 X-1.1834 Y1.8046  
G01 X-1.2563 Y1.8289  
G01 X-1.2585 Y1.8295  
G01 X-1.2591 Y1.8298  
G01 X-1.2597 Y1.8300  
G01 X-1.2616 Y1.8313  
G01 X-1.2635 Y1.8324  
G01 X-1.2640 Y1.8329  
G01 X-1.2645 Y1.8332  
G01 X-1.2660 Y1.8349  
G01 X-1.2676 Y1.8365  
G01 X-1.2679 Y1.8371  
G01 X-1.2684 Y1.8376  
G01 X-1.2694 Y1.8396  
G01 X-1.2705 Y1.8415  
G01 X-1.2707 Y1.8422  
G01 X-1.2710 Y1.8428  
G01 X-1.2714 Y1.8449  
G01 X-1.2720 Y1.8471  
G01 X-1.2720 Y1.8478  
G01 X-1.2721 Y1.8484  
G01 X-1.2720 Y1.8507  
G01 X-1.2720 Y1.9984  
G01 X-1.2722 Y1.9998  
G01 X-1.2720 Y2.0013  
G01 X-1.2720 Y2.0029  
G01 X-1.2717 Y2.0042  
G01 X-1.2715 Y2.0055  
G01 X-1.2709 Y2.0070  
G01 X-1.2705 Y2.0085  
G01 X-1.2698 Y2.0096  
G01 X-1.2693 Y2.0109  
G01 X-1.2684 Y2.0121  
G01 X-1.2676 Y2.0135  
G01 X-1.2667 Y2.0145  
G01 X-1.2070 Y2.0940  
G01 X-1.2070 Y2.1133  
G01 X-1.1883 Y2.1320  
G01 X-1.1617 Y2.1320  
G01 X-1.1475 Y2.1177  
G01 X-1.0648 Y2.1039  
G01 X-1.0603 Y2.1058  
G01 X-1.0542 Y2.1070  
G01 X-0.9958 Y2.1070  
G01 X-0.9897 Y2.1058  
G01 X-0.9838 Y2.1034  
G01 X-0.9786 Y2.0999  
G01 X-0.9757 Y2.0970  
G01 X-0.9591 Y2.0970  
G01 X-0.9470 Y2.1091  
G01 X-0.9470 Y2.5780  
G01 X-1.2140 Y2.5780  
G01 X-1.4280 Y2.2927  
G01 X-1.4280 Y0.6422  
G01 X-1.3473 Y0.6220  
G01 X-1.3471 Y0.6220  
G01 X-1.3445 Y0.6213  
G01 X-1.3419 Y0.6206  
G01 X-1.3417 Y0.6205  
G01 X-1.3415 Y0.6205  
G01 X-1.3392 Y0.6191  
G01 X-1.3368 Y0.6178  
G01 X-1.3367 Y0.6177  
G01 X-1.3365 Y0.6176  
G01 X-1.3346 Y0.6157  
G01 X-1.3326 Y0.6138  
G01 X-1.3325 Y0.6136  
G01 X-1.2659 Y0.5470  
G01 X-1.2629 Y0.5470  
G01 X-1.2573 Y0.5455  
G01 X-1.2522 Y0.5426  
G01 X-1.1899 Y0.4803  
G01 X-1.1326 Y0.6064  
G01 X-1.1332 Y0.6072  
G01 X-1.1361 Y0.6141  
G01 X-1.1375 Y0.6213  
G01 X-1.1375 Y0.6287  
G01 X-1.1361 Y0.6359  
G01 X-1.1332 Y0.6428  
G01 X-1.1291 Y0.6489  
G01 X-1.1239 Y0.6541  
G01 X-1.1178 Y0.6582  
G01 X-1.1109 Y0.6611  
G01 X-1.1037 Y0.6625  
G01 X-1.0963 Y0.6625  
G01 X-1.0891 Y0.6611  
G01 X-1.0822 Y0.6582  
G01 X-1.0761 Y0.6541  
G01 X-1.0709 Y0.6489  
G01 X-1.0696 Y0.6470  
G01 X-1.0060 Y0.6470  
G01 X-0.9905 Y0.6625  
G01 X-0.9595 Y0.6625  
G01 X-0.9375 Y0.6405  
G01 X-0.9375 Y0.6095  
G01 X-0.9595 Y0.5875  
G01 X-0.9905 Y0.5875  
G01 X-1.0060 Y0.6030  
G01 X-1.0696 Y0.6030  
G01 X-1.0709 Y0.6011  
G01 X-1.0761 Y0.5959  
G01 X-1.0822 Y0.5918  
G01 X-1.0891 Y0.5889  
G01 X-1.0925 Y0.5882  
G01 X-1.1623 Y0.4348  
G01 X-1.1625 Y0.4338  
G01 X-1.1635 Y0.4322  
G01 X-1.1642 Y0.4306  
G01 X-1.2039 Y0.3432  
G01 X-1.2212 Y0.2570  
G01 X-1.2112 Y0.2470  
G01 X-1.1888 Y0.2470  
G01 X-1.1678 Y0.2680  
G01 X-1.1322 Y0.2680  
G01 X-1.1070 Y0.2428  
G01 X-1.1070 Y0.2072  
G01 X-1.1322 Y0.1820  
G01 X-1.1440 Y0.1820  
G01 X-1.1440 Y0.1680  
G01 X-1.1322 Y0.1680  
G01 X-1.1070 Y0.1428  
G01 X-1.1070 Y0.1072  
G01 X-1.1197 Y0.0945  
G01 X-1.1078 Y0.0470  
G01 X-0.3297 Y0.0470  
G01 X-0.1204 Y0.1408  
G01 X-0.1204 Y0.2202  
G01 X-0.1278 Y0.2240  
G01 X-0.1349 Y0.2291  
G01 X-0.1411 Y0.2354  
G01 X-0.1463 Y0.2425  
G01 X-0.1503 Y0.2504  
G01 X-0.1530 Y0.2587  
G01 X-0.1544 Y0.2674  
G01 X-0.1544 Y0.3763  
G01 X-0.1530 Y0.3850  
G01 X-0.1503 Y0.3933  
G01 X-0.1463 Y0.4012  
G01 X-0.1411 Y0.4083  
G01 X-0.1349 Y0.4146  
G01 X-0.1278 Y0.4197  
G01 X-0.1199 Y0.4237  
G01 X-0.1115 Y0.4265  
G01 X-0.1028 Y0.4279  
G01 X-0.0940 Y0.4279  
G01 X-0.0853 Y0.4265  
G01 X-0.0769 Y0.4237  
G01 X-0.0691 Y0.4197  
G01 X-0.0619 Y0.4146  
G01 X-0.0557 Y0.4083  
G01 X-0.0505 Y0.4012  
G01 X-0.0465 Y0.3933  
G01 X-0.0438 Y0.3850  
G01 X-0.0424 Y0.3763  
G01 X-0.0424 Y0.2674  
G01 X-0.0438 Y0.2587  
G01 X-0.0465 Y0.2504  
G01 X-0.0505 Y0.2425  
G01 X-0.0557 Y0.2354  
G01 X-0.0619 Y0.2291  
G01 X-0.0691 Y0.2240  
G01 X-0.0764 Y0.2202  
G01 X-0.0764 Y0.1283  
G01 X-0.0762 Y0.1272  
G01 X-0.0764 Y0.1255  
G01 X-0.0764 Y0.1237  
G01 X-0.0767 Y0.1226  
G01 X-0.0768 Y0.1214  
G01 X-0.0775 Y0.1198  
G01 X-0.0779 Y0.1181  
G01 X-0.0785 Y0.1171  
G01 X-0.0789 Y0.1160  
G01 X-0.0799 Y0.1146  
G01 X-0.0808 Y0.1131  
G01 X-0.0816 Y0.1123  
G01 X-0.0823 Y0.1113  
G00 Z0.0500  
G00 X-0.4255 Y0.1127  
G01 Z-0.0040 F10    
G01 X-0.4269 Y0.1040  F20    
G01 X-0.4296 Y0.0956  
G01 X-0.4336 Y0.0878  
G01 X-0.4388 Y0.0806  
G01 X-0.4450 Y0.0744  
G01 X-0.4521 Y0.0692  
G01 X-0.4600 Y0.0652  
G01 X-0.4684 Y0.0625  
G01 X-0.4771 Y0.0611  
G01 X-0.5859 Y0.0611  
G01 X-0.5946 Y0.0625  
G01 X-0.6030 Y0.0652  
G01 X-0.6108 Y0.0692  
G01 X-0.6180 Y0.0744  
G01 X-0.6242 Y0.0806  
G01 X-0.6294 Y0.0878  
G01 X-0.6334 Y0.0956  
G01 X-0.6361 Y0.1040  
G01 X-0.6375 Y0.1127  
G01 X-0.6375 Y0.1215  
G01 X-0.6361 Y0.1302  
G01 X-0.6334 Y0.1386  
G01 X-0.6294 Y0.1465  
G01 X-0.6242 Y0.1536  
G01 X-0.6180 Y0.1598  
G01 X-0.6108 Y0.1650  
G01 X-0.6030 Y0.1690  
G01 X-0.5946 Y0.1717  
G01 X-0.5859 Y0.1731  
G01 X-0.4771 Y0.1731  
G01 X-0.4684 Y0.1717  
G01 X-0.4600 Y0.1690  
G01 X-0.4521 Y0.1650  
G01 X-0.4450 Y0.1598  
G01 X-0.4388 Y0.1536  
G01 X-0.4336 Y0.1465  
G01 X-0.4296 Y0.1386  
G01 X-0.4269 Y0.1302  
G01 X-0.4255 Y0.1215  
G01 X-0.4255 Y0.1127  
G00 Z0.0500  
G00 X-0.5754 Y0.2354  
G01 Z-0.0040 F10    
G01 X-0.5816 Y0.2291  F20    
G01 X-0.5888 Y0.2240  
G01 X-0.5966 Y0.2200  
G01 X-0.6050 Y0.2172  
G01 X-0.6137 Y0.2159  
G01 X-0.6225 Y0.2159  
G01 X-0.6312 Y0.2172  
G01 X-0.6396 Y0.2200  
G01 X-0.6475 Y0.2240  
G01 X-0.6546 Y0.2291  
G01 X-0.6608 Y0.2354  
G01 X-0.6660 Y0.2425  
G01 X-0.6700 Y0.2504  
G01 X-0.6727 Y0.2587  
G01 X-0.6741 Y0.2674  
G01 X-0.6741 Y0.3763  
G01 X-0.6727 Y0.3850  
G01 X-0.6700 Y0.3933  
G01 X-0.6660 Y0.4012  
G01 X-0.6608 Y0.4083  
G01 X-0.6546 Y0.4146  
G01 X-0.6475 Y0.4197  
G01 X-0.6418 Y0.4226  
G01 X-0.5806 Y0.6033  
G01 X-0.5832 Y0.6072  
G01 X-0.5861 Y0.6141  
G01 X-0.5875 Y0.6213  
G01 X-0.5875 Y0.6287  
G01 X-0.5861 Y0.6359  
G01 X-0.5832 Y0.6428  
G01 X-0.5791 Y0.6489  
G01 X-0.5739 Y0.6541  
G01 X-0.5678 Y0.6582  
G01 X-0.5609 Y0.6611  
G01 X-0.5537 Y0.6625  
G01 X-0.5463 Y0.6625  
G01 X-0.5391 Y0.6611  
G01 X-0.5322 Y0.6582  
G01 X-0.5261 Y0.6541  
G01 X-0.5209 Y0.6489  
G01 X-0.5168 Y0.6428  
G01 X-0.5139 Y0.6359  
G01 X-0.5125 Y0.6287  
G01 X-0.5125 Y0.6213  
G01 X-0.5139 Y0.6141  
G01 X-0.5168 Y0.6072  
G01 X-0.5209 Y0.6011  
G01 X-0.5261 Y0.5959  
G01 X-0.5322 Y0.5918  
G01 X-0.5390 Y0.5890  
G01 X-0.5952 Y0.4230  
G01 X-0.5888 Y0.4197  
G01 X-0.5816 Y0.4146  
G01 X-0.5754 Y0.4083  
G01 X-0.5702 Y0.4012  
G01 X-0.5662 Y0.3933  
G01 X-0.5635 Y0.3850  
G01 X-0.5621 Y0.3763  
G01 X-0.5621 Y0.2674  
G01 X-0.5635 Y0.2587  
G01 X-0.5662 Y0.2504  
G01 X-0.5702 Y0.2425  
G01 X-0.5754 Y0.2354  
G00 Z0.0500  
G00 X-0.7070 Y0.2428  
G01 Z-0.0040 F10    
G01 X-0.7070 Y0.2072  F20    
G01 X-0.7322 Y0.1820  
G01 X-0.7678 Y0.1820  
G01 X-0.7930 Y0.2072  
G01 X-0.7930 Y0.2428  
G01 X-0.7678 Y0.2680  
G01 X-0.7322 Y0.2680  
G01 X-0.7070 Y0.2428  
G00 Z0.0500  
G00 X-0.7322 Y0.1680  
G01 Z-0.0040 F10    
G01 X-0.7070 Y0.1428  F20    
G01 X-0.7070 Y0.1072  
G01 X-0.7322 Y0.0820  
G01 X-0.7678 Y0.0820  
G01 X-0.7930 Y0.1072  
G01 X-0.7930 Y0.1428  
G01 X-0.7678 Y0.1680  
G01 X-0.7322 Y0.1680  
G00 Z0.0500  
G00 X-0.8322 Y0.1680  
G01 Z-0.0040 F10    
G01 X-0.8070 Y0.1428  F20    
G01 X-0.8070 Y0.1072  
G01 X-0.8322 Y0.0820  
G01 X-0.8678 Y0.0820  
G01 X-0.8930 Y0.1072  
G01 X-0.8930 Y0.1428  
G01 X-0.8678 Y0.1680  
G01 X-0.8322 Y0.1680  
G00 Z0.0500  
G00 X-0.8322 Y0.1820  
G01 Z-0.0040 F10    
G01 X-0.8678 Y0.1820  F20    
G01 X-0.8930 Y0.2072  
G01 X-0.8930 Y0.2428  
G01 X-0.8678 Y0.2680  
G01 X-0.8322 Y0.2680  
G01 X-0.8070 Y0.2428  
G01 X-0.8070 Y0.2072  
G01 X-0.8322 Y0.1820  
G00 Z0.0500  
G00 X-0.9070 Y0.2072  
G01 Z-0.0040 F10    
G01 X-0.9322 Y0.1820  F20    
G01 X-0.9678 Y0.1820  
G01 X-0.9930 Y0.2072  
G01 X-0.9930 Y0.2428  
G01 X-0.9678 Y0.2680  
G01 X-0.9322 Y0.2680  
G01 X-0.9070 Y0.2428  
G01 X-0.9070 Y0.2072  
G00 Z0.0500  
G00 X-0.9322 Y0.1680  
G01 Z-0.0040 F10    
G01 X-0.9070 Y0.1428  F20    
G01 X-0.9070 Y0.1072  
G01 X-0.9322 Y0.0820  
G01 X-0.9678 Y0.0820  
G01 X-0.9930 Y0.1072  
G01 X-0.9930 Y0.1428  
G01 X-0.9678 Y0.1680  
G01 X-0.9322 Y0.1680  
G00 Z0.0500  
G00 X-1.0070 Y0.1428  
G01 Z-0.0040 F10    
G01 X-1.0070 Y0.1072  F20    
G01 X-1.0322 Y0.0820  
G01 X-1.0678 Y0.0820  
G01 X-1.0930 Y0.1072  
G01 X-1.0930 Y0.1428  
G01 X-1.0720 Y0.1638  
G01 X-1.0720 Y0.1862  
G01 X-1.0930 Y0.2072  
G01 X-1.0930 Y0.2428  
G01 X-1.0720 Y0.2638  
G01 X-1.0720 Y0.3238  
G01 X-1.0722 Y0.3254  
G01 X-1.0720 Y0.3267  
G01 X-1.0720 Y0.3279  
G01 X-1.0716 Y0.3295  
G01 X-1.0713 Y0.3312  
G01 X-1.0708 Y0.3323  
G01 X-1.0705 Y0.3335  
G01 X-1.0697 Y0.3349  
G01 X-1.0089 Y0.4739  
G01 X-1.0111 Y0.4769  
G01 X-1.0142 Y0.4831  
G01 X-1.0163 Y0.4897  
G01 X-1.0174 Y0.4965  
G01 X-1.0174 Y0.5035  
G01 X-1.0163 Y0.5103  
G01 X-1.0142 Y0.5169  
G01 X-1.0111 Y0.5231  
G01 X-1.0070 Y0.5287  
G01 X-1.0021 Y0.5336  
G01 X-0.9965 Y0.5376  
G01 X-0.9903 Y0.5408  
G01 X-0.9837 Y0.5429  
G01 X-0.9769 Y0.5440  
G01 X-0.9700 Y0.5440  
G01 X-0.9631 Y0.5429  
G01 X-0.9565 Y0.5408  
G01 X-0.9504 Y0.5376  
G01 X-0.9448 Y0.5336  
G01 X-0.9399 Y0.5287  
G01 X-0.9358 Y0.5231  
G01 X-0.9326 Y0.5169  
G01 X-0.9305 Y0.5103  
G01 X-0.9294 Y0.5035  
G01 X-0.9294 Y0.4965  
G01 X-0.9305 Y0.4897  
G01 X-0.9326 Y0.4831  
G01 X-0.9358 Y0.4769  
G01 X-0.9399 Y0.4713  
G01 X-0.9448 Y0.4664  
G01 X-0.9504 Y0.4624  
G01 X-0.9565 Y0.4592  
G01 X-0.9631 Y0.4571  
G01 X-0.9686 Y0.4562  
G01 X-1.0280 Y0.3204  
G01 X-1.0280 Y0.2638  
G01 X-1.0070 Y0.2428  
G01 X-1.0070 Y0.2072  
G01 X-1.0280 Y0.1862  
G01 X-1.0280 Y0.1638  
G01 X-1.0070 Y0.1428  
G00 Z0.0500  
G00 X-1.4070 Y0.1428  
G01 Z-0.0040 F10    
G01 X-1.4070 Y0.1072  F20    
G01 X-1.4322 Y0.0820  
G01 X-1.4678 Y0.0820  
G01 X-1.4930 Y0.1072  
G01 X-1.4930 Y0.1428  
G01 X-1.4720 Y0.1638  
G01 X-1.4720 Y0.1862  
G01 X-1.4930 Y0.2072  
G01 X-1.4930 Y0.2428  
G01 X-1.4720 Y0.2638  
G01 X-1.4720 Y0.4295  
G01 X-1.4705 Y0.4351  
G01 X-1.4676 Y0.4401  
G01 X-1.4175 Y0.4901  
G01 X-1.4179 Y0.4913  
G01 X-1.4190 Y0.4981  
G01 X-1.4190 Y0.5050  
G01 X-1.4179 Y0.5119  
G01 X-1.4158 Y0.5185  
G01 X-1.4126 Y0.5246  
G01 X-1.4086 Y0.5302  
G01 X-1.4037 Y0.5351  
G01 X-1.3981 Y0.5392  
G01 X-1.3919 Y0.5424  
G01 X-1.3853 Y0.5445  
G01 X-1.3785 Y0.5456  
G01 X-1.3715 Y0.5456  
G01 X-1.3647 Y0.5445  
G01 X-1.3581 Y0.5424  
G01 X-1.3519 Y0.5392  
G01 X-1.3463 Y0.5351  
G01 X-1.3414 Y0.5302  
G01 X-1.3374 Y0.5246  
G01 X-1.3342 Y0.5185  
G01 X-1.3321 Y0.5119  
G01 X-1.3310 Y0.5050  
G01 X-1.3310 Y0.4981  
G01 X-1.3321 Y0.4913  
G01 X-1.3342 Y0.4847  
G01 X-1.3374 Y0.4785  
G01 X-1.3414 Y0.4729  
G01 X-1.3463 Y0.4680  
G01 X-1.3519 Y0.4639  
G01 X-1.3581 Y0.4608  
G01 X-1.3647 Y0.4587  
G01 X-1.3715 Y0.4576  
G01 X-1.3785 Y0.4576  
G01 X-1.3853 Y0.4587  
G01 X-1.3864 Y0.4590  
G01 X-1.4280 Y0.4175  
G01 X-1.4280 Y0.2638  
G01 X-1.4070 Y0.2428  
G01 X-1.4070 Y0.2072  
G01 X-1.4280 Y0.1862  
G01 X-1.4280 Y0.1638  
G01 X-1.4070 Y0.1428  
G00 Z0.0500  
G00 X-1.4037 Y0.6649  
G01 Z-0.0040 F10    
G01 X-1.4086 Y0.6698  F20    
G01 X-1.4126 Y0.6754  
G01 X-1.4158 Y0.6815  
G01 X-1.4179 Y0.6881  
G01 X-1.4190 Y0.6950  
G01 X-1.4190 Y0.7019  
G01 X-1.4179 Y0.7087  
G01 X-1.4158 Y0.7153  
G01 X-1.4126 Y0.7215  
G01 X-1.4086 Y0.7271  
G01 X-1.4037 Y0.7320  
G01 X-1.3981 Y0.7361  
G01 X-1.3919 Y0.7392  
G01 X-1.3853 Y0.7413  
G01 X-1.3785 Y0.7424  
G01 X-1.3715 Y0.7424  
G01 X-1.3647 Y0.7413  
G01 X-1.3581 Y0.7392  
G01 X-1.3519 Y0.7361  
G01 X-1.3463 Y0.7320  
G01 X-1.3414 Y0.7271  
G01 X-1.3374 Y0.7215  
G01 X-1.3342 Y0.7153  
G01 X-1.3321 Y0.7087  
G01 X-1.3315 Y0.7049  
G01 X-1.2423 Y0.6696  
G01 X-1.2415 Y0.6695  
G01 X-1.2396 Y0.6686  
G01 X-1.2376 Y0.6678  
G01 X-1.2370 Y0.6673  
G01 X-1.2193 Y0.6588  
G01 X-1.2155 Y0.6625  
G01 X-1.2058 Y0.6625  
G01 X-1.1457 Y0.7828  
G01 X-1.1455 Y0.7835  
G01 X-1.1444 Y0.7854  
G01 X-1.1434 Y0.7874  
G01 X-1.1429 Y0.7879  
G01 X-1.1426 Y0.7885  
G01 X-1.1410 Y0.7901  
G01 X-1.1395 Y0.7918  
G01 X-1.1390 Y0.7921  
G01 X-0.9970 Y0.9341  
G01 X-0.9970 Y1.0683  
G01 X-1.0421 Y1.1360  
G01 X-1.0426 Y1.1365  
G01 X-1.0437 Y1.1384  
G01 X-1.0449 Y1.1402  
G01 X-1.0451 Y1.1409  
G01 X-1.0455 Y1.1415  
G01 X-1.0461 Y1.1436  
G01 X-1.0468 Y1.1457  
G01 X-1.0468 Y1.1464  
G01 X-1.0470 Y1.1471  
G01 X-1.0470 Y1.1493  
G01 X-1.0471 Y1.1515  
G01 X-1.0470 Y1.1522  
G01 X-1.0470 Y1.3742  
G01 X-1.0472 Y1.3762  
G01 X-1.0470 Y1.3770  
G01 X-1.0470 Y1.3779  
G01 X-1.0465 Y1.3799  
G01 X-1.0461 Y1.3819  
G01 X-1.0457 Y1.3827  
G01 X-1.0455 Y1.3835  
G01 X-1.0445 Y1.3853  
G01 X-1.0436 Y1.3871  
G01 X-1.0430 Y1.3878  
G01 X-1.0426 Y1.3885  
G01 X-1.0412 Y1.3900  
G01 X-0.8970 Y1.5581  
G01 X-0.8970 Y1.9091  
G01 X-0.9986 Y1.9430  
G01 X-1.0398 Y1.9430  
G01 X-1.1430 Y1.8914  
G01 X-1.1430 Y1.8867  
G01 X-1.1617 Y1.8680  
G01 X-1.1883 Y1.8680  
G01 X-1.2070 Y1.8867  
G01 X-1.2070 Y1.9133  
G01 X-1.1883 Y1.9320  
G01 X-1.1617 Y1.9320  
G01 X-1.1612 Y1.9315  
G01 X-1.0828 Y1.9707  
G01 X-1.0830 Y1.9718  
G01 X-1.0830 Y1.9782  
G01 X-1.0818 Y1.9843  
G01 X-1.0794 Y1.9902  
G01 X-1.0759 Y1.9954  
G01 X-1.0714 Y1.9999  
G01 X-1.0662 Y2.0034  
G01 X-1.0603 Y2.0058  
G01 X-1.0542 Y2.0070  
G01 X-0.9958 Y2.0070  
G01 X-0.9897 Y2.0058  
G01 X-0.9838 Y2.0034  
G01 X-0.9786 Y1.9999  
G01 X-0.9741 Y1.9954  
G01 X-0.9706 Y1.9902  
G01 X-0.9682 Y1.9843  
G01 X-0.9672 Y1.9789  
G01 X-0.8687 Y1.9461  
G01 X-0.8665 Y1.9455  
G01 X-0.8659 Y1.9452  
G01 X-0.8653 Y1.9450  
G01 X-0.8634 Y1.9437  
G01 X-0.8615 Y1.9426  
G01 X-0.8610 Y1.9421  
G01 X-0.8605 Y1.9418  
G01 X-0.8590 Y1.9401  
G01 X-0.8574 Y1.9385  
G01 X-0.8571 Y1.9379  
G01 X-0.8566 Y1.9374  
G01 X-0.8556 Y1.9354  
G01 X-0.8545 Y1.9335  
G01 X-0.8543 Y1.9328  
G01 X-0.8540 Y1.9322  
G01 X-0.8536 Y1.9301  
G01 X-0.8530 Y1.9279  
G01 X-0.8530 Y1.9272  
G01 X-0.8529 Y1.9266  
G01 X-0.8530 Y1.9243  
G01 X-0.8530 Y1.5508  
G01 X-0.8528 Y1.5488  
G01 X-0.8530 Y1.5480  
G01 X-0.8530 Y1.5471  
G01 X-0.8535 Y1.5451  
G01 X-0.8539 Y1.5431  
G01 X-0.8543 Y1.5423  
G01 X-0.8545 Y1.5415  
G01 X-0.8555 Y1.5397  
G01 X-0.8564 Y1.5379  
G01 X-0.8570 Y1.5372  
G01 X-0.8574 Y1.5365  
G01 X-0.8588 Y1.5350  
G01 X-1.0030 Y1.3669  
G01 X-1.0030 Y1.1567  
G01 X-0.9579 Y1.0890  
G01 X-0.9574 Y1.0885  
G01 X-0.9563 Y1.0866  
G01 X-0.9551 Y1.0848  
G01 X-0.9549 Y1.0841  
G01 X-0.9545 Y1.0835  
G01 X-0.9539 Y1.0814  
G01 X-0.9532 Y1.0793  
G01 X-0.9532 Y1.0786  
G01 X-0.9530 Y1.0779  
G01 X-0.9530 Y1.0757  
G01 X-0.9529 Y1.0735  
G01 X-0.9530 Y1.0728  
G01 X-0.9530 Y0.9221  
G01 X-0.9545 Y0.9165  
G01 X-0.9574 Y0.9115  
G01 X-0.9615 Y0.9074  
G01 X-1.1069 Y0.7620  
G01 X-1.1659 Y0.6440  
G01 X-1.1625 Y0.6405  
G01 X-1.1625 Y0.6095  
G01 X-1.1845 Y0.5875  
G01 X-1.2155 Y0.5875  
G01 X-1.2375 Y0.6095  
G01 X-1.2375 Y0.6187  
G01 X-1.2573 Y0.6283  
G01 X-1.3476 Y0.6639  
G01 X-1.3519 Y0.6608  
G01 X-1.3581 Y0.6576  
G01 X-1.3647 Y0.6555  
G01 X-1.3715 Y0.6544  
G01 X-1.3785 Y0.6544  
G01 X-1.3853 Y0.6555  
G01 X-1.3919 Y0.6576  
G01 X-1.3981 Y0.6608  
G01 X-1.4037 Y0.6649  
G00 Z0.0500  
G00 X-1.3910 Y0.8346  
G01 Z-0.0040 F10    
G01 X-1.3917 Y0.8356  F20    
G01 X-1.3926 Y0.8365  
G01 X-1.3934 Y0.8379  
G01 X-1.3944 Y0.8393  
G01 X-1.3949 Y0.8404  
G01 X-1.3955 Y0.8415  
G01 X-1.3959 Y0.8431  
G01 X-1.3965 Y0.8447  
G01 X-1.3967 Y0.8459  
G01 X-1.3970 Y0.8471  
G01 X-1.3970 Y0.8488  
G01 X-1.3972 Y0.8504  
G01 X-1.3970 Y0.8517  
G01 X-1.3970 Y2.1984  
G01 X-1.3972 Y2.1998  
G01 X-1.3970 Y2.2013  
G01 X-1.3970 Y2.2029  
G01 X-1.3967 Y2.2042  
G01 X-1.3965 Y2.2055  
G01 X-1.3959 Y2.2070  
G01 X-1.3955 Y2.2085  
G01 X-1.3948 Y2.2096  
G01 X-1.3943 Y2.2109  
G01 X-1.3934 Y2.2121  
G01 X-1.3926 Y2.2135  
G01 X-1.3917 Y2.2145  
G01 X-1.1820 Y2.4940  
G01 X-1.1820 Y2.5133  
G01 X-1.1633 Y2.5320  
G01 X-1.1367 Y2.5320  
G01 X-1.1180 Y2.5133  
G01 X-1.1180 Y2.4867  
G01 X-1.1185 Y2.4862  
G01 X-1.0559 Y2.3611  
G01 X-1.0199 Y2.3070  
G01 X-0.9958 Y2.3070  
G01 X-0.9897 Y2.3058  
G01 X-0.9838 Y2.3034  
G01 X-0.9786 Y2.2999  
G01 X-0.9741 Y2.2954  
G01 X-0.9706 Y2.2902  
G01 X-0.9682 Y2.2843  
G01 X-0.9670 Y2.2782  
G01 X-0.9670 Y2.2718  
G01 X-0.9682 Y2.2657  
G01 X-0.9706 Y2.2598  
G01 X-0.9741 Y2.2546  
G01 X-0.9786 Y2.2501  
G01 X-0.9838 Y2.2466  
G01 X-0.9897 Y2.2442  
G01 X-0.9958 Y2.2430  
G01 X-1.0542 Y2.2430  
G01 X-1.0603 Y2.2442  
G01 X-1.0662 Y2.2466  
G01 X-1.0714 Y2.2501  
G01 X-1.0759 Y2.2546  
G01 X-1.0794 Y2.2598  
G01 X-1.0818 Y2.2657  
G01 X-1.0830 Y2.2718  
G01 X-1.0830 Y2.2782  
G01 X-1.0818 Y2.2843  
G01 X-1.0794 Y2.2902  
G01 X-1.0759 Y2.2954  
G01 X-1.0714 Y2.2999  
G01 X-1.0691 Y2.3014  
G01 X-1.0925 Y2.3365  
G01 X-1.0934 Y2.3376  
G01 X-1.0941 Y2.3389  
G01 X-1.0949 Y2.3402  
G01 X-1.0954 Y2.3415  
G01 X-1.1538 Y2.4583  
G01 X-1.3530 Y2.1927  
G01 X-1.3530 Y0.8606  
G01 X-1.2520 Y0.7797  
G01 X-1.2251 Y0.7797  
G01 X-1.2229 Y0.7788  
G01 X-1.2212 Y0.7771  
G01 X-1.2203 Y0.7749  
G01 X-1.2203 Y0.7251  
G01 X-1.2212 Y0.7229  
G01 X-1.2229 Y0.7212  
G01 X-1.2251 Y0.7203  
G01 X-1.2749 Y0.7203  
G01 X-1.2771 Y0.7212  
G01 X-1.2788 Y0.7229  
G01 X-1.2797 Y0.7251  
G01 X-1.2797 Y0.7456  
G01 X-1.3874 Y0.8318  
G01 X-1.3885 Y0.8324  
G01 X-1.3897 Y0.8336  
G01 X-1.3910 Y0.8346  
G00 Z0.0500  
G00 X-1.2297 Y0.8251  
G01 Z-0.0040 F10    
G01 X-1.2297 Y0.8486  F20    
G01 X-1.3176 Y0.9365  
G01 X-1.3205 Y0.9415  
G01 X-1.3220 Y0.9471  
G01 X-1.3220 Y1.3743  
G01 X-1.3221 Y1.3766  
G01 X-1.3220 Y1.3772  
G01 X-1.3220 Y1.3779  
G01 X-1.3214 Y1.3801  
G01 X-1.3210 Y1.3822  
G01 X-1.3207 Y1.3828  
G01 X-1.3205 Y1.3835  
G01 X-1.3194 Y1.3854  
G01 X-1.2699 Y1.4843  
G01 X-1.2690 Y1.4865  
G01 X-1.2686 Y1.4869  
G01 X-1.2684 Y1.4874  
G01 X-1.2668 Y1.4892  
G01 X-1.2654 Y1.4910  
G01 X-1.2649 Y1.4913  
G01 X-1.2645 Y1.4918  
G01 X-1.2626 Y1.4931  
G01 X-1.2607 Y1.4944  
G01 X-1.2602 Y1.4946  
G01 X-1.2597 Y1.4950  
G01 X-1.2575 Y1.4957  
G01 X-1.2553 Y1.4965  
G01 X-1.2547 Y1.4966  
G01 X-1.2542 Y1.4968  
G01 X-1.2519 Y1.4969  
G01 X-1.0365 Y1.5209  
G01 X-0.9470 Y1.6327  
G01 X-0.9470 Y1.7159  
G01 X-0.9802 Y1.7491  
G01 X-0.9838 Y1.7466  
G01 X-0.9897 Y1.7442  
G01 X-0.9958 Y1.7430  
G01 X-1.0542 Y1.7430  
G01 X-1.0603 Y1.7442  
G01 X-1.0662 Y1.7466  
G01 X-1.0714 Y1.7501  
G01 X-1.0759 Y1.7546  
G01 X-1.0794 Y1.7598  
G01 X-1.0818 Y1.7657  
G01 X-1.0830 Y1.7718  
G01 X-1.0830 Y1.7782  
G01 X-1.0818 Y1.7843  
G01 X-1.0794 Y1.7902  
G01 X-1.0759 Y1.7954  
G01 X-1.0714 Y1.7999  
G01 X-1.0662 Y1.8034  
G01 X-1.0603 Y1.8058  
G01 X-1.0542 Y1.8070  
G01 X-0.9958 Y1.8070  
G01 X-0.9897 Y1.8058  
G01 X-0.9838 Y1.8034  
G01 X-0.9786 Y1.7999  
G01 X-0.9757 Y1.7970  
G01 X-0.9721 Y1.7970  
G01 X-0.9665 Y1.7955  
G01 X-0.9615 Y1.7926  
G01 X-0.9115 Y1.7426  
G01 X-0.9074 Y1.7385  
G01 X-0.9045 Y1.7335  
G01 X-0.9030 Y1.7279  
G01 X-0.9030 Y1.6262  
G01 X-0.9028 Y1.6246  
G01 X-0.9030 Y1.6233  
G01 X-0.9030 Y1.6221  
G01 X-0.9034 Y1.6205  
G01 X-0.9037 Y1.6188  
G01 X-0.9042 Y1.6177  
G01 X-0.9045 Y1.6165  
G01 X-0.9053 Y1.6151  
G01 X-0.9060 Y1.6135  
G01 X-0.9068 Y1.6126  
G01 X-0.9074 Y1.6115  
G01 X-0.9086 Y1.6103  
G01 X-1.0096 Y1.4840  
G01 X-1.0143 Y1.4806  
G01 X-1.0197 Y1.4785  
G01 X-1.0248 Y1.4779  
G01 X-1.2357 Y1.4545  
G01 X-1.2780 Y1.3698  
G01 X-1.2780 Y0.9591  
G01 X-1.1986 Y0.8797  
G01 X-1.1751 Y0.8797  
G01 X-1.1729 Y0.8788  
G01 X-1.1712 Y0.8771  
G01 X-1.1703 Y0.8749  
G01 X-1.1703 Y0.8251  
G01 X-1.1712 Y0.8229  
G01 X-1.1729 Y0.8212  
G01 X-1.1751 Y0.8203  
G01 X-1.2249 Y0.8203  
G01 X-1.2271 Y0.8212  
G01 X-1.2288 Y0.8229  
G01 X-1.2297 Y0.8251  
G00 Z0.0500  
G00 X-1.1771 Y0.9212  
G01 Z-0.0040 F10    
G01 X-1.1788 Y0.9229  F20    
G01 X-1.1797 Y0.9251  
G01 X-1.1797 Y0.9530  
G01 X-1.2417 Y1.0355  
G01 X-1.2426 Y1.0365  
G01 X-1.2434 Y1.0379  
G01 X-1.2443 Y1.0391  
G01 X-1.2448 Y1.0404  
G01 X-1.2455 Y1.0415  
G01 X-1.2459 Y1.0430  
G01 X-1.2465 Y1.0445  
G01 X-1.2467 Y1.0458  
G01 X-1.2470 Y1.0471  
G01 X-1.2470 Y1.0487  
G01 X-1.2472 Y1.0502  
G01 X-1.2470 Y1.0516  
G01 X-1.2470 Y1.1767  
G01 X-1.2570 Y1.1867  
G01 X-1.2570 Y1.2133  
G01 X-1.2470 Y1.2233  
G01 X-1.2470 Y1.3017  
G01 X-1.2570 Y1.3117  
G01 X-1.2570 Y1.3383  
G01 X-1.2383 Y1.3570  
G01 X-1.2117 Y1.3570  
G01 X-1.1930 Y1.3383  
G01 X-1.1930 Y1.3117  
G01 X-1.2030 Y1.3017  
G01 X-1.2030 Y1.2233  
G01 X-1.1930 Y1.2133  
G01 X-1.1930 Y1.1867  
G01 X-1.2030 Y1.1767  
G01 X-1.2030 Y1.0573  
G01 X-1.1448 Y0.9797  
G01 X-1.1251 Y0.9797  
G01 X-1.1229 Y0.9788  
G01 X-1.1212 Y0.9771  
G01 X-1.1203 Y0.9749  
G01 X-1.1203 Y0.9251  
G01 X-1.1212 Y0.9229  
G01 X-1.1229 Y0.9212  
G01 X-1.1251 Y0.9203  
G01 X-1.1749 Y0.9203  
G01 X-1.1771 Y0.9212  
G00 Z0.0500  
G00 X-1.0883 Y1.0180  
G01 Z-0.0040 F10    
G01 X-1.1070 Y1.0367  F20    
G01 X-1.1070 Y1.0509  
G01 X-1.1385 Y1.0824  
G01 X-1.1426 Y1.0865  
G01 X-1.1455 Y1.0915  
G01 X-1.1470 Y1.0971  
G01 X-1.1470 Y1.2743  
G01 X-1.1471 Y1.2765  
G01 X-1.1470 Y1.2772  
G01 X-1.1470 Y1.2779  
G01 X-1.1464 Y1.2800  
G01 X-1.1262 Y1.3810  
G01 X-1.1320 Y1.3867  
G01 X-1.1320 Y1.4133  
G01 X-1.1133 Y1.4320  
G01 X-1.0867 Y1.4320  
G01 X-1.0680 Y1.4133  
G01 X-1.0680 Y1.3867  
G01 X-1.0833 Y1.3715  
G01 X-1.1030 Y1.2728  
G01 X-1.1030 Y1.1091  
G01 X-1.0759 Y1.0820  
G01 X-1.0617 Y1.0820  
G01 X-1.0430 Y1.0633  
G01 X-1.0430 Y1.0367  
G01 X-1.0617 Y1.0180  
G01 X-1.0883 Y1.0180  
G00 Z0.0500  
G00 X-0.8970 Y1.1029  
G01 Z-0.0040 F10    
G01 X-0.8955 Y1.1085  F20    
G01 X-0.8926 Y1.1135  
G01 X-0.8885 Y1.1176  
G01 X-0.8470 Y1.1591  
G01 X-0.8470 Y1.9228  
G01 X-0.8471 Y1.9234  
G01 X-0.8470 Y1.9257  
G01 X-0.8470 Y1.9279  
G01 X-0.8468 Y1.9285  
G01 X-0.8468 Y1.9292  
G01 X-0.8461 Y1.9313  
G01 X-0.8455 Y1.9335  
G01 X-0.8452 Y1.9341  
G01 X-0.8450 Y1.9347  
G01 X-0.8437 Y1.9366  
G01 X-0.8426 Y1.9385  
G01 X-0.8421 Y1.9390  
G01 X-0.8418 Y1.9395  
G01 X-0.8401 Y1.9410  
G01 X-0.8385 Y1.9426  
G01 X-0.8379 Y1.9429  
G01 X-0.8374 Y1.9434  
G01 X-0.8354 Y1.9444  
G01 X-0.8335 Y1.9455  
G01 X-0.8328 Y1.9457  
G01 X-0.7828 Y1.9707  
G01 X-0.7830 Y1.9718  
G01 X-0.7830 Y1.9782  
G01 X-0.7818 Y1.9843  
G01 X-0.7794 Y1.9902  
G01 X-0.7759 Y1.9954  
G01 X-0.7714 Y1.9999  
G01 X-0.7662 Y2.0034  
G01 X-0.7603 Y2.0058  
G01 X-0.7542 Y2.0070  
G01 X-0.6958 Y2.0070  
G01 X-0.6897 Y2.0058  
G01 X-0.6876 Y2.0049  
G01 X-0.6108 Y2.0203  
G01 X-0.5820 Y2.0491  
G01 X-0.5820 Y2.0633  
G01 X-0.5633 Y2.0820  
G01 X-0.5367 Y2.0820  
G01 X-0.5180 Y2.0633  
G01 X-0.5180 Y2.0367  
G01 X-0.5367 Y2.0180  
G01 X-0.5509 Y2.0180  
G01 X-0.5829 Y1.9860  
G01 X-0.5833 Y1.9854  
G01 X-0.5849 Y1.9839  
G01 X-0.5865 Y1.9824  
G01 X-0.5871 Y1.9820  
G01 X-0.5877 Y1.9816  
G01 X-0.5896 Y1.9806  
G01 X-0.5915 Y1.9795  
G01 X-0.5922 Y1.9793  
G01 X-0.5928 Y1.9790  
G01 X-0.5950 Y1.9786  
G01 X-0.5971 Y1.9780  
G01 X-0.5978 Y1.9780  
G01 X-0.6690 Y1.9638  
G01 X-0.6706 Y1.9598  
G01 X-0.6741 Y1.9546  
G01 X-0.6786 Y1.9501  
G01 X-0.6838 Y1.9466  
G01 X-0.6897 Y1.9442  
G01 X-0.6958 Y1.9430  
G01 X-0.7398 Y1.9430  
G01 X-0.8030 Y1.9114  
G01 X-0.8030 Y1.1471  
G01 X-0.8045 Y1.1415  
G01 X-0.8074 Y1.1365  
G01 X-0.8530 Y1.0909  
G01 X-0.8530 Y0.6554  
G01 X-0.8511 Y0.6541  
G01 X-0.8459 Y0.6489  
G01 X-0.8418 Y0.6428  
G01 X-0.8389 Y0.6359  
G01 X-0.8375 Y0.6287  
G01 X-0.8375 Y0.6213  
G01 X-0.8389 Y0.6141  
G01 X-0.8398 Y0.6119  
G01 X-0.8078 Y0.5639  
G01 X-0.7874 Y0.5428  
G01 X-0.7869 Y0.5429  
G01 X-0.7800 Y0.5440  
G01 X-0.7731 Y0.5440  
G01 X-0.7663 Y0.5429  
G01 X-0.7597 Y0.5408  
G01 X-0.7535 Y0.5376  
G01 X-0.7479 Y0.5336  
G01 X-0.7430 Y0.5287  
G01 X-0.7389 Y0.5231  
G01 X-0.7358 Y0.5169  
G01 X-0.7337 Y0.5103  
G01 X-0.7326 Y0.5035  
G01 X-0.7326 Y0.4965  
G01 X-0.7337 Y0.4897  
G01 X-0.7358 Y0.4831  
G01 X-0.7389 Y0.4769  
G01 X-0.7430 Y0.4713  
G01 X-0.7479 Y0.4664  
G01 X-0.7535 Y0.4624  
G01 X-0.7597 Y0.4592  
G01 X-0.7663 Y0.4571  
G01 X-0.7731 Y0.4560  
G01 X-0.7800 Y0.4560  
G01 X-0.7869 Y0.4571  
G01 X-0.7935 Y0.4592  
G01 X-0.7996 Y0.4624  
G01 X-0.8052 Y0.4664  
G01 X-0.8101 Y0.4713  
G01 X-0.8142 Y0.4769  
G01 X-0.8174 Y0.4831  
G01 X-0.8195 Y0.4897  
G01 X-0.8206 Y0.4965  
G01 X-0.8206 Y0.5035  
G01 X-0.8195 Y0.5103  
G01 X-0.8189 Y0.5121  
G01 X-0.8402 Y0.5341  
G01 X-0.8417 Y0.5354  
G01 X-0.8422 Y0.5361  
G01 X-0.8428 Y0.5368  
G01 X-0.8438 Y0.5385  
G01 X-0.8764 Y0.5875  
G01 X-0.8787 Y0.5875  
G01 X-0.8859 Y0.5889  
G01 X-0.8928 Y0.5918  
G01 X-0.8989 Y0.5959  
G01 X-0.9041 Y0.6011  
G01 X-0.9082 Y0.6072  
G01 X-0.9111 Y0.6141  
G01 X-0.9125 Y0.6213  
G01 X-0.9125 Y0.6287  
G01 X-0.9111 Y0.6359  
G01 X-0.9082 Y0.6428  
G01 X-0.9041 Y0.6489  
G01 X-0.8989 Y0.6541  
G01 X-0.8970 Y0.6554  
G01 X-0.8970 Y1.1029  
G00 Z0.0500  
G00 X-0.9117 Y1.1680  
G01 Z-0.0040 F10    
G01 X-0.9383 Y1.1680  F20    
G01 X-0.9570 Y1.1867  
G01 X-0.9570 Y1.2133  
G01 X-0.9470 Y1.2233  
G01 X-0.9470 Y1.3017  
G01 X-0.9570 Y1.3117  
G01 X-0.9570 Y1.3383  
G01 X-0.9383 Y1.3570  
G01 X-0.9117 Y1.3570  
G01 X-0.8930 Y1.3383  
G01 X-0.8930 Y1.3117  
G01 X-0.9030 Y1.3017  
G01 X-0.9030 Y1.2233  
G01 X-0.8930 Y1.2133  
G01 X-0.8930 Y1.1867  
G01 X-0.9117 Y1.1680  
G00 Z0.0500  
G00 X-0.8070 Y1.0633  
G01 Z-0.0040 F10    
G01 X-0.7883 Y1.0820  F20    
G01 X-0.7617 Y1.0820  
G01 X-0.7517 Y1.0720  
G01 X-0.7091 Y1.0720  
G01 X-0.6820 Y1.0991  
G01 X-0.6820 Y1.1133  
G01 X-0.6633 Y1.1320  
G01 X-0.6367 Y1.1320  
G01 X-0.6267 Y1.1220  
G01 X-0.5221 Y1.1220  
G01 X-0.5165 Y1.1205  
G01 X-0.5115 Y1.1176  
G01 X-0.4159 Y1.0220  
G01 X-0.3063 Y1.0220  
G01 X-0.1490 Y1.1203  
G01 X-0.1490 Y1.1257  
G01 X-0.1478 Y1.1333  
G01 X-0.1454 Y1.1407  
G01 X-0.1419 Y1.1475  
G01 X-0.1374 Y1.1538  
G01 X-0.1319 Y1.1592  
G01 X-0.1257 Y1.1638  
G01 X-0.1188 Y1.1673  
G01 X-0.1115 Y1.1696  
G01 X-0.1039 Y1.1709  
G01 X-0.0961 Y1.1709  
G01 X-0.0885 Y1.1696  
G01 X-0.0812 Y1.1673  
G01 X-0.0743 Y1.1638  
G01 X-0.0681 Y1.1592  
G01 X-0.0626 Y1.1538  
G01 X-0.0581 Y1.1475  
G01 X-0.0546 Y1.1407  
G01 X-0.0522 Y1.1333  
G01 X-0.0510 Y1.1257  
G01 X-0.0510 Y1.1180  
G01 X-0.0522 Y1.1104  
G01 X-0.0546 Y1.1030  
G01 X-0.0581 Y1.0962  
G01 X-0.0626 Y1.0899  
G01 X-0.0681 Y1.0845  
G01 X-0.0743 Y1.0799  
G01 X-0.0812 Y1.0764  
G01 X-0.0885 Y1.0741  
G01 X-0.0961 Y1.0729  
G01 X-0.1039 Y1.0729  
G01 X-0.1115 Y1.0741  
G01 X-0.1188 Y1.0764  
G01 X-0.1257 Y1.0799  
G01 X-0.1279 Y1.0816  
G01 X-0.2862 Y0.9827  
G01 X-0.2865 Y0.9824  
G01 X-0.2887 Y0.9811  
G01 X-0.2908 Y0.9798  
G01 X-0.2912 Y0.9797  
G01 X-0.2915 Y0.9795  
G01 X-0.2939 Y0.9788  
G01 X-0.2963 Y0.9781  
G01 X-0.2967 Y0.9781  
G01 X-0.2971 Y0.9780  
G01 X-0.2996 Y0.9780  
G01 X-0.3021 Y0.9779  
G01 X-0.3025 Y0.9780  
G01 X-0.4279 Y0.9780  
G01 X-0.4335 Y0.9795  
G01 X-0.4385 Y0.9824  
G01 X-0.4426 Y0.9865  
G01 X-0.5341 Y1.0780  
G01 X-0.6267 Y1.0780  
G01 X-0.6367 Y1.0680  
G01 X-0.6509 Y1.0680  
G01 X-0.6865 Y1.0324  
G01 X-0.6915 Y1.0295  
G01 X-0.6971 Y1.0280  
G01 X-0.7517 Y1.0280  
G01 X-0.7617 Y1.0180  
G01 X-0.7883 Y1.0180  
G01 X-0.8070 Y1.0367  
G01 X-0.8070 Y1.0633  
G00 Z0.0500  
G00 X-0.7788 Y0.9771  
G01 Z-0.0040 F10    
G01 X-0.7771 Y0.9788  F20    
G01 X-0.7749 Y0.9797  
G01 X-0.7251 Y0.9797  
G01 X-0.7229 Y0.9788  
G01 X-0.7212 Y0.9771  
G01 X-0.7203 Y0.9749  
G01 X-0.7203 Y0.9251  
G01 X-0.7212 Y0.9229  
G01 X-0.7229 Y0.9212  
G01 X-0.7251 Y0.9203  
G01 X-0.7280 Y0.9203  
G01 X-0.7280 Y0.8341  
G01 X-0.6659 Y0.7720  
G01 X-0.1219 Y0.7720  
G01 X-0.1188 Y0.7736  
G01 X-0.1115 Y0.7759  
G01 X-0.1039 Y0.7771  
G01 X-0.0961 Y0.7771  
G01 X-0.0885 Y0.7759  
G01 X-0.0812 Y0.7736  
G01 X-0.0743 Y0.7701  
G01 X-0.0681 Y0.7655  
G01 X-0.0626 Y0.7601  
G01 X-0.0581 Y0.7538  
G01 X-0.0546 Y0.7470  
G01 X-0.0522 Y0.7396  
G01 X-0.0510 Y0.7320  
G01 X-0.0510 Y0.7243  
G01 X-0.0522 Y0.7167  
G01 X-0.0546 Y0.7093  
G01 X-0.0581 Y0.7025  
G01 X-0.0626 Y0.6962  
G01 X-0.0681 Y0.6908  
G01 X-0.0743 Y0.6862  
G01 X-0.0812 Y0.6827  
G01 X-0.0885 Y0.6804  
G01 X-0.0961 Y0.6791  
G01 X-0.1039 Y0.6791  
G01 X-0.1115 Y0.6804  
G01 X-0.1188 Y0.6827  
G01 X-0.1257 Y0.6862  
G01 X-0.1319 Y0.6908  
G01 X-0.1374 Y0.6962  
G01 X-0.1419 Y0.7025  
G01 X-0.1454 Y0.7093  
G01 X-0.1478 Y0.7167  
G01 X-0.1490 Y0.7243  
G01 X-0.1490 Y0.7280  
G01 X-0.6779 Y0.7280  
G01 X-0.6835 Y0.7295  
G01 X-0.6885 Y0.7324  
G01 X-0.6926 Y0.7365  
G01 X-0.7676 Y0.8115  
G01 X-0.7705 Y0.8165  
G01 X-0.7720 Y0.8221  
G01 X-0.7720 Y0.9203  
G01 X-0.7749 Y0.9203  
G01 X-0.7771 Y0.9212  
G01 X-0.7788 Y0.9229  
G01 X-0.7797 Y0.9251  
G01 X-0.7797 Y0.9749  
G01 X-0.7788 Y0.9771  
G00 Z0.0500  
G00 X-0.7751 Y0.7797  
G01 Z-0.0040 F10    
G01 X-0.7729 Y0.7788  F20    
G01 X-0.7712 Y0.7771  
G01 X-0.7703 Y0.7749  
G01 X-0.7703 Y0.7450  
G01 X-0.7349 Y0.6921  
G01 X-0.6690 Y0.6591  
G01 X-0.6655 Y0.6625  
G01 X-0.6345 Y0.6625  
G01 X-0.6125 Y0.6405  
G01 X-0.6125 Y0.6095  
G01 X-0.6345 Y0.5875  
G01 X-0.6655 Y0.5875  
G01 X-0.6875 Y0.6095  
G01 X-0.6875 Y0.6192  
G01 X-0.7598 Y0.6553  
G01 X-0.7623 Y0.6566  
G01 X-0.7646 Y0.6585  
G01 X-0.7667 Y0.6604  
G01 X-0.7683 Y0.6628  
G01 X-0.8066 Y0.7203  
G01 X-0.8249 Y0.7203  
G01 X-0.8271 Y0.7212  
G01 X-0.8288 Y0.7229  
G01 X-0.8297 Y0.7251  
G01 X-0.8297 Y0.7749  
G01 X-0.8288 Y0.7771  
G01 X-0.8271 Y0.7788  
G01 X-0.8249 Y0.7797  
G01 X-0.7751 Y0.7797  
G00 Z0.0500  
G00 X-0.6521 Y0.8212  
G01 Z-0.0040 F10    
G01 X-0.6538 Y0.8229  F20    
G01 X-0.6547 Y0.8251  
G01 X-0.6547 Y0.8749  
G01 X-0.6538 Y0.8771  
G01 X-0.6521 Y0.8788  
G01 X-0.6499 Y0.8797  
G01 X-0.6001 Y0.8797  
G01 X-0.5979 Y0.8788  
G01 X-0.5962 Y0.8771  
G01 X-0.5953 Y0.8749  
G01 X-0.5953 Y0.8720  
G01 X-0.1841 Y0.8720  
G01 X-0.1465 Y0.9096  
G01 X-0.1478 Y0.9135  
G01 X-0.1490 Y0.9211  
G01 X-0.1490 Y0.9289  
G01 X-0.1478 Y0.9365  
G01 X-0.1454 Y0.9438  
G01 X-0.1419 Y0.9507  
G01 X-0.1374 Y0.9569  
G01 X-0.1319 Y0.9624  
G01 X-0.1257 Y0.9669  
G01 X-0.1188 Y0.9704  
G01 X-0.1115 Y0.9728  
G01 X-0.1039 Y0.9740  
G01 X-0.0961 Y0.9740  
G01 X-0.0885 Y0.9728  
G01 X-0.0812 Y0.9704  
G01 X-0.0743 Y0.9669  
G01 X-0.0681 Y0.9624  
G01 X-0.0626 Y0.9569  
G01 X-0.0581 Y0.9507  
G01 X-0.0546 Y0.9438  
G01 X-0.0522 Y0.9365  
G01 X-0.0510 Y0.9289  
G01 X-0.0510 Y0.9211  
G01 X-0.0522 Y0.9135  
G01 X-0.0546 Y0.9062  
G01 X-0.0581 Y0.8993  
G01 X-0.0626 Y0.8931  
G01 X-0.0681 Y0.8876  
G01 X-0.0743 Y0.8831  
G01 X-0.0812 Y0.8796  
G01 X-0.0885 Y0.8772  
G01 X-0.0961 Y0.8760  
G01 X-0.1039 Y0.8760  
G01 X-0.1115 Y0.8772  
G01 X-0.1154 Y0.8785  
G01 X-0.1615 Y0.8324  
G01 X-0.1665 Y0.8295  
G01 X-0.1721 Y0.8280  
G01 X-0.5953 Y0.8280  
G01 X-0.5953 Y0.8251  
G01 X-0.5962 Y0.8229  
G01 X-0.5979 Y0.8212  
G01 X-0.6001 Y0.8203  
G01 X-0.6499 Y0.8203  
G01 X-0.6521 Y0.8212  
G00 Z0.0500  
G00 X-0.7012 Y1.2279  
G01 Z-0.0040 F10    
G01 X-0.7016 Y1.2279  F20    
G01 X-0.7040 Y1.2284  
G01 X-0.7065 Y1.2288  
G01 X-0.7068 Y1.2289  
G01 X-0.7072 Y1.2290  
G01 X-0.7095 Y1.2301  
G01 X-0.7117 Y1.2312  
G01 X-0.7121 Y1.2314  
G01 X-0.7124 Y1.2316  
G01 X-0.7143 Y1.2333  
G01 X-0.7162 Y1.2349  
G01 X-0.7165 Y1.2352  
G01 X-0.7168 Y1.2355  
G01 X-0.7181 Y1.2375  
G01 X-0.7196 Y1.2396  
G01 X-0.7197 Y1.2400  
G01 X-0.7200 Y1.2403  
G01 X-0.7207 Y1.2427  
G01 X-0.7216 Y1.2450  
G01 X-0.7217 Y1.2454  
G01 X-0.7375 Y1.2930  
G01 X-0.7383 Y1.2930  
G01 X-0.7570 Y1.3117  
G01 X-0.7570 Y1.3383  
G01 X-0.7470 Y1.3483  
G01 X-0.7470 Y1.6430  
G01 X-0.7542 Y1.6430  
G01 X-0.7603 Y1.6442  
G01 X-0.7662 Y1.6466  
G01 X-0.7714 Y1.6501  
G01 X-0.7759 Y1.6546  
G01 X-0.7794 Y1.6598  
G01 X-0.7818 Y1.6657  
G01 X-0.7830 Y1.6718  
G01 X-0.7830 Y1.6782  
G01 X-0.7818 Y1.6843  
G01 X-0.7794 Y1.6902  
G01 X-0.7759 Y1.6954  
G01 X-0.7714 Y1.6999  
G01 X-0.7662 Y1.7034  
G01 X-0.7603 Y1.7058  
G01 X-0.7542 Y1.7070  
G01 X-0.6958 Y1.7070  
G01 X-0.6897 Y1.7058  
G01 X-0.6838 Y1.7034  
G01 X-0.6786 Y1.6999  
G01 X-0.6741 Y1.6954  
G01 X-0.6706 Y1.6902  
G01 X-0.6682 Y1.6843  
G01 X-0.6670 Y1.6782  
G01 X-0.6670 Y1.6718  
G01 X-0.6682 Y1.6657  
G01 X-0.6706 Y1.6598  
G01 X-0.6741 Y1.6546  
G01 X-0.6786 Y1.6501  
G01 X-0.6838 Y1.6466  
G01 X-0.6897 Y1.6442  
G01 X-0.6958 Y1.6430  
G01 X-0.7030 Y1.6430  
G01 X-0.7030 Y1.3483  
G01 X-0.6930 Y1.3383  
G01 X-0.6930 Y1.3117  
G01 X-0.6963 Y1.3085  
G01 X-0.6833 Y1.2695  
G01 X-0.5697 Y1.2506  
G01 X-0.5633 Y1.2570  
G01 X-0.5367 Y1.2570  
G01 X-0.5180 Y1.2383  
G01 X-0.5180 Y1.2309  
G01 X-0.3597 Y1.1320  
G01 X-0.3535 Y1.1320  
G01 X-0.2941 Y1.2112  
G01 X-0.2939 Y1.2117  
G01 X-0.2923 Y1.2136  
G01 X-0.2909 Y1.2155  
G01 X-0.2905 Y1.2158  
G01 X-0.1677 Y1.3662  
G01 X-0.1426 Y1.4039  
G01 X-0.1454 Y1.4093  
G01 X-0.1478 Y1.4167  
G01 X-0.1490 Y1.4243  
G01 X-0.1490 Y1.4320  
G01 X-0.1478 Y1.4396  
G01 X-0.1454 Y1.4470  
G01 X-0.1419 Y1.4538  
G01 X-0.1374 Y1.4601  
G01 X-0.1319 Y1.4655  
G01 X-0.1257 Y1.4701  
G01 X-0.1220 Y1.4719  
G01 X-0.1220 Y1.5812  
G01 X-0.1257 Y1.5831  
G01 X-0.1319 Y1.5876  
G01 X-0.1374 Y1.5931  
G01 X-0.1419 Y1.5993  
G01 X-0.1454 Y1.6062  
G01 X-0.1478 Y1.6135  
G01 X-0.1490 Y1.6211  
G01 X-0.1490 Y1.6289  
G01 X-0.1478 Y1.6365  
G01 X-0.1454 Y1.6438  
G01 X-0.1419 Y1.6507  
G01 X-0.1374 Y1.6569  
G01 X-0.1319 Y1.6624  
G01 X-0.1257 Y1.6669  
G01 X-0.1188 Y1.6704  
G01 X-0.1115 Y1.6728  
G01 X-0.1039 Y1.6740  
G01 X-0.0961 Y1.6740  
G01 X-0.0885 Y1.6728  
G01 X-0.0812 Y1.6704  
G01 X-0.0743 Y1.6669  
G01 X-0.0681 Y1.6624  
G01 X-0.0626 Y1.6569  
G01 X-0.0581 Y1.6507  
G01 X-0.0546 Y1.6438  
G01 X-0.0522 Y1.6365  
G01 X-0.0510 Y1.6289  
G01 X-0.0510 Y1.6211  
G01 X-0.0522 Y1.6135  
G01 X-0.0546 Y1.6062  
G01 X-0.0581 Y1.5993  
G01 X-0.0626 Y1.5931  
G01 X-0.0681 Y1.5876  
G01 X-0.0743 Y1.5831  
G01 X-0.0780 Y1.5812  
G01 X-0.0780 Y1.4719  
G01 X-0.0743 Y1.4701  
G01 X-0.0681 Y1.4655  
G01 X-0.0626 Y1.4601  
G01 X-0.0581 Y1.4538  
G01 X-0.0546 Y1.4470  
G01 X-0.0522 Y1.4396  
G01 X-0.0510 Y1.4320  
G01 X-0.0510 Y1.4243  
G01 X-0.0522 Y1.4167  
G01 X-0.0546 Y1.4093  
G01 X-0.0581 Y1.4025  
G01 X-0.0626 Y1.3962  
G01 X-0.0681 Y1.3908  
G01 X-0.0743 Y1.3862  
G01 X-0.0812 Y1.3827  
G01 X-0.0885 Y1.3804  
G01 X-0.0961 Y1.3791  
G01 X-0.1039 Y1.3791  
G01 X-0.1060 Y1.3795  
G01 X-0.1307 Y1.3425  
G01 X-0.1311 Y1.3415  
G01 X-0.1323 Y1.3401  
G01 X-0.1333 Y1.3385  
G01 X-0.1341 Y1.3378  
G01 X-0.2577 Y1.1864  
G01 X-0.3180 Y1.1060  
G01 X-0.3180 Y1.0867  
G01 X-0.3367 Y1.0680  
G01 X-0.3633 Y1.0680  
G01 X-0.3820 Y1.0867  
G01 X-0.3820 Y1.0941  
G01 X-0.5403 Y1.1930  
G01 X-0.5633 Y1.1930  
G01 X-0.5775 Y1.2073  
G01 X-0.7012 Y1.2279  
G00 Z0.0500  
G00 X-0.5645 Y1.3082  
G01 Z-0.0040 F10    
G01 X-0.5660 Y1.3099  F20    
G01 X-0.5676 Y1.3115  
G01 X-0.5679 Y1.3121  
G01 X-0.5684 Y1.3126  
G01 X-0.5694 Y1.3146  
G01 X-0.5705 Y1.3165  
G01 X-0.5707 Y1.3172  
G01 X-0.5710 Y1.3178  
G01 X-0.5714 Y1.3199  
G01 X-0.5720 Y1.3221  
G01 X-0.5720 Y1.3228  
G01 X-0.5721 Y1.3234  
G01 X-0.5720 Y1.3257  
G01 X-0.5720 Y1.4017  
G01 X-0.5820 Y1.4117  
G01 X-0.5820 Y1.4383  
G01 X-0.5720 Y1.4483  
G01 X-0.5720 Y1.7084  
G01 X-0.6942 Y1.7433  
G01 X-0.6958 Y1.7430  
G01 X-0.7542 Y1.7430  
G01 X-0.7603 Y1.7442  
G01 X-0.7662 Y1.7466  
G01 X-0.7714 Y1.7501  
G01 X-0.7759 Y1.7546  
G01 X-0.7794 Y1.7598  
G01 X-0.7818 Y1.7657  
G01 X-0.7830 Y1.7718  
G01 X-0.7830 Y1.7782  
G01 X-0.7818 Y1.7843  
G01 X-0.7794 Y1.7902  
G01 X-0.7759 Y1.7954  
G01 X-0.7714 Y1.7999  
G01 X-0.7662 Y1.8034  
G01 X-0.7603 Y1.8058  
G01 X-0.7542 Y1.8070  
G01 X-0.6958 Y1.8070  
G01 X-0.6897 Y1.8058  
G01 X-0.6838 Y1.8034  
G01 X-0.6786 Y1.7999  
G01 X-0.6741 Y1.7954  
G01 X-0.6706 Y1.7902  
G01 X-0.6682 Y1.7843  
G01 X-0.6677 Y1.7815  
G01 X-0.5441 Y1.7462  
G01 X-0.5415 Y1.7455  
G01 X-0.5413 Y1.7454  
G01 X-0.5412 Y1.7454  
G01 X-0.5388 Y1.7440  
G01 X-0.5365 Y1.7426  
G01 X-0.5364 Y1.7425  
G01 X-0.5362 Y1.7424  
G01 X-0.5343 Y1.7404  
G01 X-0.5324 Y1.7385  
G01 X-0.5323 Y1.7383  
G01 X-0.5322 Y1.7382  
G01 X-0.5309 Y1.7358  
G01 X-0.5295 Y1.7335  
G01 X-0.5295 Y1.7333  
G01 X-0.5294 Y1.7332  
G01 X-0.5287 Y1.7305  
G01 X-0.5280 Y1.7279  
G01 X-0.5280 Y1.7277  
G01 X-0.5280 Y1.7275  
G01 X-0.5280 Y1.7248  
G01 X-0.5280 Y1.6720  
G01 X-0.3814 Y1.6720  
G01 X-0.1490 Y1.8189  
G01 X-0.1490 Y1.8257  
G01 X-0.1478 Y1.8333  
G01 X-0.1454 Y1.8407  
G01 X-0.1419 Y1.8475  
G01 X-0.1374 Y1.8538  
G01 X-0.1319 Y1.8592  
G01 X-0.1257 Y1.8638  
G01 X-0.1188 Y1.8673  
G01 X-0.1115 Y1.8696  
G01 X-0.1039 Y1.8709  
G01 X-0.0961 Y1.8709  
G01 X-0.0885 Y1.8696  
G01 X-0.0812 Y1.8673  
G01 X-0.0743 Y1.8638  
G01 X-0.0681 Y1.8592  
G01 X-0.0626 Y1.8538  
G01 X-0.0581 Y1.8475  
G01 X-0.0546 Y1.8407  
G01 X-0.0522 Y1.8333  
G01 X-0.0510 Y1.8257  
G01 X-0.0510 Y1.8180  
G01 X-0.0522 Y1.8104  
G01 X-0.0546 Y1.8030  
G01 X-0.0581 Y1.7962  
G01 X-0.0626 Y1.7899  
G01 X-0.0681 Y1.7845  
G01 X-0.0743 Y1.7799  
G01 X-0.0812 Y1.7764  
G01 X-0.0885 Y1.7741  
G01 X-0.0961 Y1.7729  
G01 X-0.1039 Y1.7729  
G01 X-0.1115 Y1.7741  
G01 X-0.1188 Y1.7764  
G01 X-0.1257 Y1.7799  
G01 X-0.1269 Y1.7808  
G01 X-0.3612 Y1.6327  
G01 X-0.3615 Y1.6324  
G01 X-0.3636 Y1.6312  
G01 X-0.3657 Y1.6299  
G01 X-0.3661 Y1.6297  
G01 X-0.3665 Y1.6295  
G01 X-0.3689 Y1.6289  
G01 X-0.3712 Y1.6281  
G01 X-0.3717 Y1.6281  
G01 X-0.3721 Y1.6280  
G01 X-0.3746 Y1.6280  
G01 X-0.3770 Y1.6279  
G01 X-0.3774 Y1.6280  
G01 X-0.5280 Y1.6280  
G01 X-0.5280 Y1.4483  
G01 X-0.5180 Y1.4383  
G01 X-0.5180 Y1.4117  
G01 X-0.5280 Y1.4017  
G01 X-0.5280 Y1.3409  
G01 X-0.4224 Y1.3057  
G01 X-0.4155 Y1.3125  
G01 X-0.3845 Y1.3125  
G01 X-0.3625 Y1.2905  
G01 X-0.3625 Y1.2595  
G01 X-0.3845 Y1.2375  
G01 X-0.4155 Y1.2375  
G01 X-0.4322 Y1.2541  
G01 X-0.4335 Y1.2545  
G01 X-0.4385 Y1.2574  
G01 X-0.4426 Y1.2615  
G01 X-0.4455 Y1.2665  
G01 X-0.4456 Y1.2670  
G01 X-0.5563 Y1.3039  
G01 X-0.5585 Y1.3045  
G01 X-0.5591 Y1.3048  
G01 X-0.5597 Y1.3050  
G01 X-0.5616 Y1.3063  
G01 X-0.5635 Y1.3074  
G01 X-0.5640 Y1.3079  
G01 X-0.5645 Y1.3082  
G00 Z0.0500  
G00 X-0.4239 Y1.3459  
G01 Z-0.0040 F10    
G01 X-0.4291 Y1.3511  F20    
G01 X-0.4332 Y1.3572  
G01 X-0.4361 Y1.3641  
G01 X-0.4375 Y1.3713  
G01 X-0.4375 Y1.3787  
G01 X-0.4361 Y1.3859  
G01 X-0.4332 Y1.3928  
G01 X-0.4291 Y1.3989  
G01 X-0.4239 Y1.4041  
G01 X-0.4220 Y1.4054  
G01 X-0.4220 Y1.4767  
G01 X-0.4320 Y1.4867  
G01 X-0.4320 Y1.5133  
G01 X-0.4133 Y1.5320  
G01 X-0.3867 Y1.5320  
G01 X-0.3680 Y1.5133  
G01 X-0.3680 Y1.4867  
G01 X-0.3780 Y1.4767  
G01 X-0.3780 Y1.4054  
G01 X-0.3761 Y1.4041  
G01 X-0.3709 Y1.3989  
G01 X-0.3668 Y1.3928  
G01 X-0.3639 Y1.3859  
G01 X-0.3625 Y1.3787  
G01 X-0.3625 Y1.3713  
G01 X-0.3639 Y1.3641  
G01 X-0.3668 Y1.3572  
G01 X-0.3709 Y1.3511  
G01 X-0.3761 Y1.3459  
G01 X-0.3822 Y1.3418  
G01 X-0.3891 Y1.3389  
G01 X-0.3963 Y1.3375  
G01 X-0.4037 Y1.3375  
G01 X-0.4109 Y1.3389  
G01 X-0.4178 Y1.3418  
G01 X-0.4239 Y1.3459  
G00 Z0.0500  
G00 X-0.4765 Y1.8799  
G01 Z-0.0040 F10    
G01 X-0.5049 Y1.8515  F20    
G01 X-0.5451 Y1.8515  
G01 X-0.5663 Y1.8727  
G01 X-0.6708 Y1.8596  
G01 X-0.6741 Y1.8546  
G01 X-0.6786 Y1.8501  
G01 X-0.6838 Y1.8466  
G01 X-0.6897 Y1.8442  
G01 X-0.6958 Y1.8430  
G01 X-0.7542 Y1.8430  
G01 X-0.7603 Y1.8442  
G01 X-0.7662 Y1.8466  
G01 X-0.7714 Y1.8501  
G01 X-0.7759 Y1.8546  
G01 X-0.7794 Y1.8598  
G01 X-0.7818 Y1.8657  
G01 X-0.7830 Y1.8718  
G01 X-0.7830 Y1.8782  
G01 X-0.7818 Y1.8843  
G01 X-0.7794 Y1.8902  
G01 X-0.7759 Y1.8954  
G01 X-0.7714 Y1.8999  
G01 X-0.7662 Y1.9034  
G01 X-0.7603 Y1.9058  
G01 X-0.7542 Y1.9070  
G01 X-0.6958 Y1.9070  
G01 X-0.6897 Y1.9058  
G01 X-0.6838 Y1.9034  
G01 X-0.6825 Y1.9025  
G01 X-0.5735 Y1.9161  
G01 X-0.5735 Y1.9201  
G01 X-0.5451 Y1.9485  
G01 X-0.5049 Y1.9485  
G01 X-0.4765 Y1.9201  
G01 X-0.4765 Y1.8799  
G00 Z0.0500  
G00 X-0.4714 Y2.2030  
G01 Z-0.0040 F10    
G01 X-0.5180 Y2.1875  F20    
G01 X-0.5180 Y2.1867  
G01 X-0.5367 Y2.1680  
G01 X-0.5633 Y2.1680  
G01 X-0.5733 Y2.1780  
G01 X-0.5978 Y2.1780  
G01 X-0.6690 Y2.1638  
G01 X-0.6706 Y2.1598  
G01 X-0.6741 Y2.1546  
G01 X-0.6786 Y2.1501  
G01 X-0.6838 Y2.1466  
G01 X-0.6897 Y2.1442  
G01 X-0.6958 Y2.1430  
G01 X-0.7542 Y2.1430  
G01 X-0.7603 Y2.1442  
G01 X-0.7662 Y2.1466  
G01 X-0.7714 Y2.1501  
G01 X-0.7759 Y2.1546  
G01 X-0.7794 Y2.1598  
G01 X-0.7818 Y2.1657  
G01 X-0.7830 Y2.1718  
G01 X-0.7830 Y2.1782  
G01 X-0.7818 Y2.1843  
G01 X-0.7794 Y2.1902  
G01 X-0.7759 Y2.1954  
G01 X-0.7714 Y2.1999  
G01 X-0.7662 Y2.2034  
G01 X-0.7603 Y2.2058  
G01 X-0.7542 Y2.2070  
G01 X-0.6958 Y2.2070  
G01 X-0.6897 Y2.2058  
G01 X-0.6876 Y2.2049  
G01 X-0.6050 Y2.2214  
G01 X-0.6029 Y2.2220  
G01 X-0.6022 Y2.2220  
G01 X-0.6015 Y2.2221  
G01 X-0.5993 Y2.2220  
G01 X-0.5733 Y2.2220  
G01 X-0.5633 Y2.2320  
G01 X-0.5367 Y2.2320  
G01 X-0.5335 Y2.2287  
G01 X-0.4841 Y2.2452  
G01 X-0.4835 Y2.2455  
G01 X-0.4813 Y2.2461  
G01 X-0.4792 Y2.2468  
G01 X-0.4785 Y2.2468  
G01 X-0.4779 Y2.2470  
G01 X-0.4757 Y2.2470  
G01 X-0.4734 Y2.2471  
G01 X-0.4728 Y2.2470  
G01 X-0.4216 Y2.2470  
G01 X-0.3951 Y2.2735  
G01 X-0.3549 Y2.2735  
G01 X-0.3265 Y2.2451  
G01 X-0.3265 Y2.2161  
G01 X-0.2663 Y2.1710  
G01 X-0.1424 Y2.1529  
G01 X-0.1419 Y2.1538  
G01 X-0.1374 Y2.1601  
G01 X-0.1319 Y2.1655  
G01 X-0.1257 Y2.1701  
G01 X-0.1188 Y2.1736  
G01 X-0.1115 Y2.1759  
G01 X-0.1039 Y2.1771  
G01 X-0.0961 Y2.1771  
G01 X-0.0885 Y2.1759  
G01 X-0.0812 Y2.1736  
G01 X-0.0743 Y2.1701  
G01 X-0.0681 Y2.1655  
G01 X-0.0626 Y2.1601  
G01 X-0.0581 Y2.1538  
G01 X-0.0546 Y2.1470  
G01 X-0.0522 Y2.1396  
G01 X-0.0510 Y2.1320  
G01 X-0.0510 Y2.1243  
G01 X-0.0522 Y2.1167  
G01 X-0.0546 Y2.1093  
G01 X-0.0581 Y2.1025  
G01 X-0.0626 Y2.0962  
G01 X-0.0681 Y2.0908  
G01 X-0.0743 Y2.0862  
G01 X-0.0812 Y2.0827  
G01 X-0.0885 Y2.0804  
G01 X-0.0961 Y2.0791  
G01 X-0.1039 Y2.0791  
G01 X-0.1115 Y2.0804  
G01 X-0.1188 Y2.0827  
G01 X-0.1257 Y2.0862  
G01 X-0.1319 Y2.0908  
G01 X-0.1374 Y2.0962  
G01 X-0.1419 Y2.1025  
G01 X-0.1452 Y2.1089  
G01 X-0.2779 Y2.1282  
G01 X-0.2805 Y2.1285  
G01 X-0.2808 Y2.1286  
G01 X-0.2810 Y2.1286  
G01 X-0.2834 Y2.1297  
G01 X-0.2859 Y2.1307  
G01 X-0.2861 Y2.1308  
G01 X-0.2864 Y2.1309  
G01 X-0.2884 Y2.1326  
G01 X-0.3515 Y2.1799  
G01 X-0.3549 Y2.1765  
G01 X-0.3951 Y2.1765  
G01 X-0.4216 Y2.2030  
G01 X-0.4714 Y2.2030  
G00 Z0.0500  
G00 X-0.3951 Y2.3515  
G01 Z-0.0040 F10    
G01 X-0.4216 Y2.3780  F20    
G01 X-0.5267 Y2.3780  
G01 X-0.5367 Y2.3680  
G01 X-0.5509 Y2.3680  
G01 X-0.6089 Y2.3099  
G01 X-0.6104 Y2.3083  
G01 X-0.6110 Y2.3079  
G01 X-0.6115 Y2.3074  
G01 X-0.6134 Y2.3063  
G01 X-0.6673 Y2.2704  
G01 X-0.6682 Y2.2657  
G01 X-0.6706 Y2.2598  
G01 X-0.6741 Y2.2546  
G01 X-0.6786 Y2.2501  
G01 X-0.6838 Y2.2466  
G01 X-0.6897 Y2.2442  
G01 X-0.6958 Y2.2430  
G01 X-0.7542 Y2.2430  
G01 X-0.7603 Y2.2442  
G01 X-0.7662 Y2.2466  
G01 X-0.7714 Y2.2501  
G01 X-0.7759 Y2.2546  
G01 X-0.7794 Y2.2598  
G01 X-0.7818 Y2.2657  
G01 X-0.7830 Y2.2718  
G01 X-0.7830 Y2.2782  
G01 X-0.7818 Y2.2843  
G01 X-0.7794 Y2.2902  
G01 X-0.7759 Y2.2954  
G01 X-0.7714 Y2.2999  
G01 X-0.7662 Y2.3034  
G01 X-0.7603 Y2.3058  
G01 X-0.7542 Y2.3070  
G01 X-0.6958 Y2.3070  
G01 X-0.6926 Y2.3064  
G01 X-0.6390 Y2.3421  
G01 X-0.5820 Y2.3991  
G01 X-0.5820 Y2.4133  
G01 X-0.5633 Y2.4320  
G01 X-0.5367 Y2.4320  
G01 X-0.5267 Y2.4220  
G01 X-0.4216 Y2.4220  
G01 X-0.3951 Y2.4485  
G01 X-0.3549 Y2.4485  
G01 X-0.3265 Y2.4201  
G01 X-0.3265 Y2.3799  
G01 X-0.3549 Y2.3515  
G01 X-0.3951 Y2.3515  
G00 Z0.0500  
G00 X-0.4388 Y2.6806  
G01 Z-0.0040 F10    
G01 X-0.4450 Y2.6744  F20    
G01 X-0.4521 Y2.6692  
G01 X-0.4600 Y2.6652  
G01 X-0.4684 Y2.6625  
G01 X-0.4771 Y2.6611  
G01 X-0.5859 Y2.6611  
G01 X-0.5946 Y2.6625  
G01 X-0.6030 Y2.6652  
G01 X-0.6108 Y2.6692  
G01 X-0.6180 Y2.6744  
G01 X-0.6242 Y2.6806  
G01 X-0.6294 Y2.6878  
G01 X-0.6334 Y2.6956  
G01 X-0.6361 Y2.7040  
G01 X-0.6375 Y2.7127  
G01 X-0.6375 Y2.7215  
G01 X-0.6361 Y2.7302  
G01 X-0.6334 Y2.7386  
G01 X-0.6294 Y2.7465  
G01 X-0.6242 Y2.7536  
G01 X-0.6180 Y2.7598  
G01 X-0.6108 Y2.7650  
G01 X-0.6030 Y2.7690  
G01 X-0.5946 Y2.7717  
G01 X-0.5859 Y2.7731  
G01 X-0.4771 Y2.7731  
G01 X-0.4684 Y2.7717  
G01 X-0.4600 Y2.7690  
G01 X-0.4521 Y2.7650  
G01 X-0.4450 Y2.7598  
G01 X-0.4388 Y2.7536  
G01 X-0.4336 Y2.7465  
G01 X-0.4296 Y2.7386  
G01 X-0.4269 Y2.7302  
G01 X-0.4255 Y2.7215  
G01 X-0.4255 Y2.7127  
G01 X-0.4269 Y2.7040  
G01 X-0.4296 Y2.6956  
G01 X-0.4336 Y2.6878  
G01 X-0.4388 Y2.6806  
G00 Z0.0500  
G00 X-0.5754 Y2.8354  
G01 Z-0.0040 F10    
G01 X-0.5816 Y2.8291  F20    
G01 X-0.5888 Y2.8240  
G01 X-0.5966 Y2.8200  
G01 X-0.6050 Y2.8172  
G01 X-0.6137 Y2.8159  
G01 X-0.6225 Y2.8159  
G01 X-0.6312 Y2.8172  
G01 X-0.6396 Y2.8200  
G01 X-0.6475 Y2.8240  
G01 X-0.6546 Y2.8291  
G01 X-0.7053 Y2.7548  
G01 X-0.7054 Y2.7545  
G01 X-0.7070 Y2.7524  
G01 X-0.7084 Y2.7502  
G01 X-0.7086 Y2.7500  
G01 X-0.7930 Y2.6319  
G01 X-0.7930 Y2.6117  
G01 X-0.8030 Y2.6017  
G01 X-0.8030 Y2.1172  
G01 X-0.7587 Y2.1061  
G01 X-0.7542 Y2.1070  
G01 X-0.6958 Y2.1070  
G01 X-0.6897 Y2.1058  
G01 X-0.6838 Y2.1034  
G01 X-0.6786 Y2.0999  
G01 X-0.6741 Y2.0954  
G01 X-0.6706 Y2.0902  
G01 X-0.6682 Y2.0843  
G01 X-0.6670 Y2.0782  
G01 X-0.6670 Y2.0718  
G01 X-0.6682 Y2.0657  
G01 X-0.6706 Y2.0598  
G01 X-0.6741 Y2.0546  
G01 X-0.6786 Y2.0501  
G01 X-0.6838 Y2.0466  
G01 X-0.6897 Y2.0442  
G01 X-0.6958 Y2.0430  
G01 X-0.7542 Y2.0430  
G01 X-0.7603 Y2.0442  
G01 X-0.7662 Y2.0466  
G01 X-0.7714 Y2.0501  
G01 X-0.7759 Y2.0546  
G01 X-0.7794 Y2.0598  
G01 X-0.7818 Y2.0657  
G01 X-0.7819 Y2.0666  
G01 X-0.8277 Y2.0780  
G01 X-0.8279 Y2.0780  
G01 X-0.8305 Y2.0787  
G01 X-0.8331 Y2.0794  
G01 X-0.8333 Y2.0795  
G01 X-0.8335 Y2.0795  
G01 X-0.8358 Y2.0809  
G01 X-0.8382 Y2.0822  
G01 X-0.8383 Y2.0823  
G01 X-0.8385 Y2.0824  
G01 X-0.8404 Y2.0843  
G01 X-0.8424 Y2.0862  
G01 X-0.8425 Y2.0864  
G01 X-0.8426 Y2.0865  
G01 X-0.8440 Y2.0888  
G01 X-0.8454 Y2.0912  
G01 X-0.8454 Y2.0913  
G01 X-0.8455 Y2.0915  
G01 X-0.8462 Y2.0941  
G01 X-0.8469 Y2.0967  
G01 X-0.8470 Y2.0969  
G01 X-0.8470 Y2.0971  
G01 X-0.8470 Y2.0998  
G01 X-0.8470 Y2.1025  
G01 X-0.8470 Y2.1027  
G01 X-0.8470 Y2.6017  
G01 X-0.8570 Y2.6117  
G01 X-0.8570 Y2.6383  
G01 X-0.8383 Y2.6570  
G01 X-0.8292 Y2.6570  
G01 X-0.7430 Y2.7775  
G01 X-0.6741 Y2.8787  
G01 X-0.6741 Y2.9763  
G01 X-0.6727 Y2.9850  
G01 X-0.6700 Y2.9933  
G01 X-0.6660 Y3.0012  
G01 X-0.6608 Y3.0083  
G01 X-0.6546 Y3.0146  
G01 X-0.6475 Y3.0197  
G01 X-0.6396 Y3.0237  
G01 X-0.6312 Y3.0265  
G01 X-0.6225 Y3.0279  
G01 X-0.6137 Y3.0279  
G01 X-0.6050 Y3.0265  
G01 X-0.5966 Y3.0237  
G01 X-0.5888 Y3.0197  
G01 X-0.5816 Y3.0146  
G01 X-0.5754 Y3.0083  
G01 X-0.5702 Y3.0012  
G01 X-0.5662 Y2.9933  
G01 X-0.5635 Y2.9850  
G01 X-0.5621 Y2.9763  
G01 X-0.5621 Y2.8674  
G01 X-0.5635 Y2.8587  
G01 X-0.5662 Y2.8504  
G01 X-0.5702 Y2.8425  
G01 X-0.5754 Y2.8354  
G00 Z0.0500  
G00 X-0.9786 Y2.1999  
G01 Z-0.0040 F10    
G01 X-0.9741 Y2.1954  F20    
G01 X-0.9706 Y2.1902  
G01 X-0.9682 Y2.1843  
G01 X-0.9670 Y2.1782  
G01 X-0.9670 Y2.1718  
G01 X-0.9682 Y2.1657  
G01 X-0.9706 Y2.1598  
G01 X-0.9741 Y2.1546  
G01 X-0.9786 Y2.1501  
G01 X-0.9838 Y2.1466  
G01 X-0.9897 Y2.1442  
G01 X-0.9958 Y2.1430  
G01 X-1.0542 Y2.1430  
G01 X-1.0603 Y2.1442  
G01 X-1.0662 Y2.1466  
G01 X-1.0714 Y2.1501  
G01 X-1.0759 Y2.1546  
G01 X-1.0794 Y2.1598  
G01 X-1.0810 Y2.1638  
G01 X-1.1310 Y2.1738  
G01 X-1.1367 Y2.1680  
G01 X-1.1633 Y2.1680  
G01 X-1.1665 Y2.1713  
G01 X-1.2115 Y2.1563  
G01 X-1.2680 Y2.0810  
G01 X-1.2680 Y2.0617  
G01 X-1.2867 Y2.0430  
G01 X-1.3133 Y2.0430  
G01 X-1.3320 Y2.0617  
G01 X-1.3320 Y2.0883  
G01 X-1.3133 Y2.1070  
G01 X-1.3035 Y2.1070  
G01 X-1.2438 Y2.1866  
G01 X-1.2434 Y2.1874  
G01 X-1.2421 Y2.1889  
G01 X-1.2409 Y2.1905  
G01 X-1.2401 Y2.1911  
G01 X-1.2395 Y2.1918  
G01 X-1.2379 Y2.1929  
G01 X-1.2363 Y2.1941  
G01 X-1.2355 Y2.1945  
G01 X-1.2347 Y2.1950  
G01 X-1.2328 Y2.1956  
G01 X-1.2310 Y2.1964  
G01 X-1.2301 Y2.1965  
G01 X-1.1820 Y2.2125  
G01 X-1.1820 Y2.2133  
G01 X-1.1633 Y2.2320  
G01 X-1.1367 Y2.2320  
G01 X-1.1215 Y2.2167  
G01 X-1.0624 Y2.2049  
G01 X-1.0603 Y2.2058  
G01 X-1.0542 Y2.2070  
G01 X-0.9958 Y2.2070  
G01 X-0.9897 Y2.2058  
G01 X-0.9838 Y2.2034  
G01 X-0.9786 Y2.1999  
G00 Z0.0500  
G00 X-0.9786 Y1.6999  
G01 Z-0.0040 F10    
G01 X-0.9741 Y1.6954  F20    
G01 X-0.9706 Y1.6902  
G01 X-0.9682 Y1.6843  
G01 X-0.9670 Y1.6782  
G01 X-0.9670 Y1.6718  
G01 X-0.9682 Y1.6657  
G01 X-0.9706 Y1.6598  
G01 X-0.9741 Y1.6546  
G01 X-0.9786 Y1.6501  
G01 X-0.9838 Y1.6466  
G01 X-0.9897 Y1.6442  
G01 X-0.9958 Y1.6430  
G01 X-1.0259 Y1.6430  
G01 X-1.0680 Y1.6009  
G01 X-1.0680 Y1.5867  
G01 X-1.0867 Y1.5680  
G01 X-1.1133 Y1.5680  
G01 X-1.1285 Y1.5833  
G01 X-1.2060 Y1.5988  
G01 X-1.2117 Y1.5930  
G01 X-1.2383 Y1.5930  
G01 X-1.2570 Y1.6117  
G01 X-1.2570 Y1.6383  
G01 X-1.2565 Y1.6388  
G01 X-1.3086 Y1.7430  
G01 X-1.3133 Y1.7430  
G01 X-1.3320 Y1.7617  
G01 X-1.3320 Y1.7883  
G01 X-1.3133 Y1.8070  
G01 X-1.2867 Y1.8070  
G01 X-1.2680 Y1.7883  
G01 X-1.2680 Y1.7617  
G01 X-1.2685 Y1.7612  
G01 X-1.2164 Y1.6570  
G01 X-1.2117 Y1.6570  
G01 X-1.1965 Y1.6417  
G01 X-1.1190 Y1.6262  
G01 X-1.1133 Y1.6320  
G01 X-1.0991 Y1.6320  
G01 X-1.0761 Y1.6550  
G01 X-1.0794 Y1.6598  
G01 X-1.0818 Y1.6657  
G01 X-1.0830 Y1.6718  
G01 X-1.0830 Y1.6782  
G01 X-1.0818 Y1.6843  
G01 X-1.0794 Y1.6902  
G01 X-1.0759 Y1.6954  
G01 X-1.0714 Y1.6999  
G01 X-1.0662 Y1.7034  
G01 X-1.0603 Y1.7058  
G01 X-1.0542 Y1.7070  
G01 X-0.9958 Y1.7070  
G01 X-0.9897 Y1.7058  
G01 X-0.9838 Y1.7034  
G01 X-0.9786 Y1.6999  
G00 Z0.0500  
G00 X-0.0828 Y0.1086  
G01 Z-0.0040 F10    
G01 X-0.0831 Y0.1084  F20    
G01 X-0.0833 Y0.1082  
G01 X-0.0850 Y0.1071  
G01 X-0.0866 Y0.1059  
G01 X-0.0869 Y0.1058  
G01 X-0.0872 Y0.1056  
G01 X-0.0890 Y0.1048  
G01 X-0.3135 Y0.0042  
G01 X-0.3138 Y0.0040  
G01 X-0.3156 Y0.0032  
G01 X-0.3174 Y0.0024  
G01 X-0.3178 Y0.0023  
G01 X-0.3181 Y0.0022  
G01 X-0.3200 Y0.0018  
G01 X-0.3220 Y0.0014  
G01 X-0.3223 Y0.0014  
G01 X-0.3227 Y0.0013  
G01 X-0.3247 Y0.0013  
G01 X-0.3267 Y0.0012  
G01 X-0.3270 Y0.0013  
G01 X-1.1244 Y0.0013  
G01 X-1.1262 Y0.0012  
G01 X-1.1268 Y0.0013  
G01 X-1.1273 Y0.0013  
G01 X-1.1291 Y0.0016  
G01 X-1.1308 Y0.0019  
G01 X-1.1313 Y0.0021  
G01 X-1.1319 Y0.0022  
G01 X-1.1335 Y0.0029  
G01 X-1.1352 Y0.0035  
G01 X-1.1357 Y0.0038  
G01 X-1.1362 Y0.0040  
G01 X-1.1377 Y0.0050  
G01 X-1.1392 Y0.0059  
G01 X-1.1396 Y0.0063  
G01 X-1.1401 Y0.0066  
G01 X-1.1414 Y0.0078  
G01 X-1.1427 Y0.0090  
G01 X-1.1430 Y0.0095  
G01 X-1.1434 Y0.0099  
G01 X-1.1444 Y0.0114  
G01 X-1.1454 Y0.0128  
G01 X-1.1457 Y0.0133  
G01 X-1.1460 Y0.0138  
G01 X-1.1467 Y0.0154  
G01 X-1.1474 Y0.0170  
G01 X-1.1476 Y0.0176  
G01 X-1.1478 Y0.0181  
G01 X-1.1481 Y0.0198  
G01 X-1.1633 Y0.0803  
G01 X-1.1685 Y0.0803  
G01 X-1.1895 Y0.1013  
G01 X-1.2105 Y0.1013  
G01 X-1.2315 Y0.0803  
G01 X-1.2685 Y0.0803  
G01 X-1.2895 Y0.1013  
G01 X-1.3105 Y0.1013  
G01 X-1.3315 Y0.0803  
G01 X-1.3685 Y0.0803  
G01 X-1.3947 Y0.1065  
G01 X-1.3947 Y0.1435  
G01 X-1.3737 Y0.1645  
G01 X-1.3737 Y0.1855  
G01 X-1.3947 Y0.2065  
G01 X-1.3947 Y0.2435  
G01 X-1.3685 Y0.2697  
G01 X-1.3315 Y0.2697  
G01 X-1.3105 Y0.2487  
G01 X-1.2895 Y0.2487  
G01 X-1.2685 Y0.2697  
G01 X-1.2652 Y0.2697  
G01 X-1.2486 Y0.3527  
G01 X-1.2486 Y0.3531  
G01 X-1.2482 Y0.3550  
G01 X-1.2478 Y0.3569  
G01 X-1.2476 Y0.3573  
G01 X-1.2475 Y0.3577  
G01 X-1.2467 Y0.3595  
G01 X-1.2460 Y0.3612  
G01 X-1.2458 Y0.3616  
G01 X-1.2114 Y0.4371  
G01 X-1.2756 Y0.5013  
G01 X-1.2773 Y0.5013  
G01 X-1.2819 Y0.5022  
G01 X-1.2862 Y0.5040  
G01 X-1.2901 Y0.5066  
G01 X-1.2934 Y0.5099  
G01 X-1.3621 Y0.5786  
G01 X-1.4552 Y0.6019  
G01 X-1.4569 Y0.6022  
G01 X-1.4574 Y0.6024  
G01 X-1.4580 Y0.6026  
G01 X-1.4596 Y0.6033  
G01 X-1.4612 Y0.6040  
G01 X-1.4617 Y0.6043  
G01 X-1.4622 Y0.6046  
G01 X-1.4636 Y0.6056  
G01 X-1.4651 Y0.6066  
G01 X-1.4655 Y0.6070  
G01 X-1.4660 Y0.6073  
G01 X-1.4672 Y0.6086  
G01 X-1.4684 Y0.6099  
G01 X-1.4687 Y0.6104  
G01 X-1.4691 Y0.6108  
G01 X-1.4700 Y0.6123  
G01 X-1.4710 Y0.6138  
G01 X-1.4712 Y0.6143  
G01 X-1.4715 Y0.6148  
G01 X-1.4721 Y0.6165  
G01 X-1.4728 Y0.6181  
G01 X-1.4729 Y0.6187  
G01 X-1.4731 Y0.6192  
G01 X-1.4734 Y0.6209  
G01 X-1.4737 Y0.6227  
G01 X-1.4737 Y0.6232  
G01 X-1.4738 Y0.6238  
G01 X-1.4737 Y0.6256  
G01 X-1.4737 Y2.2983  
G01 X-1.4738 Y2.2990  
G01 X-1.4737 Y2.3006  
G01 X-1.4737 Y2.3023  
G01 X-1.4736 Y2.3030  
G01 X-1.4735 Y2.3036  
G01 X-1.4731 Y2.3053  
G01 X-1.4728 Y2.3069  
G01 X-1.4725 Y2.3075  
G01 X-1.4724 Y2.3081  
G01 X-1.4716 Y2.3097  
G01 X-1.4710 Y2.3112  
G01 X-1.4706 Y2.3118  
G01 X-1.4704 Y2.3124  
G01 X-1.4693 Y2.3137  
G01 X-1.4684 Y2.3151  
G01 X-1.4679 Y2.3156  
G01 X-1.2443 Y2.6137  
G01 X-1.2434 Y2.6151  
G01 X-1.2429 Y2.6156  
G01 X-1.2426 Y2.6161  
G01 X-1.2413 Y2.6172  
G01 X-1.2401 Y2.6184  
G01 X-1.2396 Y2.6188  
G01 X-1.2391 Y2.6192  
G01 X-1.2376 Y2.6201  
G01 X-1.2362 Y2.6210  
G01 X-1.2356 Y2.6213  
G01 X-1.2351 Y2.6216  
G01 X-1.2335 Y2.6221  
G01 X-1.2319 Y2.6228  
G01 X-1.2313 Y2.6229  
G01 X-1.2307 Y2.6231  
G01 X-1.2290 Y2.6234  
G01 X-1.2273 Y2.6237  
G01 X-1.2267 Y2.6237  
G01 X-1.2260 Y2.6238  
G01 X-1.2244 Y2.6237  
G01 X-0.9487 Y2.6237  
G01 X-0.9487 Y2.8273  
G01 X-0.9478 Y2.8319  
G01 X-0.9460 Y2.8362  
G01 X-0.9434 Y2.8401  
G01 X-0.8587 Y2.9248  
G01 X-0.8587 Y2.9390  
G01 X-0.8390 Y2.9587  
G01 X-0.8248 Y2.9587  
G01 X-0.6901 Y3.0934  
G01 X-0.6862 Y3.0960  
G01 X-0.6819 Y3.0978  
G01 X-0.6773 Y3.0987  
G01 X-0.2015 Y3.0987  
G01 X-0.2006 Y3.0988  
G01 X-0.1992 Y3.0987  
G01 X-0.1977 Y3.0987  
G01 X-0.1968 Y3.0985  
G01 X-0.1960 Y3.0985  
G01 X-0.1946 Y3.0981  
G01 X-0.1931 Y3.0978  
G01 X-0.1923 Y3.0975  
G01 X-0.1915 Y3.0972  
G01 X-0.1902 Y3.0966  
G01 X-0.1888 Y3.0960  
G01 X-0.1881 Y3.0955  
G01 X-0.0902 Y3.0466  
G01 X-0.0888 Y3.0460  
G01 X-0.0881 Y3.0455  
G01 X-0.0873 Y3.0452  
G01 X-0.0861 Y3.0442  
G01 X-0.0849 Y3.0434  
G01 X-0.0843 Y3.0428  
G01 X-0.0836 Y3.0423  
G01 X-0.0826 Y3.0412  
G01 X-0.0816 Y3.0401  
G01 X-0.0811 Y3.0394  
G01 X-0.0806 Y3.0388  
G01 X-0.0798 Y3.0375  
G01 X-0.0790 Y3.0362  
G01 X-0.0787 Y3.0354  
G01 X-0.0783 Y3.0347  
G01 X-0.0778 Y3.0333  
G01 X-0.0772 Y3.0319  
G01 X-0.0770 Y3.0311  
G01 X-0.0768 Y3.0303  
G01 X-0.0766 Y3.0288  
G01 X-0.0763 Y3.0273  
G01 X-0.0763 Y3.0265  
G01 X-0.0762 Y3.0256  
G01 X-0.0762 Y3.0253  
G01 X-0.0682 Y3.0212  
G01 X-0.0608 Y3.0159  
G01 X-0.0544 Y3.0094  
G01 X-0.0491 Y3.0021  
G01 X-0.0450 Y2.9940  
G01 X-0.0421 Y2.9854  
G01 X-0.0407 Y2.9764  
G01 X-0.0407 Y2.8673  
G01 X-0.0421 Y2.8583  
G01 X-0.0450 Y2.8497  
G01 X-0.0491 Y2.8416  
G01 X-0.0544 Y2.8343  
G01 X-0.0608 Y2.8278  
G01 X-0.0682 Y2.8225  
G01 X-0.0763 Y2.8184  
G01 X-0.0763 Y2.5667  
G01 X-0.0734 Y2.5652  
G01 X-0.0670 Y2.5605  
G01 X-0.0613 Y2.5549  
G01 X-0.0566 Y2.5484  
G01 X-0.0530 Y2.5413  
G01 X-0.0505 Y2.5337  
G01 X-0.0493 Y2.5258  
G01 X-0.0493 Y2.5179  
G01 X-0.0505 Y2.5100  
G01 X-0.0530 Y2.5024  
G01 X-0.0566 Y2.4953  
G01 X-0.0613 Y2.4888  
G01 X-0.0670 Y2.4832  
G01 X-0.0734 Y2.4785  
G01 X-0.0763 Y2.4770  
G01 X-0.0763 Y2.3698  
G01 X-0.0734 Y2.3684  
G01 X-0.0670 Y2.3637  
G01 X-0.0613 Y2.3580  
G01 X-0.0566 Y2.3516  
G01 X-0.0530 Y2.3445  
G01 X-0.0505 Y2.3369  
G01 X-0.0493 Y2.3290  
G01 X-0.0493 Y2.3210  
G01 X-0.0495 Y2.3198  
G01 X-0.0138 Y2.2960  
G01 X-0.0118 Y2.2947  
G01 X-0.0099 Y2.2934  
G01 X-0.0083 Y2.2918  
G01 X-0.0066 Y2.2901  
G01 X-0.0053 Y2.2882  
G01 X-0.0040 Y2.2862  
G01 X-0.0031 Y2.2841  
G01 X-0.0022 Y2.2819  
G01 X-0.0018 Y2.2796  
G01 X-0.0013 Y2.2774  
G01 X-0.0013 Y2.2750  
G01 X-0.0013 Y2.2727  
G01 X-0.0013 Y2.0515  
G01 X-0.0012 Y2.0506  
G01 X-0.0013 Y2.0492  
G01 X-0.0013 Y2.0477  
G01 X-0.0015 Y2.0468  
G01 X-0.0015 Y2.0460  
G01 X-0.0019 Y2.0446  
G01 X-0.0022 Y2.0431  
G01 X-0.0025 Y2.0423  
G01 X-0.0028 Y2.0415  
G01 X-0.0034 Y2.0402  
G01 X-0.0040 Y2.0388  
G01 X-0.0045 Y2.0381  
G01 X-0.0048 Y2.0373  
G01 X-0.0058 Y2.0361  
G01 X-0.0066 Y2.0349  
G01 X-0.0072 Y2.0343  
G01 X-0.0077 Y2.0336  
G01 X-0.0088 Y2.0326  
G01 X-0.0099 Y2.0316  
G01 X-0.0106 Y2.0311  
G01 X-0.0112 Y2.0306  
G01 X-0.0125 Y2.0298  
G01 X-0.0138 Y2.0290  
G01 X-0.0146 Y2.0287  
G01 X-0.0153 Y2.0283  
G01 X-0.0167 Y2.0278  
G01 X-0.0181 Y2.0272  
G01 X-0.0189 Y2.0270  
G01 X-0.0906 Y2.0031  
G01 X-0.0909 Y2.0030  
G01 X-0.0928 Y2.0024  
G01 X-0.0947 Y2.0018  
G01 X-0.0951 Y2.0017  
G01 X-0.0954 Y2.0016  
G01 X-0.0974 Y2.0014  
G01 X-0.0994 Y2.0012  
G01 X-0.0997 Y2.0012  
G01 X-0.1000 Y2.0012  
G01 X-0.1020 Y2.0014  
G01 X-0.1040 Y2.0015  
G01 X-0.1043 Y2.0016  
G01 X-0.3283 Y2.0240  
G01 X-0.3360 Y2.0163  
G01 X-0.3363 Y2.0163  
G01 X-0.3635 Y1.9345  
G01 X-0.3498 Y1.9208  
G01 X-0.3498 Y1.8792  
G01 X-0.3763 Y1.8527  
G01 X-0.3763 Y1.8240  
G01 X-0.3663 Y1.8140  
G01 X-0.3663 Y1.7860  
G01 X-0.3860 Y1.7663  
G01 X-0.4140 Y1.7663  
G01 X-0.4337 Y1.7860  
G01 X-0.4337 Y1.8140  
G01 X-0.4237 Y1.8240  
G01 X-0.4237 Y1.8527  
G01 X-0.4502 Y1.8792  
G01 X-0.4502 Y1.9208  
G01 X-0.4208 Y1.9502  
G01 X-0.4082 Y1.9502  
G01 X-0.3807 Y2.0330  
G01 X-0.3837 Y2.0360  
G01 X-0.3837 Y2.0640  
G01 X-0.3640 Y2.0837  
G01 X-0.3360 Y2.0837  
G01 X-0.3235 Y2.0712  
G01 X-0.1027 Y2.0491  
G01 X-0.0487 Y2.0671  
G01 X-0.0487 Y2.2623  
G01 X-0.0758 Y2.2804  
G01 X-0.0805 Y2.2780  
G01 X-0.0881 Y2.2755  
G01 X-0.0960 Y2.2743  
G01 X-0.1040 Y2.2743  
G01 X-0.1119 Y2.2755  
G01 X-0.1195 Y2.2780  
G01 X-0.1266 Y2.2816  
G01 X-0.1330 Y2.2863  
G01 X-0.1387 Y2.2920  
G01 X-0.1434 Y2.2984  
G01 X-0.1470 Y2.3055  
G01 X-0.1495 Y2.3131  
G01 X-0.1507 Y2.3210  
G01 X-0.1507 Y2.3290  
G01 X-0.1495 Y2.3369  
G01 X-0.1470 Y2.3445  
G01 X-0.1434 Y2.3516  
G01 X-0.1387 Y2.3580  
G01 X-0.1330 Y2.3637  
G01 X-0.1266 Y2.3684  
G01 X-0.1237 Y2.3698  
G01 X-0.1237 Y2.4770  
G01 X-0.1266 Y2.4785  
G01 X-0.1330 Y2.4832  
G01 X-0.1387 Y2.4888  
G01 X-0.1434 Y2.4953  
G01 X-0.1470 Y2.5024  
G01 X-0.1495 Y2.5100  
G01 X-0.1507 Y2.5179  
G01 X-0.1507 Y2.5258  
G01 X-0.1495 Y2.5337  
G01 X-0.1470 Y2.5413  
G01 X-0.1434 Y2.5484  
G01 X-0.1387 Y2.5549  
G01 X-0.1330 Y2.5605  
G01 X-0.1266 Y2.5652  
G01 X-0.1237 Y2.5667  
G01 X-0.1237 Y2.8200  
G01 X-0.1287 Y2.8225  
G01 X-0.1360 Y2.8278  
G01 X-0.1424 Y2.8343  
G01 X-0.1478 Y2.8416  
G01 X-0.1519 Y2.8497  
G01 X-0.1547 Y2.8583  
G01 X-0.1561 Y2.8673  
G01 X-0.1561 Y2.9764  
G01 X-0.1547 Y2.9854  
G01 X-0.1519 Y2.9940  
G01 X-0.1478 Y3.0021  
G01 X-0.1424 Y3.0094  
G01 X-0.1360 Y3.0159  
G01 X-0.1355 Y3.0162  
G01 X-0.2056 Y3.0513  
G01 X-0.6652 Y3.0513  
G01 X-0.7913 Y2.9252  
G01 X-0.7913 Y2.9110  
G01 X-0.8110 Y2.8913  
G01 X-0.8252 Y2.8913  
G01 X-0.9013 Y2.8152  
G01 X-0.9013 Y2.0977  
G01 X-0.9022 Y2.0931  
G01 X-0.9040 Y2.0888  
G01 X-0.9066 Y2.0849  
G01 X-0.9099 Y2.0816  
G01 X-0.9349 Y2.0566  
G01 X-0.9388 Y2.0540  
G01 X-0.9431 Y2.0522  
G01 X-0.9477 Y2.0513  
G01 X-0.9750 Y2.0513  
G01 X-0.9775 Y2.0488  
G01 X-0.9830 Y2.0451  
G01 X-0.9892 Y2.0426  
G01 X-0.9957 Y2.0413  
G01 X-1.0543 Y2.0413  
G01 X-1.0608 Y2.0426  
G01 X-1.0670 Y2.0451  
G01 X-1.0725 Y2.0488  
G01 X-1.0772 Y2.0535  
G01 X-1.0809 Y2.0590  
G01 X-1.0814 Y2.0604  
G01 X-1.1547 Y2.0726  
G01 X-1.1610 Y2.0663  
G01 X-1.1706 Y2.0663  
G01 X-1.2263 Y1.9921  
G01 X-1.2263 Y1.8671  
G01 X-1.1750 Y1.8500  
G01 X-1.0843 Y1.8802  
G01 X-1.0834 Y1.8848  
G01 X-1.0809 Y1.8910  
G01 X-1.0772 Y1.8965  
G01 X-1.0725 Y1.9012  
G01 X-1.0670 Y1.9049  
G01 X-1.0608 Y1.9074  
G01 X-1.0543 Y1.9087  
G01 X-0.9957 Y1.9087  
G01 X-0.9892 Y1.9074  
G01 X-0.9830 Y1.9049  
G01 X-0.9775 Y1.9012  
G01 X-0.9728 Y1.8965  
G01 X-0.9691 Y1.8910  
G01 X-0.9666 Y1.8848  
G01 X-0.9653 Y1.8783  
G01 X-0.9653 Y1.8717  
G01 X-0.9666 Y1.8652  
G01 X-0.9691 Y1.8590  
G01 X-0.9728 Y1.8535  
G01 X-0.9775 Y1.8488  
G01 X-0.9830 Y1.8451  
G01 X-0.9892 Y1.8426  
G01 X-0.9957 Y1.8413  
G01 X-1.0512 Y1.8413  
G01 X-1.1659 Y1.8030  
G01 X-1.1665 Y1.8028  
G01 X-1.1681 Y1.8023  
G01 X-1.1697 Y1.8018  
G01 X-1.1704 Y1.8017  
G01 X-1.1710 Y1.8015  
G01 X-1.1727 Y1.8014  
G01 X-1.1744 Y1.8012  
G01 X-1.1750 Y1.8012  
G01 X-1.1756 Y1.8012  
G01 X-1.1773 Y1.8014  
G01 X-1.1790 Y1.8015  
G01 X-1.1796 Y1.8017  
G01 X-1.1803 Y1.8018  
G01 X-1.1819 Y1.8023  
G01 X-1.1835 Y1.8028  
G01 X-1.1841 Y1.8030  
G01 X-1.2561 Y1.8270  
G01 X-1.2569 Y1.8272  
G01 X-1.2583 Y1.8278  
G01 X-1.2597 Y1.8283  
G01 X-1.2604 Y1.8287  
G01 X-1.2612 Y1.8290  
G01 X-1.2625 Y1.8298  
G01 X-1.2638 Y1.8306  
G01 X-1.2644 Y1.8311  
G01 X-1.2651 Y1.8316  
G01 X-1.2662 Y1.8326  
G01 X-1.2673 Y1.8336  
G01 X-1.2678 Y1.8343  
G01 X-1.2684 Y1.8349  
G01 X-1.2692 Y1.8361  
G01 X-1.2702 Y1.8373  
G01 X-1.2705 Y1.8381  
G01 X-1.2710 Y1.8388  
G01 X-1.2716 Y1.8402  
G01 X-1.2722 Y1.8415  
G01 X-1.2725 Y1.8423  
G01 X-1.2728 Y1.8431  
G01 X-1.2731 Y1.8446  
G01 X-1.2735 Y1.8460  
G01 X-1.2735 Y1.8468  
G01 X-1.2737 Y1.8477  
G01 X-1.2737 Y1.8492  
G01 X-1.2738 Y1.8506  
G01 X-1.2737 Y1.8515  
G01 X-1.2737 Y1.9983  
G01 X-1.2738 Y1.9990  
G01 X-1.2737 Y2.0006  
G01 X-1.2737 Y2.0023  
G01 X-1.2736 Y2.0030  
G01 X-1.2735 Y2.0036  
G01 X-1.2731 Y2.0053  
G01 X-1.2728 Y2.0069  
G01 X-1.2725 Y2.0075  
G01 X-1.2724 Y2.0081  
G01 X-1.2716 Y2.0097  
G01 X-1.2710 Y2.0112  
G01 X-1.2706 Y2.0118  
G01 X-1.2704 Y2.0124  
G01 X-1.2693 Y2.0137  
G01 X-1.2684 Y2.0151  
G01 X-1.2679 Y2.0156  
G01 X-1.2087 Y2.0946  
G01 X-1.2087 Y2.1140  
G01 X-1.1890 Y2.1337  
G01 X-1.1610 Y2.1337  
G01 X-1.1466 Y2.1193  
G01 X-1.0650 Y2.1057  
G01 X-1.0608 Y2.1074  
G01 X-1.0543 Y2.1087  
G01 X-0.9957 Y2.1087  
G01 X-0.9892 Y2.1074  
G01 X-0.9830 Y2.1049  
G01 X-0.9775 Y2.1012  
G01 X-0.9750 Y2.0987  
G01 X-0.9598 Y2.0987  
G01 X-0.9487 Y2.1098  
G01 X-0.9487 Y2.5763  
G01 X-1.2131 Y2.5763  
G01 X-1.4263 Y2.2921  
G01 X-1.4263 Y0.6435  
G01 X-1.3448 Y0.6231  
G01 X-1.3431 Y0.6228  
G01 X-1.3426 Y0.6226  
G01 X-1.3420 Y0.6224  
G01 X-1.3404 Y0.6217  
G01 X-1.3388 Y0.6210  
G01 X-1.3383 Y0.6207  
G01 X-1.3378 Y0.6204  
G01 X-1.3364 Y0.6194  
G01 X-1.3349 Y0.6184  
G01 X-1.3345 Y0.6180  
G01 X-1.3340 Y0.6177  
G01 X-1.3328 Y0.6164  
G01 X-1.2652 Y0.5487  
G01 X-1.2634 Y0.5487  
G01 X-1.2588 Y0.5478  
G01 X-1.2545 Y0.5460  
G01 X-1.2506 Y0.5434  
G01 X-1.1905 Y0.4832  
G01 X-1.1346 Y0.6062  
G01 X-1.1347 Y0.6064  
G01 X-1.1377 Y0.6136  
G01 X-1.1392 Y0.6211  
G01 X-1.1392 Y0.6289  
G01 X-1.1377 Y0.6364  
G01 X-1.1347 Y0.6436  
G01 X-1.1304 Y0.6500  
G01 X-1.1250 Y0.6554  
G01 X-1.1186 Y0.6597  
G01 X-1.1114 Y0.6627  
G01 X-1.1039 Y0.6642  
G01 X-1.0961 Y0.6642  
G01 X-1.0886 Y0.6627  
G01 X-1.0814 Y0.6597  
G01 X-1.0750 Y0.6554  
G01 X-1.0696 Y0.6500  
G01 X-1.0687 Y0.6487  
G01 X-1.0067 Y0.6487  
G01 X-0.9912 Y0.6642  
G01 X-0.9588 Y0.6642  
G01 X-0.9358 Y0.6412  
G01 X-0.9358 Y0.6088  
G01 X-0.9588 Y0.5858  
G01 X-0.9912 Y0.5858  
G01 X-1.0067 Y0.6013  
G01 X-1.0687 Y0.6013  
G01 X-1.0696 Y0.6000  
G01 X-1.0750 Y0.5946  
G01 X-1.0814 Y0.5903  
G01 X-1.0886 Y0.5873  
G01 X-1.0914 Y0.5868  
G01 X-1.1605 Y0.4346  
G01 X-1.1613 Y0.4329  
G01 X-1.1620 Y0.4311  
G01 X-1.1623 Y0.4307  
G01 X-1.2023 Y0.3427  
G01 X-1.2193 Y0.2575  
G01 X-1.2105 Y0.2487  
G01 X-1.1895 Y0.2487  
G01 X-1.1685 Y0.2697  
G01 X-1.1315 Y0.2697  
G01 X-1.1053 Y0.2435  
G01 X-1.1053 Y0.2065  
G01 X-1.1315 Y0.1803  
G01 X-1.1423 Y0.1803  
G01 X-1.1423 Y0.1697  
G01 X-1.1315 Y0.1697  
G01 X-1.1053 Y0.1435  
G01 X-1.1053 Y0.1065  
G01 X-1.1178 Y0.0940  
G01 X-1.1065 Y0.0487  
G01 X-0.3301 Y0.0487  
G01 X-0.1221 Y0.1419  
G01 X-0.1221 Y0.2192  
G01 X-0.1287 Y0.2225  
G01 X-0.1360 Y0.2278  
G01 X-0.1424 Y0.2343  
G01 X-0.1478 Y0.2416  
G01 X-0.1519 Y0.2497  
G01 X-0.1547 Y0.2583  
G01 X-0.1561 Y0.2673  
G01 X-0.1561 Y0.3764  
G01 X-0.1547 Y0.3854  
G01 X-0.1519 Y0.3940  
G01 X-0.1478 Y0.4021  
G01 X-0.1424 Y0.4094  
G01 X-0.1360 Y0.4159  
G01 X-0.1287 Y0.4212  
G01 X-0.1206 Y0.4253  
G01 X-0.1119 Y0.4281  
G01 X-0.1030 Y0.4296  
G01 X-0.0939 Y0.4296  
G01 X-0.0849 Y0.4281  
G01 X-0.0763 Y0.4253  
G01 X-0.0682 Y0.4212  
G01 X-0.0608 Y0.4159  
G01 X-0.0544 Y0.4094  
G01 X-0.0491 Y0.4021  
G01 X-0.0450 Y0.3940  
G01 X-0.0421 Y0.3854  
G01 X-0.0407 Y0.3764  
G01 X-0.0407 Y0.2673  
G01 X-0.0421 Y0.2583  
G01 X-0.0450 Y0.2497  
G01 X-0.0491 Y0.2416  
G01 X-0.0544 Y0.2343  
G01 X-0.0608 Y0.2278  
G01 X-0.0682 Y0.2225  
G01 X-0.0747 Y0.2192  
G01 X-0.0747 Y0.1269  
G01 X-0.0747 Y0.1249  
G01 X-0.0747 Y0.1246  
G01 X-0.0747 Y0.1242  
G01 X-0.0751 Y0.1223  
G01 X-0.0754 Y0.1203  
G01 X-0.0756 Y0.1200  
G01 X-0.0756 Y0.1197  
G01 X-0.0764 Y0.1178  
G01 X-0.0771 Y0.1160  
G01 X-0.0773 Y0.1157  
G01 X-0.0774 Y0.1153  
G01 X-0.0785 Y0.1137  
G01 X-0.0796 Y0.1120  
G01 X-0.0798 Y0.1118  
G01 X-0.0800 Y0.1115  
G01 X-0.0814 Y0.1101  
G01 X-0.0828 Y0.1086  
G00 Z0.0500  
G00 X-0.4238 Y0.1126  
G01 Z-0.0040 F10    
G01 X-0.4252 Y0.1036  F20    
G01 X-0.4280 Y0.0950  
G01 X-0.4321 Y0.0869  
G01 X-0.4375 Y0.0795  
G01 X-0.4439 Y0.0731  
G01 X-0.4513 Y0.0678  
G01 X-0.4593 Y0.0637  
G01 X-0.4680 Y0.0608  
G01 X-0.4770 Y0.0594  
G01 X-0.5860 Y0.0594  
G01 X-0.5950 Y0.0608  
G01 X-0.6036 Y0.0637  
G01 X-0.6117 Y0.0678  
G01 X-0.6191 Y0.0731  
G01 X-0.6255 Y0.0795  
G01 X-0.6308 Y0.0869  
G01 X-0.6350 Y0.0950  
G01 X-0.6378 Y0.1036  
G01 X-0.6392 Y0.1126  
G01 X-0.6392 Y0.1217  
G01 X-0.6378 Y0.1306  
G01 X-0.6350 Y0.1393  
G01 X-0.6308 Y0.1474  
G01 X-0.6255 Y0.1547  
G01 X-0.6191 Y0.1611  
G01 X-0.6117 Y0.1665  
G01 X-0.6036 Y0.1706  
G01 X-0.5950 Y0.1734  
G01 X-0.5860 Y0.1748  
G01 X-0.4770 Y0.1748  
G01 X-0.4680 Y0.1734  
G01 X-0.4593 Y0.1706  
G01 X-0.4513 Y0.1665  
G01 X-0.4439 Y0.1611  
G01 X-0.4375 Y0.1547  
G01 X-0.4321 Y0.1474  
G01 X-0.4280 Y0.1393  
G01 X-0.4252 Y0.1306  
G01 X-0.4238 Y0.1217  
G01 X-0.4238 Y0.1126  
G00 Z0.0500  
G00 X-0.5741 Y0.2343  
G01 Z-0.0040 F10    
G01 X-0.5805 Y0.2278  F20    
G01 X-0.5879 Y0.2225  
G01 X-0.5960 Y0.2184  
G01 X-0.6046 Y0.2156  
G01 X-0.6136 Y0.2142  
G01 X-0.6227 Y0.2142  
G01 X-0.6316 Y0.2156  
G01 X-0.6403 Y0.2184  
G01 X-0.6484 Y0.2225  
G01 X-0.6557 Y0.2278  
G01 X-0.6621 Y0.2343  
G01 X-0.6675 Y0.2416  
G01 X-0.6716 Y0.2497  
G01 X-0.6744 Y0.2583  
G01 X-0.6758 Y0.2673  
G01 X-0.6758 Y0.3764  
G01 X-0.6744 Y0.3854  
G01 X-0.6716 Y0.3940  
G01 X-0.6675 Y0.4021  
G01 X-0.6621 Y0.4094  
G01 X-0.6557 Y0.4159  
G01 X-0.6484 Y0.4212  
G01 X-0.6432 Y0.4238  
G01 X-0.5825 Y0.6030  
G01 X-0.5847 Y0.6064  
G01 X-0.5877 Y0.6136  
G01 X-0.5892 Y0.6211  
G01 X-0.5892 Y0.6289  
G01 X-0.5877 Y0.6364  
G01 X-0.5847 Y0.6436  
G01 X-0.5804 Y0.6500  
G01 X-0.5750 Y0.6554  
G01 X-0.5686 Y0.6597  
G01 X-0.5614 Y0.6627  
G01 X-0.5539 Y0.6642  
G01 X-0.5461 Y0.6642  
G01 X-0.5386 Y0.6627  
G01 X-0.5314 Y0.6597  
G01 X-0.5250 Y0.6554  
G01 X-0.5196 Y0.6500  
G01 X-0.5153 Y0.6436  
G01 X-0.5123 Y0.6364  
G01 X-0.5108 Y0.6289  
G01 X-0.5108 Y0.6211  
G01 X-0.5123 Y0.6136  
G01 X-0.5153 Y0.6064  
G01 X-0.5196 Y0.6000  
G01 X-0.5250 Y0.5946  
G01 X-0.5314 Y0.5903  
G01 X-0.5376 Y0.5877  
G01 X-0.5931 Y0.4239  
G01 X-0.5879 Y0.4212  
G01 X-0.5805 Y0.4159  
G01 X-0.5741 Y0.4094  
G01 X-0.5688 Y0.4021  
G01 X-0.5646 Y0.3940  
G01 X-0.5618 Y0.3854  
G01 X-0.5604 Y0.3764  
G01 X-0.5604 Y0.2673  
G01 X-0.5618 Y0.2583  
G01 X-0.5646 Y0.2497  
G01 X-0.5688 Y0.2416  
G01 X-0.5741 Y0.2343  
G00 Z0.0500  
G00 X-0.7053 Y0.2435  
G01 Z-0.0040 F10    
G01 X-0.7053 Y0.2065  F20    
G01 X-0.7315 Y0.1803  
G01 X-0.7685 Y0.1803  
G01 X-0.7947 Y0.2065  
G01 X-0.7947 Y0.2435  
G01 X-0.7685 Y0.2697  
G01 X-0.7315 Y0.2697  
G01 X-0.7053 Y0.2435  
G00 Z0.0500  
G00 X-0.7315 Y0.1697  
G01 Z-0.0040 F10    
G01 X-0.7053 Y0.1435  F20    
G01 X-0.7053 Y0.1065  
G01 X-0.7315 Y0.0803  
G01 X-0.7685 Y0.0803  
G01 X-0.7947 Y0.1065  
G01 X-0.7947 Y0.1435  
G01 X-0.7685 Y0.1697  
G01 X-0.7315 Y0.1697  
G00 Z0.0500  
G00 X-0.8315 Y0.1697  
G01 Z-0.0040 F10    
G01 X-0.8053 Y0.1435  F20    
G01 X-0.8053 Y0.1065  
G01 X-0.8315 Y0.0803  
G01 X-0.8685 Y0.0803  
G01 X-0.8947 Y0.1065  
G01 X-0.8947 Y0.1435  
G01 X-0.8685 Y0.1697  
G01 X-0.8315 Y0.1697  
G00 Z0.0500  
G00 X-0.8315 Y0.1803  
G01 Z-0.0040 F10    
G01 X-0.8685 Y0.1803  F20    
G01 X-0.8947 Y0.2065  
G01 X-0.8947 Y0.2435  
G01 X-0.8685 Y0.2697  
G01 X-0.8315 Y0.2697  
G01 X-0.8053 Y0.2435  
G01 X-0.8053 Y0.2065  
G01 X-0.8315 Y0.1803  
G00 Z0.0500  
G00 X-0.9053 Y0.2065  
G01 Z-0.0040 F10    
G01 X-0.9315 Y0.1803  F20    
G01 X-0.9685 Y0.1803  
G01 X-0.9947 Y0.2065  
G01 X-0.9947 Y0.2435  
G01 X-0.9685 Y0.2697  
G01 X-0.9315 Y0.2697  
G01 X-0.9053 Y0.2435  
G01 X-0.9053 Y0.2065  
G00 Z0.0500  
G00 X-0.9315 Y0.1697  
G01 Z-0.0040 F10    
G01 X-0.9053 Y0.1435  F20    
G01 X-0.9053 Y0.1065  
G01 X-0.9315 Y0.0803  
G01 X-0.9685 Y0.0803  
G01 X-0.9947 Y0.1065  
G01 X-0.9947 Y0.1435  
G01 X-0.9685 Y0.1697  
G01 X-0.9315 Y0.1697  
G00 Z0.0500  
G00 X-1.0053 Y0.1435  
G01 Z-0.0040 F10    
G01 X-1.0053 Y0.1065  F20    
G01 X-1.0315 Y0.0803  
G01 X-1.0685 Y0.0803  
G01 X-1.0947 Y0.1065  
G01 X-1.0947 Y0.1435  
G01 X-1.0737 Y0.1645  
G01 X-1.0737 Y0.1855  
G01 X-1.0947 Y0.2065  
G01 X-1.0947 Y0.2435  
G01 X-1.0737 Y0.2645  
G01 X-1.0737 Y0.3229  
G01 X-1.0737 Y0.3231  
G01 X-1.0737 Y0.3252  
G01 X-1.0737 Y0.3273  
G01 X-1.0737 Y0.3276  
G01 X-1.0736 Y0.3278  
G01 X-1.0732 Y0.3299  
G01 X-1.0728 Y0.3319  
G01 X-1.0727 Y0.3321  
G01 X-1.0726 Y0.3324  
G01 X-1.0718 Y0.3343  
G01 X-1.0710 Y0.3362  
G01 X-1.0709 Y0.3364  
G01 X-1.0108 Y0.4737  
G01 X-1.0125 Y0.4760  
G01 X-1.0158 Y0.4825  
G01 X-1.0180 Y0.4893  
G01 X-1.0191 Y0.4964  
G01 X-1.0191 Y0.5036  
G01 X-1.0180 Y0.5107  
G01 X-1.0158 Y0.5175  
G01 X-1.0125 Y0.5240  
G01 X-1.0083 Y0.5298  
G01 X-1.0032 Y0.5349  
G01 X-0.9974 Y0.5391  
G01 X-0.9910 Y0.5424  
G01 X-0.9841 Y0.5446  
G01 X-0.9770 Y0.5457  
G01 X-0.9698 Y0.5457  
G01 X-0.9627 Y0.5446  
G01 X-0.9559 Y0.5424  
G01 X-0.9495 Y0.5391  
G01 X-0.9437 Y0.5349  
G01 X-0.9386 Y0.5298  
G01 X-0.9343 Y0.5240  
G01 X-0.9311 Y0.5175  
G01 X-0.9289 Y0.5107  
G01 X-0.9277 Y0.5036  
G01 X-0.9277 Y0.4964  
G01 X-0.9289 Y0.4893  
G01 X-0.9311 Y0.4825  
G01 X-0.9343 Y0.4760  
G01 X-0.9386 Y0.4702  
G01 X-0.9437 Y0.4651  
G01 X-0.9495 Y0.4609  
G01 X-0.9559 Y0.4576  
G01 X-0.9627 Y0.4554  
G01 X-0.9674 Y0.4547  
G01 X-1.0263 Y0.3200  
G01 X-1.0263 Y0.2645  
G01 X-1.0053 Y0.2435  
G01 X-1.0053 Y0.2065  
G01 X-1.0263 Y0.1855  
G01 X-1.0263 Y0.1645  
G01 X-1.0053 Y0.1435  
G00 Z0.0500  
G00 X-1.4053 Y0.1435  
G01 Z-0.0040 F10    
G01 X-1.4053 Y0.1065  F20    
G01 X-1.4315 Y0.0803  
G01 X-1.4685 Y0.0803  
G01 X-1.4947 Y0.1065  
G01 X-1.4947 Y0.1435  
G01 X-1.4737 Y0.1645  
G01 X-1.4737 Y0.1855  
G01 X-1.4947 Y0.2065  
G01 X-1.4947 Y0.2435  
G01 X-1.4737 Y0.2645  
G01 X-1.4737 Y0.4289  
G01 X-1.4728 Y0.4335  
G01 X-1.4710 Y0.4378  
G01 X-1.4684 Y0.4417  
G01 X-1.4195 Y0.4906  
G01 X-1.4196 Y0.4909  
G01 X-1.4207 Y0.4980  
G01 X-1.4207 Y0.5052  
G01 X-1.4196 Y0.5123  
G01 X-1.4174 Y0.5191  
G01 X-1.4141 Y0.5255  
G01 X-1.4099 Y0.5313  
G01 X-1.4048 Y0.5364  
G01 X-1.3990 Y0.5407  
G01 X-1.3925 Y0.5439  
G01 X-1.3857 Y0.5461  
G01 X-1.3786 Y0.5473  
G01 X-1.3714 Y0.5473  
G01 X-1.3643 Y0.5461  
G01 X-1.3575 Y0.5439  
G01 X-1.3510 Y0.5407  
G01 X-1.3452 Y0.5364  
G01 X-1.3401 Y0.5313  
G01 X-1.3359 Y0.5255  
G01 X-1.3326 Y0.5191  
G01 X-1.3304 Y0.5123  
G01 X-1.3293 Y0.5052  
G01 X-1.3293 Y0.4980  
G01 X-1.3304 Y0.4909  
G01 X-1.3326 Y0.4840  
G01 X-1.3359 Y0.4776  
G01 X-1.3401 Y0.4718  
G01 X-1.3452 Y0.4667  
G01 X-1.3510 Y0.4625  
G01 X-1.3575 Y0.4592  
G01 X-1.3643 Y0.4570  
G01 X-1.3714 Y0.4559  
G01 X-1.3786 Y0.4559  
G01 X-1.3857 Y0.4570  
G01 X-1.3860 Y0.4571  
G01 X-1.4263 Y0.4168  
G01 X-1.4263 Y0.2645  
G01 X-1.4053 Y0.2435  
G01 X-1.4053 Y0.2065  
G01 X-1.4263 Y0.1855  
G01 X-1.4263 Y0.1645  
G01 X-1.4053 Y0.1435  
G00 Z0.0500  
G00 X-1.4048 Y0.6636  
G01 Z-0.0040 F10    
G01 X-1.4099 Y0.6687  F20    
G01 X-1.4141 Y0.6745  
G01 X-1.4174 Y0.6809  
G01 X-1.4196 Y0.6877  
G01 X-1.4207 Y0.6948  
G01 X-1.4207 Y0.7020  
G01 X-1.4196 Y0.7091  
G01 X-1.4174 Y0.7160  
G01 X-1.4141 Y0.7224  
G01 X-1.4099 Y0.7282  
G01 X-1.4048 Y0.7333  
G01 X-1.3990 Y0.7375  
G01 X-1.3925 Y0.7408  
G01 X-1.3857 Y0.7430  
G01 X-1.3786 Y0.7441  
G01 X-1.3714 Y0.7441  
G01 X-1.3643 Y0.7430  
G01 X-1.3575 Y0.7408  
G01 X-1.3510 Y0.7375  
G01 X-1.3452 Y0.7333  
G01 X-1.3401 Y0.7282  
G01 X-1.3359 Y0.7224  
G01 X-1.3326 Y0.7160  
G01 X-1.3304 Y0.7091  
G01 X-1.3299 Y0.7061  
G01 X-1.2411 Y0.6710  
G01 X-1.2402 Y0.6708  
G01 X-1.2389 Y0.6701  
G01 X-1.2375 Y0.6696  
G01 X-1.2368 Y0.6691  
G01 X-1.2196 Y0.6608  
G01 X-1.2162 Y0.6642  
G01 X-1.2069 Y0.6642  
G01 X-1.1466 Y0.7848  
G01 X-1.1460 Y0.7862  
G01 X-1.1455 Y0.7869  
G01 X-1.1452 Y0.7877  
G01 X-1.1442 Y0.7889  
G01 X-1.1434 Y0.7901  
G01 X-1.1428 Y0.7907  
G01 X-1.1423 Y0.7914  
G01 X-1.1412 Y0.7924  
G01 X-0.9987 Y0.9348  
G01 X-0.9987 Y1.0678  
G01 X-1.0447 Y1.1369  
G01 X-1.0460 Y1.1388  
G01 X-1.0469 Y1.1410  
G01 X-1.0478 Y1.1431  
G01 X-1.0483 Y1.1454  
G01 X-1.0487 Y1.1477  
G01 X-1.0487 Y1.1500  
G01 X-1.0487 Y1.3741  
G01 X-1.0488 Y1.3755  
G01 X-1.0487 Y1.3764  
G01 X-1.0487 Y1.3773  
G01 X-1.0484 Y1.3787  
G01 X-1.0483 Y1.3801  
G01 X-1.0480 Y1.3810  
G01 X-1.0478 Y1.3819  
G01 X-1.0472 Y1.3832  
G01 X-1.0468 Y1.3846  
G01 X-1.0464 Y1.3854  
G01 X-1.0460 Y1.3862  
G01 X-1.0452 Y1.3874  
G01 X-1.0445 Y1.3887  
G01 X-1.0439 Y1.3893  
G01 X-1.0434 Y1.3901  
G01 X-1.0424 Y1.3911  
G01 X-0.8987 Y1.5588  
G01 X-0.8987 Y1.9079  
G01 X-0.9988 Y1.9413  
G01 X-1.0394 Y1.9413  
G01 X-1.1413 Y1.8904  
G01 X-1.1413 Y1.8860  
G01 X-1.1610 Y1.8663  
G01 X-1.1890 Y1.8663  
G01 X-1.2087 Y1.8860  
G01 X-1.2087 Y1.9140  
G01 X-1.1890 Y1.9337  
G01 X-1.1610 Y1.9337  
G01 X-1.1609 Y1.9336  
G01 X-1.0847 Y1.9717  
G01 X-1.0847 Y1.9783  
G01 X-1.0834 Y1.9848  
G01 X-1.0809 Y1.9910  
G01 X-1.0772 Y1.9965  
G01 X-1.0725 Y2.0012  
G01 X-1.0670 Y2.0049  
G01 X-1.0608 Y2.0074  
G01 X-1.0543 Y2.0087  
G01 X-0.9957 Y2.0087  
G01 X-0.9892 Y2.0074  
G01 X-0.9830 Y2.0049  
G01 X-0.9775 Y2.0012  
G01 X-0.9728 Y1.9965  
G01 X-0.9691 Y1.9910  
G01 X-0.9666 Y1.9848  
G01 X-0.9657 Y1.9802  
G01 X-0.8689 Y1.9480  
G01 X-0.8681 Y1.9478  
G01 X-0.8667 Y1.9472  
G01 X-0.8653 Y1.9467  
G01 X-0.8646 Y1.9463  
G01 X-0.8638 Y1.9460  
G01 X-0.8625 Y1.9452  
G01 X-0.8612 Y1.9444  
G01 X-0.8606 Y1.9439  
G01 X-0.8599 Y1.9434  
G01 X-0.8588 Y1.9424  
G01 X-0.8577 Y1.9414  
G01 X-0.8572 Y1.9407  
G01 X-0.8566 Y1.9401  
G01 X-0.8558 Y1.9389  
G01 X-0.8548 Y1.9377  
G01 X-0.8545 Y1.9369  
G01 X-0.8540 Y1.9362  
G01 X-0.8534 Y1.9348  
G01 X-0.8528 Y1.9335  
G01 X-0.8525 Y1.9327  
G01 X-0.8522 Y1.9319  
G01 X-0.8519 Y1.9304  
G01 X-0.8515 Y1.9290  
G01 X-0.8515 Y1.9282  
G01 X-0.8513 Y1.9273  
G01 X-0.8513 Y1.9258  
G01 X-0.8512 Y1.9244  
G01 X-0.8513 Y1.9235  
G01 X-0.8513 Y1.5509  
G01 X-0.8512 Y1.5495  
G01 X-0.8513 Y1.5486  
G01 X-0.8513 Y1.5477  
G01 X-0.8516 Y1.5463  
G01 X-0.8517 Y1.5449  
G01 X-0.8520 Y1.5440  
G01 X-0.8522 Y1.5431  
G01 X-0.8528 Y1.5418  
G01 X-0.8532 Y1.5404  
G01 X-0.8536 Y1.5396  
G01 X-0.8540 Y1.5388  
G01 X-0.8548 Y1.5376  
G01 X-0.8555 Y1.5363  
G01 X-0.8561 Y1.5357  
G01 X-0.8566 Y1.5349  
G01 X-0.8576 Y1.5339  
G01 X-1.0013 Y1.3662  
G01 X-1.0013 Y1.1572  
G01 X-0.9553 Y1.0881  
G01 X-0.9540 Y1.0862  
G01 X-0.9531 Y1.0840  
G01 X-0.9522 Y1.0819  
G01 X-0.9517 Y1.0796  
G01 X-0.9513 Y1.0773  
G01 X-0.9513 Y1.0750  
G01 X-0.9513 Y0.9227  
G01 X-0.9522 Y0.9181  
G01 X-0.9540 Y0.9138  
G01 X-0.9566 Y0.9099  
G01 X-0.9599 Y0.9066  
G01 X-1.1055 Y0.7610  
G01 X-1.1639 Y0.6443  
G01 X-1.1608 Y0.6412  
G01 X-1.1608 Y0.6088  
G01 X-1.1838 Y0.5858  
G01 X-1.2162 Y0.5858  
G01 X-1.2392 Y0.6088  
G01 X-1.2392 Y0.6176  
G01 X-1.2580 Y0.6267  
G01 X-1.3474 Y0.6620  
G01 X-1.3510 Y0.6593  
G01 X-1.3575 Y0.6561  
G01 X-1.3643 Y0.6539  
G01 X-1.3714 Y0.6527  
G01 X-1.3786 Y0.6527  
G01 X-1.3857 Y0.6539  
G01 X-1.3925 Y0.6561  
G01 X-1.3990 Y0.6593  
G01 X-1.4048 Y0.6636  
G00 Z0.0500  
G00 X-1.3916 Y0.8330  
G01 Z-0.0040 F10    
G01 X-1.3925 Y0.8340  F20    
G01 X-1.3934 Y0.8349  
G01 X-1.3940 Y0.8357  
G01 X-1.3946 Y0.8365  
G01 X-1.3953 Y0.8377  
G01 X-1.3960 Y0.8388  
G01 X-1.3964 Y0.8397  
G01 X-1.3969 Y0.8406  
G01 X-1.3973 Y0.8419  
G01 X-1.3978 Y0.8431  
G01 X-1.3980 Y0.8441  
G01 X-1.3983 Y0.8451  
G01 X-1.3984 Y0.8464  
G01 X-1.3987 Y0.8477  
G01 X-1.3987 Y0.8487  
G01 X-1.3988 Y0.8497  
G01 X-1.3987 Y0.8510  
G01 X-1.3987 Y2.1983  
G01 X-1.3988 Y2.1990  
G01 X-1.3987 Y2.2006  
G01 X-1.3987 Y2.2023  
G01 X-1.3986 Y2.2030  
G01 X-1.3985 Y2.2036  
G01 X-1.3981 Y2.2053  
G01 X-1.3978 Y2.2069  
G01 X-1.3975 Y2.2075  
G01 X-1.3974 Y2.2081  
G01 X-1.3966 Y2.2097  
G01 X-1.3960 Y2.2112  
G01 X-1.3956 Y2.2118  
G01 X-1.3954 Y2.2124  
G01 X-1.3943 Y2.2137  
G01 X-1.3934 Y2.2151  
G01 X-1.3929 Y2.2156  
G01 X-1.1837 Y2.4946  
G01 X-1.1837 Y2.5140  
G01 X-1.1640 Y2.5337  
G01 X-1.1360 Y2.5337  
G01 X-1.1163 Y2.5140  
G01 X-1.1163 Y2.4860  
G01 X-1.1164 Y2.4859  
G01 X-1.0545 Y2.3619  
G01 X-1.0190 Y2.3087  
G01 X-0.9957 Y2.3087  
G01 X-0.9892 Y2.3074  
G01 X-0.9830 Y2.3049  
G01 X-0.9775 Y2.3012  
G01 X-0.9728 Y2.2965  
G01 X-0.9691 Y2.2910  
G01 X-0.9666 Y2.2848  
G01 X-0.9653 Y2.2783  
G01 X-0.9653 Y2.2717  
G01 X-0.9666 Y2.2652  
G01 X-0.9691 Y2.2590  
G01 X-0.9728 Y2.2535  
G01 X-0.9775 Y2.2488  
G01 X-0.9830 Y2.2451  
G01 X-0.9892 Y2.2426  
G01 X-0.9957 Y2.2413  
G01 X-1.0543 Y2.2413  
G01 X-1.0608 Y2.2426  
G01 X-1.0670 Y2.2451  
G01 X-1.0725 Y2.2488  
G01 X-1.0772 Y2.2535  
G01 X-1.0809 Y2.2590  
G01 X-1.0834 Y2.2652  
G01 X-1.0847 Y2.2717  
G01 X-1.0847 Y2.2783  
G01 X-1.0834 Y2.2848  
G01 X-1.0809 Y2.2910  
G01 X-1.0772 Y2.2965  
G01 X-1.0725 Y2.3012  
G01 X-1.0714 Y2.3019  
G01 X-1.0942 Y2.3361  
G01 X-1.0952 Y2.3373  
G01 X-1.0955 Y2.3381  
G01 X-1.0960 Y2.3388  
G01 X-1.0966 Y2.3402  
G01 X-1.1540 Y2.4551  
G01 X-1.3513 Y2.1921  
G01 X-1.3513 Y0.8614  
G01 X-1.2514 Y0.7814  
G01 X-1.2247 Y0.7814  
G01 X-1.2219 Y0.7803  
G01 X-1.2197 Y0.7781  
G01 X-1.2186 Y0.7753  
G01 X-1.2186 Y0.7247  
G01 X-1.2197 Y0.7219  
G01 X-1.2219 Y0.7197  
G01 X-1.2247 Y0.7186  
G01 X-1.2753 Y0.7186  
G01 X-1.2781 Y0.7197  
G01 X-1.2803 Y0.7219  
G01 X-1.2814 Y0.7247  
G01 X-1.2814 Y0.7448  
G01 X-1.3890 Y0.8309  
G01 X-1.3901 Y0.8316  
G01 X-1.3908 Y0.8323  
G01 X-1.3916 Y0.8330  
G00 Z0.0500  
G00 X-1.2314 Y0.8247  
G01 Z-0.0040 F10    
G01 X-1.2314 Y0.8479  F20    
G01 X-1.3184 Y0.9349  
G01 X-1.3210 Y0.9388  
G01 X-1.3228 Y0.9431  
G01 X-1.3237 Y0.9477  
G01 X-1.3237 Y1.3735  
G01 X-1.3238 Y1.3744  
G01 X-1.3237 Y1.3758  
G01 X-1.3237 Y1.3773  
G01 X-1.3235 Y1.3782  
G01 X-1.3235 Y1.3790  
G01 X-1.3231 Y1.3804  
G01 X-1.3228 Y1.3819  
G01 X-1.3225 Y1.3827  
G01 X-1.3222 Y1.3835  
G01 X-1.3216 Y1.3848  
G01 X-1.3210 Y1.3862  
G01 X-1.3205 Y1.3869  
G01 X-1.2722 Y1.4837  
G01 X-1.2721 Y1.4838  
G01 X-1.2711 Y1.4858  
G01 X-1.2702 Y1.4877  
G01 X-1.2700 Y1.4878  
G01 X-1.2700 Y1.4880  
G01 X-1.2686 Y1.4897  
G01 X-1.2673 Y1.4914  
G01 X-1.2672 Y1.4915  
G01 X-1.2670 Y1.4916  
G01 X-1.2654 Y1.4930  
G01 X-1.2638 Y1.4944  
G01 X-1.2636 Y1.4945  
G01 X-1.2635 Y1.4946  
G01 X-1.2616 Y1.4957  
G01 X-1.2597 Y1.4967  
G01 X-1.2595 Y1.4968  
G01 X-1.2594 Y1.4969  
G01 X-1.2573 Y1.4975  
G01 X-1.2553 Y1.4982  
G01 X-1.2551 Y1.4982  
G01 X-1.2549 Y1.4983  
G01 X-1.2528 Y1.4985  
G01 X-1.2506 Y1.4988  
G01 X-1.2505 Y1.4988  
G01 X-1.0374 Y1.5225  
G01 X-0.9487 Y1.6333  
G01 X-0.9487 Y1.7152  
G01 X-0.9804 Y1.7469  
G01 X-0.9830 Y1.7451  
G01 X-0.9892 Y1.7426  
G01 X-0.9957 Y1.7413  
G01 X-1.0543 Y1.7413  
G01 X-1.0608 Y1.7426  
G01 X-1.0670 Y1.7451  
G01 X-1.0725 Y1.7488  
G01 X-1.0772 Y1.7535  
G01 X-1.0809 Y1.7590  
G01 X-1.0834 Y1.7652  
G01 X-1.0847 Y1.7717  
G01 X-1.0847 Y1.7783  
G01 X-1.0834 Y1.7848  
G01 X-1.0809 Y1.7910  
G01 X-1.0772 Y1.7965  
G01 X-1.0725 Y1.8012  
G01 X-1.0670 Y1.8049  
G01 X-1.0608 Y1.8074  
G01 X-1.0543 Y1.8087  
G01 X-0.9957 Y1.8087  
G01 X-0.9892 Y1.8074  
G01 X-0.9830 Y1.8049  
G01 X-0.9775 Y1.8012  
G01 X-0.9750 Y1.7987  
G01 X-0.9727 Y1.7987  
G01 X-0.9681 Y1.7978  
G01 X-0.9638 Y1.7960  
G01 X-0.9599 Y1.7934  
G01 X-0.9099 Y1.7434  
G01 X-0.9066 Y1.7401  
G01 X-0.9040 Y1.7362  
G01 X-0.9022 Y1.7319  
G01 X-0.9013 Y1.7273  
G01 X-0.9013 Y1.6263  
G01 X-0.9012 Y1.6253  
G01 X-0.9013 Y1.6240  
G01 X-0.9013 Y1.6227  
G01 X-0.9015 Y1.6217  
G01 X-0.9016 Y1.6206  
G01 X-0.9020 Y1.6194  
G01 X-0.9022 Y1.6181  
G01 X-0.9026 Y1.6171  
G01 X-0.9029 Y1.6162  
G01 X-0.9035 Y1.6150  
G01 X-0.9040 Y1.6138  
G01 X-0.9046 Y1.6129  
G01 X-0.9050 Y1.6120  
G01 X-0.9059 Y1.6110  
G01 X-0.9066 Y1.6099  
G01 X-0.9073 Y1.6092  
G01 X-1.0080 Y1.4834  
G01 X-1.0115 Y1.4804  
G01 X-1.0156 Y1.4781  
G01 X-1.0201 Y1.4767  
G01 X-1.0247 Y1.4762  
G01 X-1.2346 Y1.4529  
G01 X-1.2763 Y1.3694  
G01 X-1.2763 Y0.9598  
G01 X-1.1979 Y0.8814  
G01 X-1.1747 Y0.8814  
G01 X-1.1719 Y0.8803  
G01 X-1.1697 Y0.8781  
G01 X-1.1686 Y0.8753  
G01 X-1.1686 Y0.8247  
G01 X-1.1697 Y0.8219  
G01 X-1.1719 Y0.8197  
G01 X-1.1747 Y0.8186  
G01 X-1.2253 Y0.8186  
G01 X-1.2281 Y0.8197  
G01 X-1.2303 Y0.8219  
G01 X-1.2314 Y0.8247  
G00 Z0.0500  
G00 X-1.1781 Y0.9197  
G01 Z-0.0040 F10    
G01 X-1.1803 Y0.9219  F20    
G01 X-1.1814 Y0.9247  
G01 X-1.1814 Y0.9524  
G01 X-1.2429 Y1.0344  
G01 X-1.2434 Y1.0349  
G01 X-1.2443 Y1.0363  
G01 X-1.2454 Y1.0376  
G01 X-1.2456 Y1.0382  
G01 X-1.2460 Y1.0388  
G01 X-1.2466 Y1.0403  
G01 X-1.2474 Y1.0419  
G01 X-1.2475 Y1.0425  
G01 X-1.2478 Y1.0431  
G01 X-1.2481 Y1.0447  
G01 X-1.2485 Y1.0464  
G01 X-1.2486 Y1.0470  
G01 X-1.2487 Y1.0477  
G01 X-1.2487 Y1.0494  
G01 X-1.2488 Y1.0510  
G01 X-1.2487 Y1.0517  
G01 X-1.2487 Y1.1760  
G01 X-1.2587 Y1.1860  
G01 X-1.2587 Y1.2140  
G01 X-1.2487 Y1.2240  
G01 X-1.2487 Y1.3010  
G01 X-1.2587 Y1.3110  
G01 X-1.2587 Y1.3390  
G01 X-1.2390 Y1.3587  
G01 X-1.2110 Y1.3587  
G01 X-1.1913 Y1.3390  
G01 X-1.1913 Y1.3110  
G01 X-1.2013 Y1.3010  
G01 X-1.2013 Y1.2240  
G01 X-1.1913 Y1.2140  
G01 X-1.1913 Y1.1860  
G01 X-1.2013 Y1.1760  
G01 X-1.2013 Y1.0579  
G01 X-1.1440 Y0.9814  
G01 X-1.1247 Y0.9814  
G01 X-1.1219 Y0.9803  
G01 X-1.1197 Y0.9781  
G01 X-1.1186 Y0.9753  
G01 X-1.1186 Y0.9247  
G01 X-1.1197 Y0.9219  
G01 X-1.1219 Y0.9197  
G01 X-1.1247 Y0.9186  
G01 X-1.1753 Y0.9186  
G01 X-1.1781 Y0.9197  
G00 Z0.0500  
G00 X-1.0890 Y1.0163  
G01 Z-0.0040 F10    
G01 X-1.1087 Y1.0360  F20    
G01 X-1.1087 Y1.0502  
G01 X-1.1401 Y1.0816  
G01 X-1.1434 Y1.0849  
G01 X-1.1460 Y1.0888  
G01 X-1.1478 Y1.0931  
G01 X-1.1487 Y1.0977  
G01 X-1.1487 Y1.2727  
G01 X-1.1487 Y1.2750  
G01 X-1.1487 Y1.2773  
G01 X-1.1482 Y1.2796  
G01 X-1.1478 Y1.2819  
G01 X-1.1281 Y1.3804  
G01 X-1.1337 Y1.3860  
G01 X-1.1337 Y1.4140  
G01 X-1.1140 Y1.4337  
G01 X-1.0860 Y1.4337  
G01 X-1.0663 Y1.4140  
G01 X-1.0663 Y1.3860  
G01 X-1.0817 Y1.3706  
G01 X-1.1013 Y1.2727  
G01 X-1.1013 Y1.1098  
G01 X-1.0752 Y1.0837  
G01 X-1.0610 Y1.0837  
G01 X-1.0413 Y1.0640  
G01 X-1.0413 Y1.0360  
G01 X-1.0610 Y1.0163  
G01 X-1.0890 Y1.0163  
G00 Z0.0500  
G00 X-0.8987 Y1.1023  
G01 Z-0.0040 F10    
G01 X-0.8978 Y1.1069  F20    
G01 X-0.8960 Y1.1112  
G01 X-0.8934 Y1.1151  
G01 X-0.8901 Y1.1184  
G01 X-0.8487 Y1.1598  
G01 X-0.8487 Y1.9242  
G01 X-0.8488 Y1.9256  
G01 X-0.8487 Y1.9265  
G01 X-0.8487 Y1.9273  
G01 X-0.8484 Y1.9288  
G01 X-0.8482 Y1.9303  
G01 X-0.8480 Y1.9311  
G01 X-0.8478 Y1.9319  
G01 X-0.8472 Y1.9333  
G01 X-0.8467 Y1.9347  
G01 X-0.8463 Y1.9354  
G01 X-0.8460 Y1.9362  
G01 X-0.8452 Y1.9375  
G01 X-0.8444 Y1.9388  
G01 X-0.8439 Y1.9394  
G01 X-0.8434 Y1.9401  
G01 X-0.8424 Y1.9412  
G01 X-0.8414 Y1.9423  
G01 X-0.8407 Y1.9428  
G01 X-0.8401 Y1.9434  
G01 X-0.8389 Y1.9442  
G01 X-0.8377 Y1.9452  
G01 X-0.8369 Y1.9455  
G01 X-0.8362 Y1.9460  
G01 X-0.8348 Y1.9466  
G01 X-0.7847 Y1.9717  
G01 X-0.7847 Y1.9783  
G01 X-0.7834 Y1.9848  
G01 X-0.7809 Y1.9910  
G01 X-0.7772 Y1.9965  
G01 X-0.7725 Y2.0012  
G01 X-0.7670 Y2.0049  
G01 X-0.7608 Y2.0074  
G01 X-0.7543 Y2.0087  
G01 X-0.6957 Y2.0087  
G01 X-0.6892 Y2.0074  
G01 X-0.6874 Y2.0067  
G01 X-0.6117 Y2.0218  
G01 X-0.5837 Y2.0498  
G01 X-0.5837 Y2.0640  
G01 X-0.5640 Y2.0837  
G01 X-0.5360 Y2.0837  
G01 X-0.5163 Y2.0640  
G01 X-0.5163 Y2.0360  
G01 X-0.5360 Y2.0163  
G01 X-0.5502 Y2.0163  
G01 X-0.5832 Y1.9833  
G01 X-0.5849 Y1.9816  
G01 X-0.5868 Y1.9803  
G01 X-0.5888 Y1.9790  
G01 X-0.5909 Y1.9781  
G01 X-0.5931 Y1.9772  
G01 X-0.5954 Y1.9768  
G01 X-0.6678 Y1.9623  
G01 X-0.6691 Y1.9590  
G01 X-0.6728 Y1.9535  
G01 X-0.6775 Y1.9488  
G01 X-0.6830 Y1.9451  
G01 X-0.6892 Y1.9426  
G01 X-0.6957 Y1.9413  
G01 X-0.7394 Y1.9413  
G01 X-0.8013 Y1.9104  
G01 X-0.8013 Y1.1477  
G01 X-0.8022 Y1.1431  
G01 X-0.8040 Y1.1388  
G01 X-0.8066 Y1.1349  
G01 X-0.8513 Y1.0902  
G01 X-0.8513 Y0.6563  
G01 X-0.8500 Y0.6554  
G01 X-0.8446 Y0.6500  
G01 X-0.8403 Y0.6436  
G01 X-0.8373 Y0.6364  
G01 X-0.8358 Y0.6289  
G01 X-0.8358 Y0.6211  
G01 X-0.8373 Y0.6136  
G01 X-0.8379 Y0.6121  
G01 X-0.8065 Y0.5649  
G01 X-0.7868 Y0.5446  
G01 X-0.7802 Y0.5457  
G01 X-0.7730 Y0.5457  
G01 X-0.7659 Y0.5446  
G01 X-0.7590 Y0.5424  
G01 X-0.7526 Y0.5391  
G01 X-0.7468 Y0.5349  
G01 X-0.7417 Y0.5298  
G01 X-0.7375 Y0.5240  
G01 X-0.7342 Y0.5175  
G01 X-0.7320 Y0.5107  
G01 X-0.7309 Y0.5036  
G01 X-0.7309 Y0.4964  
G01 X-0.7320 Y0.4893  
G01 X-0.7342 Y0.4825  
G01 X-0.7375 Y0.4760  
G01 X-0.7417 Y0.4702  
G01 X-0.7468 Y0.4651  
G01 X-0.7526 Y0.4609  
G01 X-0.7590 Y0.4576  
G01 X-0.7659 Y0.4554  
G01 X-0.7730 Y0.4543  
G01 X-0.7802 Y0.4543  
G01 X-0.7873 Y0.4554  
G01 X-0.7941 Y0.4576  
G01 X-0.8005 Y0.4609  
G01 X-0.8063 Y0.4651  
G01 X-0.8114 Y0.4702  
G01 X-0.8157 Y0.4760  
G01 X-0.8189 Y0.4825  
G01 X-0.8211 Y0.4893  
G01 X-0.8223 Y0.4964  
G01 X-0.8223 Y0.5036  
G01 X-0.8211 Y0.5107  
G01 X-0.8208 Y0.5116  
G01 X-0.8419 Y0.5334  
G01 X-0.8434 Y0.5349  
G01 X-0.8435 Y0.5351  
G01 X-0.8436 Y0.5352  
G01 X-0.8448 Y0.5370  
G01 X-0.8774 Y0.5858  
G01 X-0.8789 Y0.5858  
G01 X-0.8864 Y0.5873  
G01 X-0.8936 Y0.5903  
G01 X-0.9000 Y0.5946  
G01 X-0.9054 Y0.6000  
G01 X-0.9097 Y0.6064  
G01 X-0.9127 Y0.6136  
G01 X-0.9142 Y0.6211  
G01 X-0.9142 Y0.6289  
G01 X-0.9127 Y0.6364  
G01 X-0.9097 Y0.6436  
G01 X-0.9054 Y0.6500  
G01 X-0.9000 Y0.6554  
G01 X-0.8987 Y0.6563  
G01 X-0.8987 Y1.1023  
G00 Z0.0500  
G00 X-0.9110 Y1.1663  
G01 Z-0.0040 F10    
G01 X-0.9390 Y1.1663  F20    
G01 X-0.9587 Y1.1860  
G01 X-0.9587 Y1.2140  
G01 X-0.9487 Y1.2240  
G01 X-0.9487 Y1.3010  
G01 X-0.9587 Y1.3110  
G01 X-0.9587 Y1.3390  
G01 X-0.9390 Y1.3587  
G01 X-0.9110 Y1.3587  
G01 X-0.8913 Y1.3390  
G01 X-0.8913 Y1.3110  
G01 X-0.9013 Y1.3010  
G01 X-0.9013 Y1.2240  
G01 X-0.8913 Y1.2140  
G01 X-0.8913 Y1.1860  
G01 X-0.9110 Y1.1663  
G00 Z0.0500  
G00 X-0.8087 Y1.0640  
G01 Z-0.0040 F10    
G01 X-0.7890 Y1.0837  F20    
G01 X-0.7610 Y1.0837  
G01 X-0.7510 Y1.0737  
G01 X-0.7098 Y1.0737  
G01 X-0.6837 Y1.0998  
G01 X-0.6837 Y1.1140  
G01 X-0.6640 Y1.1337  
G01 X-0.6360 Y1.1337  
G01 X-0.6260 Y1.1237  
G01 X-0.5227 Y1.1237  
G01 X-0.5181 Y1.1228  
G01 X-0.5138 Y1.1210  
G01 X-0.5099 Y1.1184  
G01 X-0.4152 Y1.0237  
G01 X-0.3068 Y1.0237  
G01 X-0.1507 Y1.1213  
G01 X-0.1507 Y1.1258  
G01 X-0.1495 Y1.1337  
G01 X-0.1470 Y1.1413  
G01 X-0.1434 Y1.1484  
G01 X-0.1387 Y1.1549  
G01 X-0.1330 Y1.1605  
G01 X-0.1266 Y1.1652  
G01 X-0.1195 Y1.1688  
G01 X-0.1119 Y1.1713  
G01 X-0.1040 Y1.1726  
G01 X-0.0960 Y1.1726  
G01 X-0.0881 Y1.1713  
G01 X-0.0805 Y1.1688  
G01 X-0.0734 Y1.1652  
G01 X-0.0670 Y1.1605  
G01 X-0.0613 Y1.1549  
G01 X-0.0566 Y1.1484  
G01 X-0.0530 Y1.1413  
G01 X-0.0505 Y1.1337  
G01 X-0.0493 Y1.1258  
G01 X-0.0493 Y1.1179  
G01 X-0.0505 Y1.1100  
G01 X-0.0530 Y1.1024  
G01 X-0.0566 Y1.0953  
G01 X-0.0613 Y1.0888  
G01 X-0.0670 Y1.0832  
G01 X-0.0734 Y1.0785  
G01 X-0.0805 Y1.0749  
G01 X-0.0881 Y1.0724  
G01 X-0.0960 Y1.0712  
G01 X-0.1040 Y1.0712  
G01 X-0.1119 Y1.0724  
G01 X-0.1195 Y1.0749  
G01 X-0.1266 Y1.0785  
G01 X-0.1280 Y1.0795  
G01 X-0.2871 Y0.9801  
G01 X-0.2888 Y0.9790  
G01 X-0.2891 Y0.9789  
G01 X-0.2894 Y0.9787  
G01 X-0.2913 Y0.9780  
G01 X-0.2931 Y0.9772  
G01 X-0.2934 Y0.9771  
G01 X-0.2938 Y0.9770  
G01 X-0.2957 Y0.9767  
G01 X-0.2977 Y0.9763  
G01 X-0.2980 Y0.9763  
G01 X-0.2984 Y0.9762  
G01 X-0.3004 Y0.9763  
G01 X-0.4273 Y0.9763  
G01 X-0.4319 Y0.9772  
G01 X-0.4362 Y0.9790  
G01 X-0.4401 Y0.9816  
G01 X-0.4434 Y0.9849  
G01 X-0.5348 Y1.0763  
G01 X-0.6260 Y1.0763  
G01 X-0.6360 Y1.0663  
G01 X-0.6502 Y1.0663  
G01 X-0.6849 Y1.0316  
G01 X-0.6888 Y1.0290  
G01 X-0.6931 Y1.0272  
G01 X-0.6977 Y1.0263  
G01 X-0.7510 Y1.0263  
G01 X-0.7610 Y1.0163  
G01 X-0.7890 Y1.0163  
G01 X-0.8087 Y1.0360  
G01 X-0.8087 Y1.0640  
G00 Z0.0500  
G00 X-0.7803 Y0.9781  
G01 Z-0.0040 F10    
G01 X-0.7781 Y0.9803  F20    
G01 X-0.7753 Y0.9814  
G01 X-0.7247 Y0.9814  
G01 X-0.7219 Y0.9803  
G01 X-0.7197 Y0.9781  
G01 X-0.7186 Y0.9753  
G01 X-0.7186 Y0.9247  
G01 X-0.7197 Y0.9219  
G01 X-0.7219 Y0.9197  
G01 X-0.7247 Y0.9186  
G01 X-0.7263 Y0.9186  
G01 X-0.7263 Y0.8348  
G01 X-0.6652 Y0.7737  
G01 X-0.1223 Y0.7737  
G01 X-0.1195 Y0.7751  
G01 X-0.1119 Y0.7776  
G01 X-0.1040 Y0.7788  
G01 X-0.0960 Y0.7788  
G01 X-0.0881 Y0.7776  
G01 X-0.0805 Y0.7751  
G01 X-0.0734 Y0.7715  
G01 X-0.0670 Y0.7668  
G01 X-0.0613 Y0.7612  
G01 X-0.0566 Y0.7547  
G01 X-0.0530 Y0.7476  
G01 X-0.0505 Y0.7400  
G01 X-0.0493 Y0.7321  
G01 X-0.0493 Y0.7242  
G01 X-0.0505 Y0.7163  
G01 X-0.0530 Y0.7087  
G01 X-0.0566 Y0.7016  
G01 X-0.0613 Y0.6951  
G01 X-0.0670 Y0.6895  
G01 X-0.0734 Y0.6848  
G01 X-0.0805 Y0.6812  
G01 X-0.0881 Y0.6787  
G01 X-0.0960 Y0.6774  
G01 X-0.1040 Y0.6774  
G01 X-0.1119 Y0.6787  
G01 X-0.1195 Y0.6812  
G01 X-0.1266 Y0.6848  
G01 X-0.1330 Y0.6895  
G01 X-0.1387 Y0.6951  
G01 X-0.1434 Y0.7016  
G01 X-0.1470 Y0.7087  
G01 X-0.1495 Y0.7163  
G01 X-0.1507 Y0.7242  
G01 X-0.1507 Y0.7263  
G01 X-0.6773 Y0.7263  
G01 X-0.6819 Y0.7272  
G01 X-0.6862 Y0.7290  
G01 X-0.6901 Y0.7316  
G01 X-0.6934 Y0.7349  
G01 X-0.7684 Y0.8099  
G01 X-0.7710 Y0.8138  
G01 X-0.7728 Y0.8181  
G01 X-0.7737 Y0.8227  
G01 X-0.7737 Y0.9186  
G01 X-0.7753 Y0.9186  
G01 X-0.7781 Y0.9197  
G01 X-0.7803 Y0.9219  
G01 X-0.7814 Y0.9247  
G01 X-0.7814 Y0.9753  
G01 X-0.7803 Y0.9781  
G00 Z0.0500  
G00 X-0.7747 Y0.7814  
G01 Z-0.0040 F10    
G01 X-0.7719 Y0.7803  F20    
G01 X-0.7697 Y0.7781  
G01 X-0.7686 Y0.7753  
G01 X-0.7686 Y0.7456  
G01 X-0.7338 Y0.6934  
G01 X-0.6693 Y0.6611  
G01 X-0.6662 Y0.6642  
G01 X-0.6338 Y0.6642  
G01 X-0.6108 Y0.6412  
