(/Applications/pcbgcode.repo/pcb-gcode.ulp)
(Copyright 2005 - 2012 by John Johnson)
(See readme.txt for licensing terms.)
(This file generated from the board:)
(.../spring_rev_driver_stereoping_8r/spring_reverb_8R_driver.brd)
(Current profile is .../pcbgcode.repo/profiles/mach.pp  )
(This file generated 9/19/15 10:07 PM)
(Settings from pcb-machine.h)
(spindle on time = 0.0000)
(  Tool Size)
(0.0100  )
(spindle speed = 30000.0000)
(tool change at 0.0000  0.0000  3.0000  )
(feed rate xy = F20    )
(feed rate z  = F10    )
(Z Axis Settings)
(  High     Up        Down     Drill)
(1.0000  	0.0500  	-0.0040 	-0.0730 )
(Settings from pcb-defaults.h)
(isolate min = 0.0010)
(isolate max = 0.0150)
(isolate step = 0.0015)
(Generated bottom outlines, bottom drill, )
(Unit of measure: inch)
(Inch Mode)
G20
(Absolute Coordinates)
G90
S30000
G00 Z1.0000  
G00 X0.0000  Y0.0000  
M03
G04 P0.000000
G00 Z0.0500  
G00 X-0.0823 Y0.1113  
G01 Z-0.0040 F10    
G01 X-0.0837 Y0.1102  F20    
G01 X-0.0849 Y0.1090  
G01 X-0.0859 Y0.1084  
G01 X-0.0868 Y0.1077  
G01 X-0.0884 Y0.1070  
G01 X-0.0899 Y0.1061  
G01 X-0.0910 Y0.1058  
G01 X-0.3150 Y0.0054  
G01 X-0.3165 Y0.0045  
G01 X-0.3176 Y0.0042  
G01 X-0.3186 Y0.0037  
G01 X-0.3204 Y0.0035  
G01 X-0.3221 Y0.0030  
G01 X-0.3232 Y0.0030  
G01 X-0.3244 Y0.0028  
G01 X-0.3261 Y0.0030  
G01 X-1.2973 Y0.0030  
G01 X-1.2975 Y0.0030  
G01 X-1.3002 Y0.0030  
G01 X-1.3029 Y0.0030  
G01 X-1.3031 Y0.0030  
G01 X-1.3033 Y0.0031  
G01 X-1.3059 Y0.0038  
G01 X-1.3085 Y0.0045  
G01 X-1.3087 Y0.0046  
G01 X-1.3088 Y0.0046  
G01 X-1.3112 Y0.0060  
G01 X-1.3135 Y0.0074  
G01 X-1.3136 Y0.0075  
G01 X-1.3138 Y0.0076  
G01 X-1.3157 Y0.0096  
G01 X-1.3176 Y0.0115  
G01 X-1.3177 Y0.0117  
G01 X-1.3178 Y0.0118  
G01 X-1.3191 Y0.0142  
G01 X-1.3205 Y0.0165  
G01 X-1.3205 Y0.0167  
G01 X-1.3206 Y0.0169  
G01 X-1.3213 Y0.0195  
G01 X-1.3220 Y0.0221  
G01 X-1.3220 Y0.0223  
G01 X-1.3369 Y0.0820  
G01 X-1.3428 Y0.0820  
G01 X-1.3638 Y0.1030  
G01 X-1.3862 Y0.1030  
G01 X-1.4072 Y0.0820  
G01 X-1.4428 Y0.0820  
G01 X-1.4638 Y0.1030  
G01 X-1.4862 Y0.1030  
G01 X-1.5030 Y0.0862  
G01 X-1.5030 Y0.0522  
G01 X-1.5029 Y0.0516  
G01 X-1.5030 Y0.0493  
G01 X-1.5030 Y0.0471  
G01 X-1.5032 Y0.0465  
G01 X-1.5032 Y0.0458  
G01 X-1.5039 Y0.0437  
G01 X-1.5045 Y0.0415  
G01 X-1.5048 Y0.0409  
G01 X-1.5050 Y0.0403  
G01 X-1.5063 Y0.0384  
G01 X-1.5074 Y0.0365  
G01 X-1.5079 Y0.0360  
G01 X-1.5082 Y0.0355  
G01 X-1.5099 Y0.0340  
G01 X-1.5115 Y0.0324  
G01 X-1.5121 Y0.0321  
G01 X-1.5126 Y0.0316  
G01 X-1.5146 Y0.0306  
G01 X-1.5165 Y0.0295  
G01 X-1.5172 Y0.0293  
G01 X-1.5646 Y0.0056  
G01 X-1.5665 Y0.0045  
G01 X-1.5672 Y0.0043  
G01 X-1.5678 Y0.0040  
G01 X-1.5699 Y0.0036  
G01 X-1.5721 Y0.0030  
G01 X-1.5728 Y0.0030  
G01 X-1.5734 Y0.0029  
G01 X-1.5757 Y0.0030  
G01 X-1.6987 Y0.0030  
G01 X-1.7002 Y0.0028  
G01 X-1.7016 Y0.0030  
G01 X-1.7029 Y0.0030  
G01 X-1.7044 Y0.0034  
G01 X-1.7060 Y0.0036  
G01 X-1.7072 Y0.0042  
G01 X-1.7085 Y0.0045  
G01 X-1.7099 Y0.0053  
G01 X-1.7113 Y0.0059  
G01 X-1.7124 Y0.0067  
G01 X-1.7135 Y0.0074  
G01 X-1.7146 Y0.0085  
G01 X-1.7159 Y0.0095  
G01 X-1.7167 Y0.0105  
G01 X-1.7176 Y0.0115  
G01 X-1.7184 Y0.0129  
G01 X-1.7917 Y0.1105  
G01 X-1.7926 Y0.1115  
G01 X-1.7934 Y0.1129  
G01 X-1.7943 Y0.1141  
G01 X-1.7948 Y0.1154  
G01 X-1.7955 Y0.1165  
G01 X-1.7959 Y0.1180  
G01 X-1.7965 Y0.1195  
G01 X-1.7967 Y0.1208  
G01 X-1.7970 Y0.1221  
G01 X-1.7970 Y0.1237  
G01 X-1.7972 Y0.1252  
G01 X-1.7970 Y0.1266  
G01 X-1.7970 Y0.8189  
G01 X-1.8675 Y0.9364  
G01 X-1.8676 Y0.9365  
G01 X-1.8690 Y0.9388  
G01 X-1.8704 Y0.9412  
G01 X-1.8704 Y0.9413  
G01 X-1.8705 Y0.9415  
G01 X-1.8712 Y0.9441  
G01 X-1.8719 Y0.9467  
G01 X-1.8720 Y0.9469  
G01 X-1.8720 Y0.9471  
G01 X-1.8720 Y0.9498  
G01 X-1.8720 Y0.9525  
G01 X-1.8720 Y0.9527  
G01 X-1.8720 Y2.4225  
G01 X-1.8721 Y2.4229  
G01 X-1.8720 Y2.4254  
G01 X-1.8720 Y2.4279  
G01 X-1.8719 Y2.4283  
G01 X-1.8719 Y2.4286  
G01 X-1.8712 Y2.4311  
G01 X-1.8705 Y2.4335  
G01 X-1.8703 Y2.4338  
G01 X-1.8702 Y2.4342  
G01 X-1.8689 Y2.4363  
G01 X-1.8676 Y2.4385  
G01 X-1.8673 Y2.4388  
G01 X-1.8671 Y2.4391  
G01 X-1.8653 Y2.4408  
G01 X-1.8635 Y2.4426  
G01 X-1.8632 Y2.4428  
G01 X-1.4664 Y2.8132  
G01 X-1.4659 Y2.8140  
G01 X-1.4646 Y2.8150  
G01 X-1.4635 Y2.8161  
G01 X-1.4631 Y2.8163  
G01 X-1.4629 Y2.8165  
G01 X-1.4620 Y2.8170  
G01 X-1.1146 Y3.0915  
G01 X-1.1135 Y3.0926  
G01 X-1.1124 Y3.0933  
G01 X-1.1114 Y3.0941  
G01 X-1.1099 Y3.0947  
G01 X-1.1085 Y3.0955  
G01 X-1.1072 Y3.0958  
G01 X-1.1060 Y3.0963  
G01 X-1.1045 Y3.0966  
G01 X-1.1029 Y3.0970  
G01 X-1.1016 Y3.0970  
G01 X-1.1003 Y3.0972  
G01 X-1.0987 Y3.0970  
G01 X-0.2007 Y3.0970  
G01 X-0.1984 Y3.0971  
G01 X-0.1978 Y3.0970  
G01 X-0.1971 Y3.0970  
G01 X-0.1949 Y3.0964  
G01 X-0.1928 Y3.0960  
G01 X-0.1922 Y3.0957  
G01 X-0.1915 Y3.0955  
G01 X-0.1896 Y3.0944  
G01 X-0.0922 Y3.0457  
G01 X-0.0915 Y3.0455  
G01 X-0.0896 Y3.0444  
G01 X-0.0876 Y3.0434  
G01 X-0.0871 Y3.0429  
G01 X-0.0865 Y3.0426  
G01 X-0.0849 Y3.0410  
G01 X-0.0832 Y3.0395  
G01 X-0.0829 Y3.0390  
G01 X-0.0824 Y3.0385  
G01 X-0.0813 Y3.0366  
G01 X-0.0800 Y3.0347  
G01 X-0.0798 Y3.0341  
G01 X-0.0795 Y3.0335  
G01 X-0.0789 Y3.0313  
G01 X-0.0782 Y3.0292  
G01 X-0.0782 Y3.0285  
G01 X-0.0780 Y3.0279  
G01 X-0.0780 Y3.0257  
G01 X-0.0779 Y3.0241  
G01 X-0.0769 Y3.0237  
G01 X-0.0691 Y3.0197  
G01 X-0.0619 Y3.0146  
G01 X-0.0557 Y3.0083  
G01 X-0.0505 Y3.0012  
G01 X-0.0465 Y2.9933  
G01 X-0.0438 Y2.9850  
G01 X-0.0424 Y2.9763  
G01 X-0.0424 Y2.8674  
G01 X-0.0438 Y2.8587  
G01 X-0.0465 Y2.8504  
G01 X-0.0505 Y2.8425  
G01 X-0.0557 Y2.8354  
G01 X-0.0619 Y2.8291  
G01 X-0.0691 Y2.8240  
G01 X-0.0769 Y2.8200  
G01 X-0.0780 Y2.8196  
G01 X-0.0780 Y2.5656  
G01 X-0.0743 Y2.5638  
G01 X-0.0681 Y2.5592  
G01 X-0.0626 Y2.5538  
G01 X-0.0581 Y2.5475  
G01 X-0.0546 Y2.5407  
G01 X-0.0522 Y2.5333  
G01 X-0.0510 Y2.5257  
G01 X-0.0510 Y2.5180  
G01 X-0.0522 Y2.5104  
G01 X-0.0546 Y2.5030  
G01 X-0.0581 Y2.4962  
G01 X-0.0626 Y2.4899  
G01 X-0.0681 Y2.4845  
G01 X-0.0743 Y2.4799  
G01 X-0.0780 Y2.4781  
G01 X-0.0780 Y2.3688  
G01 X-0.0743 Y2.3669  
G01 X-0.0681 Y2.3624  
G01 X-0.0626 Y2.3569  
G01 X-0.0581 Y2.3507  
G01 X-0.0562 Y2.3470  
G01 X-0.0221 Y2.3470  
G01 X-0.0165 Y2.3455  
G01 X-0.0115 Y2.3426  
G01 X-0.0074 Y2.3385  
G01 X-0.0045 Y2.3335  
G01 X-0.0030 Y2.3279  
G01 X-0.0030 Y2.0507  
G01 X-0.0029 Y2.0484  
G01 X-0.0030 Y2.0478  
G01 X-0.0030 Y2.0471  
G01 X-0.0036 Y2.0449  
G01 X-0.0040 Y2.0428  
G01 X-0.0043 Y2.0422  
G01 X-0.0045 Y2.0415  
G01 X-0.0056 Y2.0396  
G01 X-0.0066 Y2.0376  
G01 X-0.0071 Y2.0371  
G01 X-0.0074 Y2.0365  
G01 X-0.0090 Y2.0349  
G01 X-0.0105 Y2.0332  
G01 X-0.0110 Y2.0329  
G01 X-0.0115 Y2.0324  
G01 X-0.0134 Y2.0313  
G01 X-0.0153 Y2.0300  
G01 X-0.0159 Y2.0298  
G01 X-0.0165 Y2.0295  
G01 X-0.0187 Y2.0289  
G01 X-0.0921 Y2.0044  
G01 X-0.0938 Y2.0037  
G01 X-0.0948 Y2.0035  
G01 X-0.0958 Y2.0032  
G01 X-0.0977 Y2.0031  
G01 X-0.0996 Y2.0028  
G01 X-0.1006 Y2.0029  
G01 X-0.1016 Y2.0029  
G01 X-0.1034 Y2.0032  
G01 X-0.5210 Y2.0496  
G01 X-0.4894 Y1.9235  
G01 X-0.4799 Y1.9235  
G01 X-0.4515 Y1.8951  
G01 X-0.4515 Y1.8549  
G01 X-0.4582 Y1.8482  
G01 X-0.4072 Y1.7631  
G01 X-0.4066 Y1.7624  
G01 X-0.4057 Y1.7606  
G01 X-0.4046 Y1.7588  
G01 X-0.4044 Y1.7580  
G01 X-0.3564 Y1.6620  
G01 X-0.3561 Y1.6617  
G01 X-0.3551 Y1.6594  
G01 X-0.3540 Y1.6572  
G01 X-0.3539 Y1.6568  
G01 X-0.3538 Y1.6564  
G01 X-0.3534 Y1.6540  
G01 X-0.3529 Y1.6516  
G01 X-0.3529 Y1.6511  
G01 X-0.3528 Y1.6507  
G01 X-0.3531 Y1.6482  
G01 X-0.3532 Y1.6458  
G01 X-0.3534 Y1.6454  
G01 X-0.3758 Y1.4210  
G01 X-0.3680 Y1.4133  
G01 X-0.3680 Y1.3867  
G01 X-0.3867 Y1.3680  
G01 X-0.4133 Y1.3680  
G01 X-0.4320 Y1.3867  
G01 X-0.4320 Y1.4133  
G01 X-0.4195 Y1.4257  
G01 X-0.3975 Y1.6459  
G01 X-0.4443 Y1.7394  
G01 X-0.4966 Y1.8265  
G01 X-0.5201 Y1.8265  
G01 X-0.5485 Y1.8549  
G01 X-0.5485 Y1.8951  
G01 X-0.5319 Y1.9117  
G01 X-0.5652 Y2.0449  
G01 X-0.5820 Y2.0617  
G01 X-0.5820 Y2.0883  
G01 X-0.5633 Y2.1070  
G01 X-0.5367 Y2.1070  
G01 X-0.5240 Y2.0942  
G01 X-0.1024 Y2.0474  
G01 X-0.0470 Y2.0659  
G01 X-0.0470 Y2.3030  
G01 X-0.0562 Y2.3030  
G01 X-0.0581 Y2.2993  
G01 X-0.0626 Y2.2931  
G01 X-0.0681 Y2.2876  
G01 X-0.0743 Y2.2831  
G01 X-0.0812 Y2.2796  
G01 X-0.0885 Y2.2772  
G01 X-0.0961 Y2.2760  
G01 X-0.1039 Y2.2760  
G01 X-0.1115 Y2.2772  
G01 X-0.1188 Y2.2796  
G01 X-0.1257 Y2.2831  
G01 X-0.1319 Y2.2876  
G01 X-0.1374 Y2.2931  
G01 X-0.1419 Y2.2993  
G01 X-0.1454 Y2.3062  
G01 X-0.1478 Y2.3135  
G01 X-0.1490 Y2.3211  
G01 X-0.1490 Y2.3289  
G01 X-0.1478 Y2.3365  
G01 X-0.1454 Y2.3438  
G01 X-0.1419 Y2.3507  
G01 X-0.1374 Y2.3569  
G01 X-0.1319 Y2.3624  
G01 X-0.1257 Y2.3669  
G01 X-0.1220 Y2.3688  
G01 X-0.1220 Y2.4781  
G01 X-0.1257 Y2.4799  
G01 X-0.1319 Y2.4845  
G01 X-0.1374 Y2.4899  
G01 X-0.1419 Y2.4962  
G01 X-0.1454 Y2.5030  
G01 X-0.1478 Y2.5104  
G01 X-0.1490 Y2.5180  
G01 X-0.1490 Y2.5257  
G01 X-0.1478 Y2.5333  
G01 X-0.1454 Y2.5407  
G01 X-0.1419 Y2.5475  
G01 X-0.1374 Y2.5538  
G01 X-0.1319 Y2.5592  
G01 X-0.1257 Y2.5638  
G01 X-0.1220 Y2.5656  
G01 X-0.1220 Y2.8210  
G01 X-0.1278 Y2.8240  
G01 X-0.1349 Y2.8291  
G01 X-0.1411 Y2.8354  
G01 X-0.1463 Y2.8425  
G01 X-0.1503 Y2.8504  
G01 X-0.1530 Y2.8587  
G01 X-0.1544 Y2.8674  
G01 X-0.1544 Y2.9763  
G01 X-0.1530 Y2.9850  
G01 X-0.1503 Y2.9933  
G01 X-0.1463 Y3.0012  
G01 X-0.1411 Y3.0083  
G01 X-0.1349 Y3.0146  
G01 X-0.1322 Y3.0165  
G01 X-0.2052 Y3.0530  
G01 X-1.0924 Y3.0530  
G01 X-1.4065 Y2.8047  
G01 X-1.4001 Y2.8047  
G01 X-1.3979 Y2.8038  
G01 X-1.3962 Y2.8021  
G01 X-1.3953 Y2.7999  
G01 X-1.3953 Y2.7501  
G01 X-1.3962 Y2.7479  
G01 X-1.3979 Y2.7462  
G01 X-1.4001 Y2.7453  
G01 X-1.4499 Y2.7453  
G01 X-1.4521 Y2.7462  
G01 X-1.4538 Y2.7479  
G01 X-1.4547 Y2.7501  
G01 X-1.4547 Y2.7639  
G01 X-1.8280 Y2.4154  
G01 X-1.8280 Y0.9561  
G01 X-1.7575 Y0.8386  
G01 X-1.7574 Y0.8385  
G01 X-1.7560 Y0.8362  
G01 X-1.7546 Y0.8338  
G01 X-1.7546 Y0.8337  
G01 X-1.7545 Y0.8335  
G01 X-1.7538 Y0.8309  
G01 X-1.7531 Y0.8283  
G01 X-1.7530 Y0.8281  
G01 X-1.7530 Y0.8279  
G01 X-1.7530 Y0.8252  
G01 X-1.7530 Y0.8225  
G01 X-1.7530 Y0.8223  
G01 X-1.7530 Y0.1323  
G01 X-1.6890 Y0.0470  
G01 X-1.5802 Y0.0470  
G01 X-1.5470 Y0.0636  
G01 X-1.5470 Y0.0862  
G01 X-1.5680 Y0.1072  
G01 X-1.5680 Y0.1428  
G01 X-1.5470 Y0.1638  
G01 X-1.5470 Y0.1862  
G01 X-1.5680 Y0.2072  
G01 X-1.5680 Y0.2428  
G01 X-1.5428 Y0.2680  
G01 X-1.5072 Y0.2680  
G01 X-1.4862 Y0.2470  
G01 X-1.4638 Y0.2470  
G01 X-1.4428 Y0.2680  
G01 X-1.4143 Y0.2680  
G01 X-1.3995 Y0.4464  
G01 X-1.4041 Y0.4511  
G01 X-1.4082 Y0.4572  
G01 X-1.4111 Y0.4641  
G01 X-1.4125 Y0.4713  
G01 X-1.4125 Y0.4787  
G01 X-1.4111 Y0.4859  
G01 X-1.4082 Y0.4928  
G01 X-1.4041 Y0.4989  
G01 X-1.3989 Y0.5041  
G01 X-1.3928 Y0.5082  
G01 X-1.3859 Y0.5111  
G01 X-1.3787 Y0.5125  
G01 X-1.3713 Y0.5125  
G01 X-1.3641 Y0.5111  
G01 X-1.3572 Y0.5082  
G01 X-1.3511 Y0.5041  
G01 X-1.3459 Y0.4989  
G01 X-1.3446 Y0.4970  
G01 X-1.2060 Y0.4970  
G01 X-1.1905 Y0.5125  
G01 X-1.1595 Y0.5125  
G01 X-1.1375 Y0.4905  
G01 X-1.1375 Y0.4595  
G01 X-1.1595 Y0.4375  
G01 X-1.1905 Y0.4375  
G01 X-1.2060 Y0.4530  
G01 X-1.3446 Y0.4530  
G01 X-1.3459 Y0.4511  
G01 X-1.3511 Y0.4459  
G01 X-1.3556 Y0.4429  
G01 X-1.3719 Y0.2470  
G01 X-1.3638 Y0.2470  
G01 X-1.3428 Y0.2680  
G01 X-1.3072 Y0.2680  
G01 X-1.2820 Y0.2428  
G01 X-1.2820 Y0.2072  
G01 X-1.3072 Y0.1820  
G01 X-1.3428 Y0.1820  
G01 X-1.3638 Y0.2030  
G01 X-1.3756 Y0.2030  
G01 X-1.3781 Y0.1734  
G01 X-1.3782 Y0.1708  
G01 X-1.3783 Y0.1705  
G01 X-1.3783 Y0.1703  
G01 X-1.3792 Y0.1678  
G01 X-1.3800 Y0.1653  
G01 X-1.3802 Y0.1651  
G01 X-1.3803 Y0.1648  
G01 X-1.3818 Y0.1627  
G01 X-1.3832 Y0.1605  
G01 X-1.3834 Y0.1603  
G01 X-1.3836 Y0.1601  
G01 X-1.3856 Y0.1584  
G01 X-1.3876 Y0.1566  
G01 X-1.3878 Y0.1565  
G01 X-1.3880 Y0.1563  
G01 X-1.3904 Y0.1552  
G01 X-1.3928 Y0.1540  
G01 X-1.3930 Y0.1540  
G01 X-1.3931 Y0.1539  
G01 X-1.3862 Y0.1470  
G01 X-1.3638 Y0.1470  
G01 X-1.3428 Y0.1680  
G01 X-1.3072 Y0.1680  
G01 X-1.2820 Y0.1428  
G01 X-1.2820 Y0.1072  
G01 X-1.2947 Y0.0945  
G01 X-1.2828 Y0.0470  
G01 X-0.3297 Y0.0470  
G01 X-0.1204 Y0.1408  
G01 X-0.1204 Y0.2202  
G01 X-0.1278 Y0.2240  
G01 X-0.1349 Y0.2291  
G01 X-0.1411 Y0.2354  
G01 X-0.1463 Y0.2425  
G01 X-0.1503 Y0.2504  
G01 X-0.1530 Y0.2587  
G01 X-0.1544 Y0.2674  
G01 X-0.1544 Y0.3763  
G01 X-0.1530 Y0.3850  
G01 X-0.1503 Y0.3933  
G01 X-0.1463 Y0.4012  
G01 X-0.1411 Y0.4083  
G01 X-0.1349 Y0.4146  
G01 X-0.1278 Y0.4197  
G01 X-0.1199 Y0.4237  
G01 X-0.1115 Y0.4265  
G01 X-0.1028 Y0.4279  
G01 X-0.0940 Y0.4279  
G01 X-0.0853 Y0.4265  
G01 X-0.0769 Y0.4237  
G01 X-0.0691 Y0.4197  
G01 X-0.0619 Y0.4146  
G01 X-0.0557 Y0.4083  
G01 X-0.0505 Y0.4012  
G01 X-0.0465 Y0.3933  
G01 X-0.0438 Y0.3850  
G01 X-0.0424 Y0.3763  
G01 X-0.0424 Y0.2674  
G01 X-0.0438 Y0.2587  
G01 X-0.0465 Y0.2504  
G01 X-0.0505 Y0.2425  
G01 X-0.0557 Y0.2354  
G01 X-0.0619 Y0.2291  
G01 X-0.0691 Y0.2240  
G01 X-0.0764 Y0.2202  
G01 X-0.0764 Y0.1283  
G01 X-0.0762 Y0.1272  
G01 X-0.0764 Y0.1255  
G01 X-0.0764 Y0.1237  
G01 X-0.0767 Y0.1226  
G01 X-0.0768 Y0.1214  
G01 X-0.0775 Y0.1198  
G01 X-0.0779 Y0.1181  
G01 X-0.0785 Y0.1171  
G01 X-0.0789 Y0.1160  
G01 X-0.0799 Y0.1146  
G01 X-0.0808 Y0.1131  
G01 X-0.0816 Y0.1123  
G01 X-0.0823 Y0.1113  
G00 Z0.0500  
G00 X-0.4255 Y0.1127  
G01 Z-0.0040 F10    
G01 X-0.4269 Y0.1040  F20    
G01 X-0.4296 Y0.0956  
G01 X-0.4336 Y0.0878  
G01 X-0.4388 Y0.0806  
G01 X-0.4450 Y0.0744  
G01 X-0.4521 Y0.0692  
G01 X-0.4600 Y0.0652  
G01 X-0.4684 Y0.0625  
G01 X-0.4771 Y0.0611  
G01 X-0.5859 Y0.0611  
G01 X-0.5946 Y0.0625  
G01 X-0.6030 Y0.0652  
G01 X-0.6108 Y0.0692  
G01 X-0.6180 Y0.0744  
G01 X-0.6242 Y0.0806  
G01 X-0.6294 Y0.0878  
G01 X-0.6334 Y0.0956  
G01 X-0.6361 Y0.1040  
G01 X-0.6375 Y0.1127  
G01 X-0.6375 Y0.1215  
G01 X-0.6361 Y0.1302  
G01 X-0.6334 Y0.1386  
G01 X-0.6294 Y0.1465  
G01 X-0.6242 Y0.1536  
G01 X-0.6180 Y0.1598  
G01 X-0.6108 Y0.1650  
G01 X-0.6030 Y0.1690  
G01 X-0.5946 Y0.1717  
G01 X-0.5859 Y0.1731  
G01 X-0.4771 Y0.1731  
G01 X-0.4684 Y0.1717  
G01 X-0.4600 Y0.1690  
G01 X-0.4521 Y0.1650  
G01 X-0.4450 Y0.1598  
G01 X-0.4388 Y0.1536  
G01 X-0.4336 Y0.1465  
G01 X-0.4296 Y0.1386  
G01 X-0.4269 Y0.1302  
G01 X-0.4255 Y0.1215  
G01 X-0.4255 Y0.1127  
G00 Z0.0500  
G00 X-0.5754 Y0.2354  
G01 Z-0.0040 F10    
G01 X-0.5816 Y0.2291  F20    
G01 X-0.5888 Y0.2240  
G01 X-0.5966 Y0.2200  
G01 X-0.6050 Y0.2172  
G01 X-0.6137 Y0.2159  
G01 X-0.6225 Y0.2159  
G01 X-0.6312 Y0.2172  
G01 X-0.6396 Y0.2200  
G01 X-0.6475 Y0.2240  
G01 X-0.6546 Y0.2291  
G01 X-0.6608 Y0.2354  
G01 X-0.6660 Y0.2425  
G01 X-0.6700 Y0.2504  
G01 X-0.6727 Y0.2587  
G01 X-0.6741 Y0.2674  
G01 X-0.6741 Y0.3467  
G01 X-0.7625 Y0.4352  
G01 X-0.7806 Y0.4429  
G01 X-0.7822 Y0.4418  
G01 X-0.7891 Y0.4389  
G01 X-0.7963 Y0.4375  
G01 X-0.8037 Y0.4375  
G01 X-0.8109 Y0.4389  
G01 X-0.8178 Y0.4418  
G01 X-0.8239 Y0.4459  
G01 X-0.8291 Y0.4511  
G01 X-0.8332 Y0.4572  
G01 X-0.8361 Y0.4641  
G01 X-0.8375 Y0.4713  
G01 X-0.8375 Y0.4787  
G01 X-0.8361 Y0.4859  
G01 X-0.8332 Y0.4928  
G01 X-0.8291 Y0.4989  
G01 X-0.8239 Y0.5041  
G01 X-0.8178 Y0.5082  
G01 X-0.8109 Y0.5111  
G01 X-0.8037 Y0.5125  
G01 X-0.7963 Y0.5125  
G01 X-0.7891 Y0.5111  
G01 X-0.7822 Y0.5082  
G01 X-0.7761 Y0.5041  
G01 X-0.7709 Y0.4989  
G01 X-0.7668 Y0.4928  
G01 X-0.7639 Y0.4859  
G01 X-0.7634 Y0.4834  
G01 X-0.7428 Y0.4746  
G01 X-0.7415 Y0.4742  
G01 X-0.7402 Y0.4735  
G01 X-0.7387 Y0.4729  
G01 X-0.7377 Y0.4720  
G01 X-0.7365 Y0.4713  
G01 X-0.7354 Y0.4702  
G01 X-0.7342 Y0.4693  
G01 X-0.7334 Y0.4682  
G01 X-0.6661 Y0.4010  
G01 X-0.6660 Y0.4012  
G01 X-0.6608 Y0.4083  
G01 X-0.6546 Y0.4146  
G01 X-0.6475 Y0.4197  
G01 X-0.6396 Y0.4237  
G01 X-0.6312 Y0.4265  
G01 X-0.6225 Y0.4279  
G01 X-0.6137 Y0.4279  
G01 X-0.6050 Y0.4265  
G01 X-0.5966 Y0.4237  
G01 X-0.5888 Y0.4197  
G01 X-0.5816 Y0.4146  
G01 X-0.5754 Y0.4083  
G01 X-0.5702 Y0.4012  
G01 X-0.5662 Y0.3933  
G01 X-0.5635 Y0.3850  
G01 X-0.5621 Y0.3763  
G01 X-0.5621 Y0.2674  
G01 X-0.5635 Y0.2587  
G01 X-0.5662 Y0.2504  
G01 X-0.5702 Y0.2425  
G01 X-0.5754 Y0.2354  
G00 Z0.0500  
G00 X-0.8820 Y0.2428  
G01 Z-0.0040 F10    
G01 X-0.8820 Y0.2072  F20    
G01 X-0.9072 Y0.1820  
G01 X-0.9428 Y0.1820  
G01 X-0.9680 Y0.2072  
G01 X-0.9680 Y0.2428  
G01 X-0.9428 Y0.2680  
G01 X-0.9072 Y0.2680  
G01 X-0.8820 Y0.2428  
G00 Z0.0500  
G00 X-0.9072 Y0.1680  
G01 Z-0.0040 F10    
G01 X-0.8820 Y0.1428  F20    
G01 X-0.8820 Y0.1072  
G01 X-0.9072 Y0.0820  
G01 X-0.9428 Y0.0820  
G01 X-0.9680 Y0.1072  
G01 X-0.9680 Y0.1428  
G01 X-0.9428 Y0.1680  
G01 X-0.9072 Y0.1680  
G00 Z0.0500  
G00 X-1.0072 Y0.1680  
G01 Z-0.0040 F10    
G01 X-0.9820 Y0.1428  F20    
G01 X-0.9820 Y0.1072  
G01 X-1.0072 Y0.0820  
G01 X-1.0428 Y0.0820  
G01 X-1.0680 Y0.1072  
G01 X-1.0680 Y0.1428  
G01 X-1.0428 Y0.1680  
G01 X-1.0072 Y0.1680  
G00 Z0.0500  
G00 X-1.0072 Y0.1820  
G01 Z-0.0040 F10    
G01 X-1.0428 Y0.1820  F20    
G01 X-1.0680 Y0.2072  
G01 X-1.0680 Y0.2428  
G01 X-1.0428 Y0.2680  
G01 X-1.0072 Y0.2680  
G01 X-0.9820 Y0.2428  
G01 X-0.9820 Y0.2072  
G01 X-1.0072 Y0.1820  
G00 Z0.0500  
G00 X-1.0820 Y0.2072  
G01 Z-0.0040 F10    
G01 X-1.1072 Y0.1820  F20    
G01 X-1.1428 Y0.1820  
G01 X-1.1680 Y0.2072  
G01 X-1.1680 Y0.2227  
G01 X-1.2030 Y0.1760  
G01 X-1.2030 Y0.1638  
G01 X-1.1820 Y0.1428  
G01 X-1.1820 Y0.1072  
G01 X-1.2072 Y0.0820  
G01 X-1.2428 Y0.0820  
G01 X-1.2680 Y0.1072  
G01 X-1.2680 Y0.1371  
G01 X-1.2684 Y0.1376  
G01 X-1.2687 Y0.1382  
G01 X-1.2691 Y0.1387  
G01 X-1.2700 Y0.1408  
G01 X-1.2710 Y0.1428  
G01 X-1.2711 Y0.1434  
G01 X-1.2714 Y0.1440  
G01 X-1.2717 Y0.1462  
G01 X-1.2721 Y0.1484  
G01 X-1.2721 Y0.1491  
G01 X-1.2722 Y0.1498  
G01 X-1.2719 Y0.1520  
G01 X-1.2718 Y0.1542  
G01 X-1.2716 Y0.1548  
G01 X-1.2715 Y0.1555  
G01 X-1.2707 Y0.1576  
G01 X-1.2576 Y0.1968  
G01 X-1.2680 Y0.2072  
G01 X-1.2680 Y0.2428  
G01 X-1.2428 Y0.2680  
G01 X-1.2072 Y0.2680  
G01 X-1.1968 Y0.2576  
G01 X-1.1206 Y0.3592  
G01 X-1.1025 Y0.4495  
G01 X-1.1041 Y0.4511  
G01 X-1.1082 Y0.4572  
G01 X-1.1111 Y0.4641  
G01 X-1.1125 Y0.4713  
G01 X-1.1125 Y0.4787  
G01 X-1.1111 Y0.4859  
G01 X-1.1082 Y0.4928  
G01 X-1.1041 Y0.4989  
G01 X-1.0989 Y0.5041  
G01 X-1.0930 Y0.5080  
G01 X-1.0720 Y0.6764  
G01 X-1.0720 Y1.0988  
G01 X-1.0722 Y1.1004  
G01 X-1.0720 Y1.1017  
G01 X-1.0720 Y1.1029  
G01 X-1.0716 Y1.1045  
G01 X-1.0713 Y1.1062  
G01 X-1.0708 Y1.1073  
G01 X-1.0705 Y1.1085  
G01 X-1.0697 Y1.1099  
G01 X-1.0690 Y1.1115  
G01 X-1.0682 Y1.1124  
G01 X-1.0676 Y1.1135  
G01 X-1.0664 Y1.1147  
G01 X-0.9720 Y1.2327  
G01 X-0.9720 Y1.3159  
G01 X-1.0676 Y1.4115  
G01 X-1.0705 Y1.4165  
G01 X-1.0720 Y1.4221  
G01 X-1.0720 Y1.8473  
G01 X-1.0720 Y1.8475  
G01 X-1.0720 Y1.8502  
G01 X-1.0720 Y1.8529  
G01 X-1.0720 Y1.8531  
G01 X-1.0719 Y1.8533  
G01 X-1.0712 Y1.8559  
G01 X-1.0705 Y1.8585  
G01 X-1.0704 Y1.8587  
G01 X-1.0704 Y1.8588  
G01 X-1.0690 Y1.8612  
G01 X-1.0676 Y1.8635  
G01 X-1.0675 Y1.8636  
G01 X-1.0674 Y1.8638  
G01 X-1.0654 Y1.8657  
G01 X-1.0635 Y1.8676  
G01 X-1.0633 Y1.8677  
G01 X-1.0632 Y1.8678  
G01 X-1.0608 Y1.8691  
G01 X-1.0585 Y1.8705  
G01 X-1.0583 Y1.8705  
G01 X-1.0581 Y1.8706  
G01 X-1.0555 Y1.8713  
G01 X-1.0529 Y1.8720  
G01 X-1.0527 Y1.8720  
G01 X-1.0069 Y1.8834  
G01 X-1.0068 Y1.8843  
G01 X-1.0044 Y1.8902  
G01 X-1.0009 Y1.8954  
G01 X-0.9964 Y1.8999  
G01 X-0.9912 Y1.9034  
G01 X-0.9853 Y1.9058  
G01 X-0.9792 Y1.9070  
G01 X-0.9208 Y1.9070  
G01 X-0.9163 Y1.9061  
G01 X-0.8644 Y1.9191  
G01 X-0.7820 Y2.0633  
G01 X-0.7820 Y2.0883  
G01 X-0.7633 Y2.1070  
G01 X-0.7367 Y2.1070  
G01 X-0.7180 Y2.0883  
G01 X-0.7180 Y2.0617  
G01 X-0.7367 Y2.0430  
G01 X-0.7429 Y2.0430  
G01 X-0.8296 Y1.8914  
G01 X-0.8296 Y1.8912  
G01 X-0.8310 Y1.8889  
G01 X-0.8323 Y1.8866  
G01 X-0.8325 Y1.8864  
G01 X-0.8326 Y1.8862  
G01 X-0.8345 Y1.8843  
G01 X-0.8364 Y1.8825  
G01 X-0.8366 Y1.8823  
G01 X-0.8368 Y1.8822  
G01 X-0.8391 Y1.8809  
G01 X-0.8414 Y1.8795  
G01 X-0.8416 Y1.8795  
G01 X-0.8419 Y1.8794  
G01 X-0.8444 Y1.8787  
G01 X-0.8470 Y1.8780  
G01 X-0.8472 Y1.8780  
G01 X-0.8931 Y1.8666  
G01 X-0.8932 Y1.8657  
G01 X-0.8956 Y1.8598  
G01 X-0.8991 Y1.8546  
G01 X-0.9036 Y1.8501  
G01 X-0.9088 Y1.8466  
G01 X-0.9147 Y1.8442  
G01 X-0.9208 Y1.8430  
G01 X-0.9792 Y1.8430  
G01 X-0.9837 Y1.8439  
G01 X-1.0280 Y1.8328  
G01 X-1.0280 Y1.4341  
G01 X-0.9365 Y1.3426  
G01 X-0.9324 Y1.3385  
G01 X-0.9295 Y1.3335  
G01 X-0.9280 Y1.3279  
G01 X-0.9280 Y1.2262  
G01 X-0.9278 Y1.2246  
G01 X-0.9280 Y1.2233  
G01 X-0.9280 Y1.2221  
G01 X-0.9284 Y1.2205  
G01 X-0.9287 Y1.2188  
G01 X-0.9292 Y1.2177  
G01 X-0.9295 Y1.2165  
G01 X-0.9303 Y1.2151  
G01 X-0.9310 Y1.2135  
G01 X-0.9318 Y1.2126  
G01 X-0.9324 Y1.2115  
G01 X-0.9336 Y1.2103  
G01 X-1.0280 Y1.0923  
G01 X-1.0280 Y0.6765  
G01 X-1.0278 Y0.6751  
G01 X-1.0280 Y0.6736  
G01 X-1.0280 Y0.6721  
G01 X-1.0284 Y0.6708  
G01 X-1.0494 Y0.5024  
G01 X-1.0459 Y0.4989  
G01 X-1.0418 Y0.4928  
G01 X-1.0389 Y0.4859  
G01 X-1.0375 Y0.4787  
G01 X-1.0375 Y0.4713  
G01 X-1.0389 Y0.4641  
G01 X-1.0418 Y0.4572  
G01 X-1.0459 Y0.4511  
G01 X-1.0511 Y0.4459  
G01 X-1.0572 Y0.4418  
G01 X-1.0594 Y0.4409  
G01 X-1.0783 Y0.3465  
G01 X-1.0785 Y0.3445  
G01 X-1.0788 Y0.3437  
G01 X-1.0790 Y0.3428  
G01 X-1.0799 Y0.3410  
G01 X-1.0807 Y0.3391  
G01 X-1.0812 Y0.3384  
G01 X-1.0816 Y0.3377  
G01 X-1.0829 Y0.3361  
G01 X-1.1340 Y0.2680  
G01 X-1.1072 Y0.2680  
G01 X-1.0820 Y0.2428  
G01 X-1.0820 Y0.2072  
G00 Z0.0500  
G00 X-1.1072 Y0.1680  
G01 Z-0.0040 F10    
G01 X-1.0820 Y0.1428  F20    
G01 X-1.0820 Y0.1072  
G01 X-1.1072 Y0.0820  
G01 X-1.1428 Y0.0820  
G01 X-1.1680 Y0.1072  
G01 X-1.1680 Y0.1428  
G01 X-1.1428 Y0.1680  
G01 X-1.1072 Y0.1680  
G00 Z0.0500  
G00 X-1.4211 Y0.1680  
G01 Z-0.0040 F10    
G01 X-1.4281 Y0.1820  F20    
G01 X-1.4428 Y0.1820  
G01 X-1.4638 Y0.2030  
G01 X-1.4862 Y0.2030  
G01 X-1.5030 Y0.1862  
G01 X-1.5030 Y0.1638  
G01 X-1.4862 Y0.1470  
G01 X-1.4638 Y0.1470  
G01 X-1.4428 Y0.1680  
G01 X-1.4211 Y0.1680  
G00 Z0.0500  
G00 X-1.6030 Y0.1638  
G01 Z-0.0040 F10    
G01 X-1.5820 Y0.1428  F20    
G01 X-1.5820 Y0.1072  
G01 X-1.6072 Y0.0820  
G01 X-1.6428 Y0.0820  
G01 X-1.6680 Y0.1072  
G01 X-1.6680 Y0.1428  
G01 X-1.6470 Y0.1638  
G01 X-1.6470 Y0.1862  
G01 X-1.6680 Y0.2072  
G01 X-1.6680 Y0.2428  
G01 X-1.6617 Y0.2491  
G01 X-1.6694 Y0.2646  
G01 X-1.6705 Y0.2665  
G01 X-1.6707 Y0.2672  
G01 X-1.6710 Y0.2678  
G01 X-1.6714 Y0.2699  
G01 X-1.6720 Y0.2721  
G01 X-1.6720 Y0.2728  
G01 X-1.6721 Y0.2734  
G01 X-1.6720 Y0.2757  
G01 X-1.6720 Y0.2779  
G01 X-1.6718 Y0.2785  
G01 X-1.6718 Y0.2792  
G01 X-1.6711 Y0.2813  
G01 X-1.6705 Y0.2835  
G01 X-1.6702 Y0.2841  
G01 X-1.6700 Y0.2847  
G01 X-1.6687 Y0.2866  
G01 X-1.6676 Y0.2885  
G01 X-1.6671 Y0.2890  
G01 X-1.6668 Y0.2895  
G01 X-1.6651 Y0.2910  
G01 X-1.5421 Y0.4140  
G01 X-1.5121 Y0.4590  
G01 X-1.5125 Y0.4595  
G01 X-1.5125 Y0.4905  
G01 X-1.4905 Y0.5125  
G01 X-1.4899 Y0.5125  
G01 X-1.4720 Y0.6022  
G01 X-1.4720 Y0.6029  
G01 X-1.4714 Y0.6050  
G01 X-1.4710 Y0.6072  
G01 X-1.4707 Y0.6078  
G01 X-1.4705 Y0.6085  
G01 X-1.4694 Y0.6104  
G01 X-1.4684 Y0.6123  
G01 X-1.4680 Y0.6129  
G01 X-1.4676 Y0.6135  
G01 X-1.4661 Y0.6151  
G01 X-1.4646 Y0.6167  
G01 X-1.4640 Y0.6171  
G01 X-1.4635 Y0.6176  
G01 X-1.4616 Y0.6187  
G01 X-1.4598 Y0.6199  
G01 X-1.4591 Y0.6201  
G01 X-1.4585 Y0.6205  
G01 X-1.4564 Y0.6211  
G01 X-1.4543 Y0.6218  
G01 X-1.4536 Y0.6218  
G01 X-1.4529 Y0.6220  
G01 X-1.4507 Y0.6220  
G01 X-1.4485 Y0.6221  
G01 X-1.4478 Y0.6220  
G01 X-1.1956 Y0.6220  
G01 X-1.1720 Y0.9757  
G01 X-1.1720 Y1.0659  
G01 X-1.2635 Y1.1574  
G01 X-1.2676 Y1.1615  
G01 X-1.2705 Y1.1665  
G01 X-1.2720 Y1.1721  
G01 X-1.2720 Y1.3779  
G01 X-1.2705 Y1.3835  
G01 X-1.2676 Y1.3885  
G01 X-1.1720 Y1.4841  
G01 X-1.1720 Y1.8364  
G01 X-1.2022 Y1.8515  
G01 X-1.2036 Y1.8501  
G01 X-1.2088 Y1.8466  
G01 X-1.2147 Y1.8442  
G01 X-1.2208 Y1.8430  
G01 X-1.2792 Y1.8430  
G01 X-1.2853 Y1.8442  
G01 X-1.2912 Y1.8466  
G01 X-1.2964 Y1.8501  
G01 X-1.2993 Y1.8530  
G01 X-1.3409 Y1.8530  
G01 X-1.3680 Y1.8259  
G01 X-1.3680 Y1.8117  
G01 X-1.3867 Y1.7930  
G01 X-1.4133 Y1.7930  
G01 X-1.4320 Y1.8117  
G01 X-1.4320 Y1.8383  
G01 X-1.4133 Y1.8570  
G01 X-1.3991 Y1.8570  
G01 X-1.3635 Y1.8926  
G01 X-1.3585 Y1.8955  
G01 X-1.3529 Y1.8970  
G01 X-1.2993 Y1.8970  
G01 X-1.2964 Y1.8999  
G01 X-1.2912 Y1.9034  
G01 X-1.2853 Y1.9058  
G01 X-1.2792 Y1.9070  
G01 X-1.2208 Y1.9070  
G01 X-1.2147 Y1.9058  
G01 X-1.2088 Y1.9034  
G01 X-1.2036 Y1.8999  
G01 X-1.2007 Y1.8970  
G01 X-1.1984 Y1.8971  
G01 X-1.1978 Y1.8970  
G01 X-1.1971 Y1.8970  
G01 X-1.1949 Y1.8964  
G01 X-1.1928 Y1.8960  
G01 X-1.1922 Y1.8957  
G01 X-1.1915 Y1.8955  
G01 X-1.1896 Y1.8944  
G01 X-1.1422 Y1.8707  
G01 X-1.1415 Y1.8705  
G01 X-1.1396 Y1.8694  
G01 X-1.1376 Y1.8684  
G01 X-1.1371 Y1.8679  
G01 X-1.1365 Y1.8676  
G01 X-1.1349 Y1.8660  
G01 X-1.1332 Y1.8645  
G01 X-1.1329 Y1.8640  
G01 X-1.1324 Y1.8635  
G01 X-1.1313 Y1.8616  
G01 X-1.1300 Y1.8597  
G01 X-1.1298 Y1.8591  
G01 X-1.1295 Y1.8585  
G01 X-1.1289 Y1.8563  
G01 X-1.1282 Y1.8542  
G01 X-1.1282 Y1.8535  
G01 X-1.1280 Y1.8529  
G01 X-1.1280 Y1.8507  
G01 X-1.1279 Y1.8484  
G01 X-1.1280 Y1.8478  
G01 X-1.1280 Y1.4721  
G01 X-1.1295 Y1.4665  
G01 X-1.1324 Y1.4615  
G01 X-1.1365 Y1.4574  
G01 X-1.2280 Y1.3659  
G01 X-1.2280 Y1.1841  
G01 X-1.1324 Y1.0885  
G01 X-1.1295 Y1.0835  
G01 X-1.1280 Y1.0779  
G01 X-1.1280 Y0.9772  
G01 X-1.1279 Y0.9764  
G01 X-1.1280 Y0.9743  
G01 X-1.1280 Y0.9721  
G01 X-1.1282 Y0.9714  
G01 X-1.1530 Y0.5993  
G01 X-1.1530 Y0.5971  
G01 X-1.1532 Y0.5964  
G01 X-1.1532 Y0.5956  
G01 X-1.1539 Y0.5936  
G01 X-1.1545 Y0.5915  
G01 X-1.1549 Y0.5909  
G01 X-1.1551 Y0.5902  
G01 X-1.1563 Y0.5884  
G01 X-1.1574 Y0.5865  
G01 X-1.1579 Y0.5860  
G01 X-1.1583 Y0.5854  
G01 X-1.1600 Y0.5839  
G01 X-1.1615 Y0.5824  
G01 X-1.1621 Y0.5820  
G01 X-1.1627 Y0.5815  
G01 X-1.1646 Y0.5806  
G01 X-1.1665 Y0.5795  
G01 X-1.1672 Y0.5793  
G01 X-1.1679 Y0.5790  
G01 X-1.1700 Y0.5786  
G01 X-1.1721 Y0.5780  
G01 X-1.1728 Y0.5780  
G01 X-1.1736 Y0.5779  
G01 X-1.1757 Y0.5780  
G01 X-1.4320 Y0.5780  
G01 X-1.4475 Y0.5005  
G01 X-1.4375 Y0.4905  
G01 X-1.4375 Y0.4595  
G01 X-1.4595 Y0.4375  
G01 X-1.4736 Y0.4375  
G01 X-1.5063 Y0.3884  
G01 X-1.5074 Y0.3865  
G01 X-1.5079 Y0.3860  
G01 X-1.5083 Y0.3854  
G01 X-1.5099 Y0.3839  
G01 X-1.6232 Y0.2707  
G01 X-1.6219 Y0.2680  
G01 X-1.6072 Y0.2680  
G01 X-1.5820 Y0.2428  
G01 X-1.5820 Y0.2072  
G01 X-1.6030 Y0.1862  
G01 X-1.6030 Y0.1638  
G00 Z0.0500  
G00 X-1.2771 Y0.6712  
G01 Z-0.0040 F10    
G01 X-1.2788 Y0.6729  F20    
G01 X-1.2797 Y0.6751  
G01 X-1.2797 Y0.6917  
G01 X-1.7834 Y0.9795  
G01 X-1.7860 Y0.9809  
G01 X-1.7884 Y0.9823  
G01 X-1.7905 Y0.9844  
G01 X-1.7925 Y0.9864  
G01 X-1.7940 Y0.9890  
G01 X-1.7955 Y0.9914  
G01 X-1.7962 Y0.9943  
G01 X-1.7970 Y0.9970  
G01 X-1.7970 Y1.0000  
G01 X-1.7970 Y1.0028  
G01 X-1.7970 Y2.3976  
G01 X-1.7971 Y2.3981  
G01 X-1.7970 Y2.4005  
G01 X-1.7970 Y2.4029  
G01 X-1.7969 Y2.4034  
G01 X-1.7969 Y2.4038  
G01 X-1.7961 Y2.4062  
G01 X-1.7955 Y2.4085  
G01 X-1.7953 Y2.4089  
G01 X-1.7951 Y2.4094  
G01 X-1.7938 Y2.4114  
G01 X-1.7926 Y2.4135  
G01 X-1.7923 Y2.4139  
G01 X-1.7920 Y2.4143  
G01 X-1.7902 Y2.4159  
G01 X-1.7885 Y2.4176  
G01 X-1.7881 Y2.4178  
G01 X-1.4902 Y2.6909  
G01 X-1.4885 Y2.6926  
G01 X-1.4881 Y2.6928  
G01 X-1.4877 Y2.6932  
G01 X-1.4856 Y2.6943  
G01 X-1.4835 Y2.6955  
G01 X-1.4830 Y2.6956  
G01 X-1.4826 Y2.6959  
G01 X-1.4802 Y2.6964  
G01 X-1.4779 Y2.6970  
G01 X-1.4774 Y2.6970  
G01 X-1.4769 Y2.6971  
G01 X-1.4745 Y2.6970  
G01 X-1.2517 Y2.6970  
G01 X-1.2504 Y2.6972  
G01 X-1.2488 Y2.6970  
G01 X-1.2471 Y2.6970  
G01 X-1.2459 Y2.6967  
G01 X-1.2447 Y2.6965  
G01 X-1.2431 Y2.6959  
G01 X-1.2415 Y2.6955  
G01 X-1.2404 Y2.6949  
G01 X-1.2393 Y2.6944  
G01 X-1.2379 Y2.6934  
G01 X-1.2365 Y2.6926  
G01 X-1.2356 Y2.6917  
G01 X-1.2346 Y2.6910  
G01 X-1.2336 Y2.6897  
G01 X-1.2324 Y2.6885  
G01 X-1.2318 Y2.6874  
G01 X-1.1336 Y2.5647  
G01 X-1.1324 Y2.5635  
G01 X-1.1318 Y2.5624  
G01 X-1.1310 Y2.5615  
G01 X-1.1303 Y2.5599  
G01 X-1.1295 Y2.5585  
G01 X-1.1292 Y2.5573  
G01 X-1.1287 Y2.5562  
G01 X-1.1284 Y2.5545  
G01 X-1.1280 Y2.5529  
G01 X-1.1280 Y2.5517  
G01 X-1.1278 Y2.5504  
G01 X-1.1280 Y2.5488  
G01 X-1.1280 Y2.2221  
G01 X-1.1295 Y2.2165  
G01 X-1.1324 Y2.2115  
G01 X-1.1365 Y2.2074  
G01 X-1.1824 Y2.1615  
G01 X-1.1865 Y2.1574  
G01 X-1.1915 Y2.1545  
G01 X-1.1971 Y2.1530  
G01 X-1.2007 Y2.1530  
G01 X-1.2036 Y2.1501  
G01 X-1.2088 Y2.1466  
G01 X-1.2147 Y2.1442  
G01 X-1.2208 Y2.1430  
G01 X-1.2792 Y2.1430  
G01 X-1.2853 Y2.1442  
G01 X-1.2912 Y2.1466  
G01 X-1.2964 Y2.1501  
G01 X-1.3009 Y2.1546  
G01 X-1.3044 Y2.1598  
G01 X-1.3068 Y2.1657  
G01 X-1.3080 Y2.1718  
G01 X-1.3080 Y2.1782  
G01 X-1.3068 Y2.1843  
G01 X-1.3044 Y2.1902  
G01 X-1.3009 Y2.1954  
G01 X-1.2964 Y2.1999  
G01 X-1.2912 Y2.2034  
G01 X-1.2853 Y2.2058  
G01 X-1.2792 Y2.2070  
G01 X-1.2720 Y2.2070  
G01 X-1.2720 Y2.3144  
G01 X-1.3874 Y2.4068  
G01 X-1.3885 Y2.4074  
G01 X-1.3897 Y2.4086  
G01 X-1.3910 Y2.4096  
G01 X-1.3917 Y2.4106  
G01 X-1.3991 Y2.4180  
G01 X-1.4133 Y2.4180  
G01 X-1.4320 Y2.4367  
G01 X-1.4320 Y2.4633  
G01 X-1.4133 Y2.4820  
G01 X-1.3867 Y2.4820  
G01 X-1.3680 Y2.4633  
G01 X-1.3680 Y2.4491  
G01 X-1.3603 Y2.4414  
G01 X-1.2376 Y2.3432  
G01 X-1.2365 Y2.3426  
G01 X-1.2353 Y2.3414  
G01 X-1.2340 Y2.3404  
G01 X-1.2333 Y2.3394  
G01 X-1.2324 Y2.3385  
G01 X-1.2316 Y2.3371  
G01 X-1.2306 Y2.3357  
G01 X-1.2301 Y2.3346  
G01 X-1.2295 Y2.3335  
G01 X-1.2291 Y2.3319  
G01 X-1.2285 Y2.3303  
G01 X-1.2283 Y2.3291  
G01 X-1.2280 Y2.3279  
G01 X-1.2280 Y2.3262  
G01 X-1.2278 Y2.3246  
G01 X-1.2280 Y2.3233  
G01 X-1.2280 Y2.2070  
G01 X-1.2208 Y2.2070  
G01 X-1.2147 Y2.2058  
G01 X-1.2088 Y2.2034  
G01 X-1.2052 Y2.2009  
G01 X-1.1720 Y2.2341  
G01 X-1.1720 Y2.5423  
G01 X-1.2606 Y2.6530  
G01 X-1.4664 Y2.6530  
G01 X-1.7530 Y2.3903  
G01 X-1.7530 Y1.0128  
G01 X-1.2577 Y0.7297  
G01 X-1.2251 Y0.7297  
G01 X-1.2229 Y0.7288  
G01 X-1.2212 Y0.7271  
G01 X-1.2203 Y0.7249  
G01 X-1.2203 Y0.6751  
G01 X-1.2212 Y0.6729  
G01 X-1.2229 Y0.6712  
G01 X-1.2251 Y0.6703  
G01 X-1.2749 Y0.6703  
G01 X-1.2771 Y0.6712  
G00 Z0.0500  
G00 X-1.2771 Y0.7712  
G01 Z-0.0040 F10    
G01 X-1.2788 Y0.7729  F20    
G01 X-1.2797 Y0.7751  
G01 X-1.2797 Y0.7934  
G01 X-1.4851 Y0.9303  
G01 X-1.4854 Y0.9304  
G01 X-1.4875 Y0.9319  
G01 X-1.4896 Y0.9333  
G01 X-1.4899 Y0.9336  
G01 X-1.6614 Y1.0561  
G01 X-1.6624 Y1.0566  
G01 X-1.6637 Y1.0578  
G01 X-1.6651 Y1.0588  
G01 X-1.6659 Y1.0597  
G01 X-1.6668 Y1.0605  
G01 X-1.6677 Y1.0619  
G01 X-1.6688 Y1.0633  
G01 X-1.6693 Y1.0643  
G01 X-1.6700 Y1.0653  
G01 X-1.6705 Y1.0669  
G01 X-1.6712 Y1.0685  
G01 X-1.6714 Y1.0697  
G01 X-1.7202 Y1.2159  
G01 X-1.7205 Y1.2165  
G01 X-1.7211 Y1.2187  
G01 X-1.7218 Y1.2208  
G01 X-1.7218 Y1.2215  
G01 X-1.7220 Y1.2221  
G01 X-1.7220 Y1.2243  
G01 X-1.7221 Y1.2266  
G01 X-1.7220 Y1.2272  
G01 X-1.7220 Y1.8779  
G01 X-1.7205 Y1.8835  
G01 X-1.7176 Y1.8885  
G01 X-1.7135 Y1.8926  
G01 X-1.7085 Y1.8955  
G01 X-1.7029 Y1.8970  
G01 X-1.5971 Y1.8970  
G01 X-1.5915 Y1.8955  
G01 X-1.5865 Y1.8926  
G01 X-1.5824 Y1.8885  
G01 X-1.5364 Y1.8425  
G01 X-1.5362 Y1.8424  
G01 X-1.5343 Y1.8404  
G01 X-1.5324 Y1.8385  
G01 X-1.5323 Y1.8383  
G01 X-1.5322 Y1.8382  
G01 X-1.5309 Y1.8358  
G01 X-1.5295 Y1.8335  
G01 X-1.5295 Y1.8333  
G01 X-1.5294 Y1.8331  
G01 X-1.5287 Y1.8305  
G01 X-1.5280 Y1.8279  
G01 X-1.5280 Y1.8277  
G01 X-1.5046 Y1.7340  
G01 X-1.4632 Y1.6720  
G01 X-1.3786 Y1.6720  
G01 X-1.3091 Y1.6952  
G01 X-1.3085 Y1.6955  
G01 X-1.3063 Y1.6961  
G01 X-1.3042 Y1.6968  
G01 X-1.3035 Y1.6968  
G01 X-1.3029 Y1.6970  
G01 X-1.3007 Y1.6970  
G01 X-1.2992 Y1.6971  
G01 X-1.2964 Y1.6999  
G01 X-1.2912 Y1.7034  
G01 X-1.2853 Y1.7058  
G01 X-1.2792 Y1.7070  
G01 X-1.2208 Y1.7070  
G01 X-1.2147 Y1.7058  
G01 X-1.2088 Y1.7034  
G01 X-1.2036 Y1.6999  
G01 X-1.1991 Y1.6954  
G01 X-1.1956 Y1.6902  
G01 X-1.1932 Y1.6843  
G01 X-1.1920 Y1.6782  
G01 X-1.1920 Y1.6718  
G01 X-1.1932 Y1.6657  
G01 X-1.1956 Y1.6598  
G01 X-1.1991 Y1.6546  
G01 X-1.2036 Y1.6501  
G01 X-1.2088 Y1.6466  
G01 X-1.2147 Y1.6442  
G01 X-1.2208 Y1.6430  
G01 X-1.2792 Y1.6430  
G01 X-1.2853 Y1.6442  
G01 X-1.2912 Y1.6466  
G01 X-1.2964 Y1.6501  
G01 X-1.2985 Y1.6523  
G01 X-1.3659 Y1.6298  
G01 X-1.3665 Y1.6295  
G01 X-1.3687 Y1.6289  
G01 X-1.3708 Y1.6282  
G01 X-1.3715 Y1.6282  
G01 X-1.3721 Y1.6280  
G01 X-1.3743 Y1.6280  
G01 X-1.3766 Y1.6279  
G01 X-1.3772 Y1.6280  
G01 X-1.4743 Y1.6280  
G01 X-1.4765 Y1.6279  
G01 X-1.4772 Y1.6280  
G01 X-1.4779 Y1.6280  
G01 X-1.4800 Y1.6286  
G01 X-1.4822 Y1.6290  
G01 X-1.4828 Y1.6293  
G01 X-1.4835 Y1.6295  
G01 X-1.4854 Y1.6306  
G01 X-1.4873 Y1.6316  
G01 X-1.4879 Y1.6320  
G01 X-1.4885 Y1.6324  
G01 X-1.4901 Y1.6339  
G01 X-1.4917 Y1.6354  
G01 X-1.4921 Y1.6360  
G01 X-1.4926 Y1.6365  
G01 X-1.4937 Y1.6384  
G01 X-1.5422 Y1.7111  
G01 X-1.5428 Y1.7118  
G01 X-1.5438 Y1.7135  
G01 X-1.5449 Y1.7152  
G01 X-1.5452 Y1.7161  
G01 X-1.5456 Y1.7169  
G01 X-1.5461 Y1.7188  
G01 X-1.5468 Y1.7207  
G01 X-1.5468 Y1.7216  
G01 X-1.5699 Y1.8138  
G01 X-1.6091 Y1.8530  
G01 X-1.6780 Y1.8530  
G01 X-1.6780 Y1.2286  
G01 X-1.6314 Y1.0887  
G01 X-1.4625 Y0.9681  
G01 X-1.2550 Y0.8297  
G01 X-1.2251 Y0.8297  
G01 X-1.2229 Y0.8288  
G01 X-1.2212 Y0.8271  
G01 X-1.2203 Y0.8249  
G01 X-1.2203 Y0.7751  
G01 X-1.2212 Y0.7729  
G01 X-1.2229 Y0.7712  
G01 X-1.2251 Y0.7703  
G01 X-1.2749 Y0.7703  
G01 X-1.2771 Y0.7712  
G00 Z0.0500  
G00 X-1.2771 Y0.8712  
G01 Z-0.0040 F10    
G01 X-1.2788 Y0.8729  F20    
G01 X-1.2797 Y0.8751  
G01 X-1.2797 Y0.8934  
G01 X-1.3356 Y0.9306  
G01 X-1.3365 Y0.9310  
G01 X-1.3380 Y0.9322  
G01 X-1.3396 Y0.9333  
G01 X-1.3403 Y0.9340  
G01 X-1.4624 Y1.0318  
G01 X-1.4635 Y1.0324  
G01 X-1.4647 Y1.0336  
G01 X-1.4660 Y1.0346  
G01 X-1.4667 Y1.0356  
G01 X-1.4676 Y1.0365  
G01 X-1.4684 Y1.0379  
G01 X-1.4694 Y1.0393  
G01 X-1.4699 Y1.0404  
G01 X-1.4705 Y1.0415  
G01 X-1.4709 Y1.0431  
G01 X-1.4715 Y1.0447  
G01 X-1.4717 Y1.0459  
G01 X-1.4720 Y1.0471  
G01 X-1.4720 Y1.0488  
G01 X-1.4722 Y1.0504  
G01 X-1.4720 Y1.0517  
G01 X-1.4720 Y1.1517  
G01 X-1.4820 Y1.1617  
G01 X-1.4820 Y1.1699  
G01 X-1.5167 Y1.1930  
G01 X-1.5383 Y1.1930  
G01 X-1.5570 Y1.2117  
G01 X-1.5570 Y1.2383  
G01 X-1.5383 Y1.2570  
G01 X-1.5117 Y1.2570  
G01 X-1.4930 Y1.2383  
G01 X-1.4930 Y1.2301  
G01 X-1.4583 Y1.2070  
G01 X-1.4367 Y1.2070  
G01 X-1.4180 Y1.1883  
G01 X-1.4180 Y1.1617  
G01 X-1.4280 Y1.1517  
G01 X-1.4280 Y1.0606  
G01 X-1.3120 Y0.9678  
G01 X-1.2550 Y0.9297  
G01 X-1.2251 Y0.9297  
G01 X-1.2229 Y0.9288  
G01 X-1.2212 Y0.9271  
G01 X-1.2203 Y0.9249  
G01 X-1.2203 Y0.8751  
G01 X-1.2212 Y0.8729  
G01 X-1.2229 Y0.8712  
G01 X-1.2251 Y0.8703  
G01 X-1.2749 Y0.8703  
G01 X-1.2771 Y0.8712  
G00 Z0.0500  
G00 X-1.2633 Y0.9930  
G01 Z-0.0040 F10    
G01 X-1.2820 Y1.0117  F20    
G01 X-1.2820 Y1.0259  
G01 X-1.3148 Y1.0587  
G01 X-1.3162 Y1.0599  
G01 X-1.3168 Y1.0607  
G01 X-1.3176 Y1.0615  
G01 X-1.3185 Y1.0631  
G01 X-1.3196 Y1.0646  
G01 X-1.3200 Y1.0656  
G01 X-1.3205 Y1.0665  
G01 X-1.3210 Y1.0683  
G01 X-1.3952 Y1.2662  
G01 X-1.4086 Y1.2930  
G01 X-1.4133 Y1.2930  
G01 X-1.4320 Y1.3117  
G01 X-1.4320 Y1.3383  
G01 X-1.4133 Y1.3570  
G01 X-1.3867 Y1.3570  
G01 X-1.3680 Y1.3383  
G01 X-1.3680 Y1.3117  
G01 X-1.3685 Y1.3112  
G01 X-1.3561 Y1.2864  
G01 X-1.3554 Y1.2854  
G01 X-1.3548 Y1.2838  
G01 X-1.3540 Y1.2822  
G01 X-1.3538 Y1.2811  
G01 X-1.2811 Y1.0872  
G01 X-1.2509 Y1.0570  
G01 X-1.2367 Y1.0570  
G01 X-1.2180 Y1.0383  
G01 X-1.2180 Y1.0117  
G01 X-1.2367 Y0.9930  
G01 X-1.2633 Y0.9930  
G00 Z0.0500  
G00 X-1.1633 Y1.1430  
G01 Z-0.0040 F10    
G01 X-1.1820 Y1.1617  F20    
G01 X-1.1820 Y1.1883  
G01 X-1.1633 Y1.2070  
G01 X-1.1491 Y1.2070  
G01 X-1.0820 Y1.2741  
G01 X-1.0820 Y1.2883  
G01 X-1.0633 Y1.3070  
G01 X-1.0367 Y1.3070  
G01 X-1.0180 Y1.2883  
G01 X-1.0180 Y1.2617  
G01 X-1.0367 Y1.2430  
G01 X-1.0509 Y1.2430  
G01 X-1.1180 Y1.1759  
G01 X-1.1180 Y1.1617  
G01 X-1.1367 Y1.1430  
G01 X-1.1633 Y1.1430  
G00 Z0.0500  
G00 X-0.9820 Y1.0383  
G01 Z-0.0040 F10    
G01 X-0.9633 Y1.0570  F20    
G01 X-0.9367 Y1.0570  
G01 X-0.9180 Y1.0383  
G01 X-0.9180 Y1.0117  
G01 X-0.9225 Y1.0072  
G01 X-0.8338 Y0.6745  
G01 X-0.5269 Y0.7184  
G01 X-0.5133 Y0.7320  
G01 X-0.4867 Y0.7320  
G01 X-0.4689 Y0.7141  
G01 X-0.3226 Y0.6731  
G01 X-0.1486 Y0.7343  
G01 X-0.1478 Y0.7396  
G01 X-0.1454 Y0.7470  
G01 X-0.1419 Y0.7538  
G01 X-0.1374 Y0.7601  
G01 X-0.1319 Y0.7655  
G01 X-0.1257 Y0.7701  
G01 X-0.1188 Y0.7736  
G01 X-0.1115 Y0.7759  
G01 X-0.1039 Y0.7771  
G01 X-0.0961 Y0.7771  
G01 X-0.0885 Y0.7759  
G01 X-0.0812 Y0.7736  
G01 X-0.0743 Y0.7701  
G01 X-0.0681 Y0.7655  
G01 X-0.0626 Y0.7601  
G01 X-0.0581 Y0.7538  
G01 X-0.0546 Y0.7470  
G01 X-0.0522 Y0.7396  
G01 X-0.0510 Y0.7320  
G01 X-0.0510 Y0.7243  
G01 X-0.0522 Y0.7167  
G01 X-0.0546 Y0.7093  
G01 X-0.0581 Y0.7025  
G01 X-0.0626 Y0.6962  
G01 X-0.0681 Y0.6908  
G01 X-0.0743 Y0.6862  
G01 X-0.0812 Y0.6827  
G01 X-0.0885 Y0.6804  
G01 X-0.0961 Y0.6791  
G01 X-0.1039 Y0.6791  
G01 X-0.1115 Y0.6804  
G01 X-0.1188 Y0.6827  
G01 X-0.1257 Y0.6862  
G01 X-0.1319 Y0.6908  
G01 X-0.1340 Y0.6928  
G01 X-0.3127 Y0.6299  
G01 X-0.3136 Y0.6294  
G01 X-0.3155 Y0.6289  
G01 X-0.3173 Y0.6283  
G01 X-0.3183 Y0.6282  
G01 X-0.3192 Y0.6280  
G01 X-0.3211 Y0.6280  
G01 X-0.3230 Y0.6278  
G01 X-0.3240 Y0.6280  
G01 X-0.3250 Y0.6280  
G01 X-0.3269 Y0.6286  
G01 X-0.3287 Y0.6289  
G01 X-0.3296 Y0.6293  
G01 X-0.4825 Y0.6722  
G01 X-0.4867 Y0.6680  
G01 X-0.5133 Y0.6680  
G01 X-0.5202 Y0.6749  
G01 X-0.8456 Y0.6284  
G01 X-0.8471 Y0.6280  
G01 X-0.8484 Y0.6280  
G01 X-0.8498 Y0.6278  
G01 X-0.8513 Y0.6280  
G01 X-0.8529 Y0.6280  
G01 X-0.8542 Y0.6283  
G01 X-0.8555 Y0.6285  
G01 X-0.8570 Y0.6291  
G01 X-0.8585 Y0.6295  
G01 X-0.8597 Y0.6302  
G01 X-0.8609 Y0.6307  
G01 X-0.8622 Y0.6316  
G01 X-0.8635 Y0.6324  
G01 X-0.8645 Y0.6333  
G01 X-0.8655 Y0.6341  
G01 X-0.8665 Y0.6354  
G01 X-0.8676 Y0.6365  
G01 X-0.8683 Y0.6377  
G01 X-0.8691 Y0.6387  
G01 X-0.8697 Y0.6402  
G01 X-0.8705 Y0.6415  
G01 X-0.8709 Y0.6428  
G01 X-0.8714 Y0.6440  
G01 X-0.8716 Y0.6456  
G01 X-0.9646 Y0.9943  
G01 X-0.9820 Y1.0117  
G01 X-0.9820 Y1.0383  
G00 Z0.0500  
G00 X-0.8288 Y0.9271  
G01 Z-0.0040 F10    
G01 X-0.8271 Y0.9288  F20    
G01 X-0.8249 Y0.9297  
G01 X-0.7751 Y0.9297  
G01 X-0.7729 Y0.9288  
G01 X-0.7712 Y0.9271  
G01 X-0.7703 Y0.9249  
G01 X-0.7703 Y0.9220  
G01 X-0.4341 Y0.9220  
G01 X-0.3202 Y1.0359  
G01 X-0.3198 Y1.0365  
G01 X-0.3182 Y1.0379  
G01 X-0.3167 Y1.0395  
G01 X-0.3160 Y1.0398  
G01 X-0.3155 Y1.0403  
G01 X-0.3135 Y1.0413  
G01 X-0.3116 Y1.0424  
G01 X-0.3109 Y1.0425  
G01 X-0.1490 Y1.1223  
G01 X-0.1490 Y1.1257  
G01 X-0.1478 Y1.1333  
G01 X-0.1454 Y1.1407  
G01 X-0.1419 Y1.1475  
G01 X-0.1374 Y1.1538  
G01 X-0.1319 Y1.1592  
G01 X-0.1257 Y1.1638  
G01 X-0.1188 Y1.1673  
G01 X-0.1115 Y1.1696  
G01 X-0.1039 Y1.1709  
G01 X-0.0961 Y1.1709  
G01 X-0.0885 Y1.1696  
G01 X-0.0812 Y1.1673  
G01 X-0.0743 Y1.1638  
G01 X-0.0681 Y1.1592  
G01 X-0.0626 Y1.1538  
G01 X-0.0581 Y1.1475  
G01 X-0.0546 Y1.1407  
G01 X-0.0522 Y1.1333  
G01 X-0.0510 Y1.1257  
G01 X-0.0510 Y1.1180  
G01 X-0.0522 Y1.1104  
G01 X-0.0546 Y1.1030  
G01 X-0.0581 Y1.0962  
G01 X-0.0626 Y1.0899  
G01 X-0.0681 Y1.0845  
G01 X-0.0743 Y1.0799  
G01 X-0.0812 Y1.0764  
G01 X-0.0885 Y1.0741  
G01 X-0.0961 Y1.0729  
G01 X-0.1039 Y1.0729  
G01 X-0.1115 Y1.0741  
G01 X-0.1188 Y1.0764  
G01 X-0.1257 Y1.0799  
G01 X-0.1296 Y1.0828  
G01 X-0.2902 Y1.0037  
G01 X-0.4074 Y0.8865  
G01 X-0.4115 Y0.8824  
G01 X-0.4165 Y0.8795  
G01 X-0.4221 Y0.8780  
G01 X-0.7703 Y0.8780  
G01 X-0.7703 Y0.8751  
G01 X-0.7712 Y0.8729  
G01 X-0.7729 Y0.8712  
G01 X-0.7751 Y0.8703  
G01 X-0.8249 Y0.8703  
G01 X-0.8271 Y0.8712  
G01 X-0.8288 Y0.8729  
G01 X-0.8297 Y0.8751  
G01 X-0.8297 Y0.9249  
G01 X-0.8288 Y0.9271  
G00 Z0.0500  
G00 X-0.8288 Y0.8271  
G01 Z-0.0040 F10    
G01 X-0.8271 Y0.8288  F20    
G01 X-0.8249 Y0.8297  
G01 X-0.7751 Y0.8297  
G01 X-0.7729 Y0.8288  
G01 X-0.7712 Y0.8271  
G01 X-0.7703 Y0.8249  
G01 X-0.7703 Y0.8220  
G01 X-0.4044 Y0.8220  
G01 X-0.1490 Y0.9284  
G01 X-0.1490 Y0.9289  
G01 X-0.1478 Y0.9365  
G01 X-0.1454 Y0.9438  
G01 X-0.1419 Y0.9507  
G01 X-0.1374 Y0.9569  
G01 X-0.1319 Y0.9624  
G01 X-0.1257 Y0.9669  
G01 X-0.1188 Y0.9704  
G01 X-0.1115 Y0.9728  
G01 X-0.1039 Y0.9740  
G01 X-0.0961 Y0.9740  
G01 X-0.0885 Y0.9728  
G01 X-0.0812 Y0.9704  
G01 X-0.0743 Y0.9669  
G01 X-0.0681 Y0.9624  
G01 X-0.0626 Y0.9569  
G01 X-0.0581 Y0.9507  
G01 X-0.0546 Y0.9438  
G01 X-0.0522 Y0.9365  
G01 X-0.0510 Y0.9289  
G01 X-0.0510 Y0.9211  
G01 X-0.0522 Y0.9135  
G01 X-0.0546 Y0.9062  
G01 X-0.0581 Y0.8993  
G01 X-0.0626 Y0.8931  
G01 X-0.0681 Y0.8876  
G01 X-0.0743 Y0.8831  
G01 X-0.0812 Y0.8796  
G01 X-0.0885 Y0.8772  
G01 X-0.0961 Y0.8760  
G01 X-0.1039 Y0.8760  
G01 X-0.1115 Y0.8772  
G01 X-0.1188 Y0.8796  
G01 X-0.1257 Y0.8831  
G01 X-0.1319 Y0.8876  
G01 X-0.1321 Y0.8878  
G01 X-0.3902 Y0.7802  
G01 X-0.3915 Y0.7795  
G01 X-0.3929 Y0.7791  
G01 X-0.3942 Y0.7786  
G01 X-0.3957 Y0.7784  
G01 X-0.3971 Y0.7780  
G01 X-0.3985 Y0.7780  
G01 X-0.4000 Y0.7778  
G01 X-0.4014 Y0.7780  
G01 X-0.7703 Y0.7780  
G01 X-0.7703 Y0.7751  
G01 X-0.7712 Y0.7729  
G01 X-0.7729 Y0.7712  
G01 X-0.7751 Y0.7703  
G01 X-0.8249 Y0.7703  
G01 X-0.8271 Y0.7712  
G01 X-0.8288 Y0.7729  
G01 X-0.8297 Y0.7751  
G01 X-0.8297 Y0.8249  
G01 X-0.8288 Y0.8271  
G00 Z0.0500  
G00 X-0.9229 Y0.7288  
G01 Z-0.0040 F10    
G01 X-0.9212 Y0.7271  F20    
G01 X-0.9203 Y0.7249  
G01 X-0.9203 Y0.6751  
G01 X-0.9212 Y0.6729  
G01 X-0.9229 Y0.6712  
G01 X-0.9251 Y0.6703  
G01 X-0.9280 Y0.6703  
G01 X-0.9280 Y0.5567  
G01 X-0.8986 Y0.5125  
G01 X-0.8845 Y0.5125  
G01 X-0.8625 Y0.4905  
G01 X-0.8625 Y0.4595  
G01 X-0.8845 Y0.4375  
G01 X-0.9155 Y0.4375  
G01 X-0.9375 Y0.4595  
G01 X-0.9375 Y0.4905  
G01 X-0.9371 Y0.4910  
G01 X-0.9671 Y0.5360  
G01 X-0.9676 Y0.5365  
G01 X-0.9687 Y0.5384  
G01 X-0.9699 Y0.5402  
G01 X-0.9701 Y0.5409  
G01 X-0.9705 Y0.5415  
G01 X-0.9711 Y0.5436  
G01 X-0.9718 Y0.5457  
G01 X-0.9718 Y0.5464  
G01 X-0.9720 Y0.5471  
G01 X-0.9720 Y0.5493  
G01 X-0.9721 Y0.5515  
G01 X-0.9720 Y0.5522  
G01 X-0.9720 Y0.6703  
G01 X-0.9749 Y0.6703  
G01 X-0.9771 Y0.6712  
G01 X-0.9788 Y0.6729  
G01 X-0.9797 Y0.6751  
G01 X-0.9797 Y0.7249  
G01 X-0.9788 Y0.7271  
G01 X-0.9771 Y0.7288  
G01 X-0.9749 Y0.7297  
G01 X-0.9251 Y0.7297  
G01 X-0.9229 Y0.7288  
G00 Z0.0500  
G00 X-0.8633 Y1.2430  
G01 Z-0.0040 F10    
G01 X-0.8820 Y1.2617  F20    
G01 X-0.8820 Y1.2883  
G01 X-0.8667 Y1.3035  
G01 X-0.8469 Y1.4028  
G01 X-0.8468 Y1.4042  
G01 X-0.8463 Y1.4057  
G01 X-0.8460 Y1.4072  
G01 X-0.8454 Y1.4084  
G01 X-0.8220 Y1.4786  
G01 X-0.8220 Y1.5017  
G01 X-0.8320 Y1.5117  
G01 X-0.8320 Y1.5259  
G01 X-0.8591 Y1.5530  
G01 X-0.9007 Y1.5530  
G01 X-0.9036 Y1.5501  
G01 X-0.9088 Y1.5466  
G01 X-0.9147 Y1.5442  
G01 X-0.9208 Y1.5430  
G01 X-0.9792 Y1.5430  
G01 X-0.9853 Y1.5442  
G01 X-0.9912 Y1.5466  
G01 X-0.9964 Y1.5501  
G01 X-1.0009 Y1.5546  
G01 X-1.0044 Y1.5598  
G01 X-1.0068 Y1.5657  
G01 X-1.0080 Y1.5718  
G01 X-1.0080 Y1.5782  
G01 X-1.0068 Y1.5843  
G01 X-1.0044 Y1.5902  
G01 X-1.0009 Y1.5954  
G01 X-0.9964 Y1.5999  
G01 X-0.9912 Y1.6034  
G01 X-0.9853 Y1.6058  
G01 X-0.9792 Y1.6070  
G01 X-0.9208 Y1.6070  
G01 X-0.9147 Y1.6058  
G01 X-0.9088 Y1.6034  
G01 X-0.9036 Y1.5999  
G01 X-0.9007 Y1.5970  
G01 X-0.8471 Y1.5970  
G01 X-0.8415 Y1.5955  
G01 X-0.8365 Y1.5926  
G01 X-0.8009 Y1.5570  
G01 X-0.7867 Y1.5570  
G01 X-0.7680 Y1.5383  
G01 X-0.7680 Y1.5117  
G01 X-0.7780 Y1.5017  
G01 X-0.7780 Y1.4772  
G01 X-0.7779 Y1.4766  
G01 X-0.7780 Y1.4743  
G01 X-0.7780 Y1.4721  
G01 X-0.7782 Y1.4715  
G01 X-0.7782 Y1.4708  
G01 X-0.7789 Y1.4687  
G01 X-0.7795 Y1.4665  
G01 X-0.7798 Y1.4659  
G01 X-0.8037 Y1.3943  
G01 X-0.8238 Y1.2940  
G01 X-0.8180 Y1.2883  
G01 X-0.8180 Y1.2836  
G01 X-0.7927 Y1.2709  
G01 X-0.7901 Y1.2696  
G01 X-0.7876 Y1.2684  
G01 X-0.7874 Y1.2683  
G01 X-0.7853 Y1.2664  
G01 X-0.7832 Y1.2645  
G01 X-0.5375 Y1.0433  
G01 X-0.5138 Y1.0315  
G01 X-0.5133 Y1.0320  
G01 X-0.4931 Y1.0320  
G01 X-0.3399 Y1.1414  
G01 X-0.3396 Y1.1417  
G01 X-0.3375 Y1.1431  
G01 X-0.3354 Y1.1446  
G01 X-0.3351 Y1.1447  
G01 X-0.0470 Y1.3368  
G01 X-0.0470 Y1.5177  
G01 X-0.0913 Y1.5768  
G01 X-0.0961 Y1.5760  
G01 X-0.1039 Y1.5760  
G01 X-0.1115 Y1.5772  
G01 X-0.1188 Y1.5796  
G01 X-0.1257 Y1.5831  
G01 X-0.1319 Y1.5876  
G01 X-0.1374 Y1.5931  
G01 X-0.1419 Y1.5993  
G01 X-0.1454 Y1.6062  
G01 X-0.1478 Y1.6135  
G01 X-0.1490 Y1.6211  
G01 X-0.1490 Y1.6289  
G01 X-0.1478 Y1.6365  
G01 X-0.1454 Y1.6438  
G01 X-0.1419 Y1.6507  
G01 X-0.1374 Y1.6569  
G01 X-0.1319 Y1.6624  
G01 X-0.1257 Y1.6669  
G01 X-0.1220 Y1.6688  
G01 X-0.1220 Y1.7781  
G01 X-0.1257 Y1.7799  
G01 X-0.1319 Y1.7845  
G01 X-0.1374 Y1.7899  
G01 X-0.1419 Y1.7962  
G01 X-0.1454 Y1.8030  
G01 X-0.1478 Y1.8104  
G01 X-0.1490 Y1.8180  
G01 X-0.1490 Y1.8257  
G01 X-0.1478 Y1.8333  
G01 X-0.1454 Y1.8407  
G01 X-0.1419 Y1.8475  
G01 X-0.1374 Y1.8538  
G01 X-0.1319 Y1.8592  
G01 X-0.1257 Y1.8638  
G01 X-0.1188 Y1.8673  
G01 X-0.1115 Y1.8696  
G01 X-0.1039 Y1.8709  
G01 X-0.0961 Y1.8709  
G01 X-0.0885 Y1.8696  
G01 X-0.0812 Y1.8673  
G01 X-0.0743 Y1.8638  
G01 X-0.0681 Y1.8592  
G01 X-0.0626 Y1.8538  
G01 X-0.0581 Y1.8475  
G01 X-0.0546 Y1.8407  
G01 X-0.0522 Y1.8333  
G01 X-0.0510 Y1.8257  
G01 X-0.0510 Y1.8180  
G01 X-0.0522 Y1.8104  
G01 X-0.0546 Y1.8030  
G01 X-0.0581 Y1.7962  
G01 X-0.0626 Y1.7899  
G01 X-0.0681 Y1.7845  
G01 X-0.0743 Y1.7799  
G01 X-0.0780 Y1.7781  
G01 X-0.0780 Y1.6688  
G01 X-0.0743 Y1.6669  
G01 X-0.0681 Y1.6624  
G01 X-0.0626 Y1.6569  
G01 X-0.0581 Y1.6507  
G01 X-0.0546 Y1.6438  
G01 X-0.0522 Y1.6365  
G01 X-0.0510 Y1.6289  
G01 X-0.0510 Y1.6211  
G01 X-0.0522 Y1.6135  
G01 X-0.0546 Y1.6062  
G01 X-0.0561 Y1.6032  
G01 X-0.0083 Y1.5395  
G01 X-0.0074 Y1.5385  
G01 X-0.0066 Y1.5371  
G01 X-0.0057 Y1.5359  
G01 X-0.0052 Y1.5346  
G01 X-0.0045 Y1.5335  
G01 X-0.0041 Y1.5320  
G01 X-0.0035 Y1.5305  
G01 X-0.0033 Y1.5292  
G01 X-0.0030 Y1.5279  
G01 X-0.0030 Y1.5263  
G01 X-0.0028 Y1.5248  
G01 X-0.0030 Y1.5234  
G01 X-0.0030 Y1.3257  
G01 X-0.0029 Y1.3235  
G01 X-0.0030 Y1.3228  
G01 X-0.0030 Y1.3221  
G01 X-0.0036 Y1.3200  
G01 X-0.0040 Y1.3178  
G01 X-0.0043 Y1.3172  
G01 X-0.0045 Y1.3165  
G01 X-0.0056 Y1.3146  
G01 X-0.0066 Y1.3127  
G01 X-0.0070 Y1.3121  
G01 X-0.0074 Y1.3115  
G01 X-0.0089 Y1.3099  
G01 X-0.0104 Y1.3083  
G01 X-0.0110 Y1.3079  
G01 X-0.0115 Y1.3074  
G01 X-0.0134 Y1.3063  
G01 X-0.3125 Y1.1069  
G01 X-0.4680 Y0.9958  
G01 X-0.4680 Y0.9867  
G01 X-0.4867 Y0.9680  
G01 X-0.5133 Y0.9680  
G01 X-0.5320 Y0.9867  
G01 X-0.5320 Y0.9914  
G01 X-0.5573 Y1.0041  
G01 X-0.5599 Y1.0054  
G01 X-0.5624 Y1.0066  
G01 X-0.5626 Y1.0067  
G01 X-0.5647 Y1.0086  
G01 X-0.5668 Y1.0105  
G01 X-0.8125 Y1.2317  
G01 X-0.8362 Y1.2435  
G01 X-0.8367 Y1.2430  
G01 X-0.8633 Y1.2430  
G00 Z0.0500  
G00 X-0.7133 Y1.3680  
G01 Z-0.0040 F10    
G01 X-0.7320 Y1.3867  F20    
G01 X-0.7320 Y1.4133  
G01 X-0.7133 Y1.4320  
G01 X-0.7125 Y1.4320  
G01 X-0.6961 Y1.4813  
G01 X-0.6955 Y1.4835  
G01 X-0.6952 Y1.4841  
G01 X-0.6950 Y1.4847  
G01 X-0.6937 Y1.4866  
G01 X-0.6926 Y1.4885  
G01 X-0.6921 Y1.4890  
G01 X-0.6918 Y1.4895  
G01 X-0.6901 Y1.4910  
G01 X-0.6121 Y1.5691  
G01 X-0.6125 Y1.5713  
G01 X-0.6125 Y1.5787  
G01 X-0.6111 Y1.5859  
G01 X-0.6082 Y1.5928  
G01 X-0.6041 Y1.5989  
G01 X-0.5989 Y1.6041  
G01 X-0.5928 Y1.6082  
G01 X-0.5859 Y1.6111  
G01 X-0.5787 Y1.6125  
G01 X-0.5713 Y1.6125  
G01 X-0.5641 Y1.6111  
G01 X-0.5572 Y1.6082  
G01 X-0.5511 Y1.6041  
G01 X-0.5459 Y1.5989  
G01 X-0.5418 Y1.5928  
G01 X-0.5389 Y1.5859  
G01 X-0.5375 Y1.5787  
G01 X-0.5375 Y1.5713  
G01 X-0.5389 Y1.5641  
G01 X-0.5418 Y1.5572  
G01 X-0.5459 Y1.5511  
G01 X-0.5511 Y1.5459  
G01 X-0.5572 Y1.5418  
G01 X-0.5641 Y1.5389  
G01 X-0.5713 Y1.5375  
G01 X-0.5787 Y1.5375  
G01 X-0.5809 Y1.5379  
G01 X-0.6558 Y1.4631  
G01 X-0.6713 Y1.4165  
G01 X-0.6680 Y1.4133  
G01 X-0.6680 Y1.3867  
G01 X-0.6867 Y1.3680  
G01 X-0.7133 Y1.3680  
G00 Z0.0500  
G00 X-0.5218 Y1.3286  
G01 Z-0.0040 F10    
G01 X-0.4980 Y1.6139  F20    
G01 X-0.5490 Y1.6479  
G01 X-0.5595 Y1.6375  
G01 X-0.5905 Y1.6375  
G01 X-0.6125 Y1.6595  
G01 X-0.6125 Y1.6608  
G01 X-0.7814 Y1.6983  
G01 X-0.7867 Y1.6930  
G01 X-0.8009 Y1.6930  
G01 X-0.8365 Y1.6574  
G01 X-0.8415 Y1.6545  
G01 X-0.8471 Y1.6530  
G01 X-0.9007 Y1.6530  
G01 X-0.9036 Y1.6501  
G01 X-0.9088 Y1.6466  
G01 X-0.9147 Y1.6442  
G01 X-0.9208 Y1.6430  
G01 X-0.9792 Y1.6430  
G01 X-0.9853 Y1.6442  
G01 X-0.9912 Y1.6466  
G01 X-0.9964 Y1.6501  
G01 X-1.0009 Y1.6546  
G01 X-1.0044 Y1.6598  
G01 X-1.0068 Y1.6657  
G01 X-1.0080 Y1.6718  
G01 X-1.0080 Y1.6782  
G01 X-1.0068 Y1.6843  
G01 X-1.0044 Y1.6902  
G01 X-1.0009 Y1.6954  
G01 X-0.9964 Y1.6999  
G01 X-0.9912 Y1.7034  
G01 X-0.9853 Y1.7058  
G01 X-0.9792 Y1.7070  
G01 X-0.9208 Y1.7070  
G01 X-0.9147 Y1.7058  
G01 X-0.9088 Y1.7034  
G01 X-0.9036 Y1.6999  
G01 X-0.9007 Y1.6970  
G01 X-0.8591 Y1.6970  
G01 X-0.8320 Y1.7241  
G01 X-0.8320 Y1.7383  
G01 X-0.8133 Y1.7570  
G01 X-0.7867 Y1.7570  
G01 X-0.7708 Y1.7410  
G01 X-0.6000 Y1.7031  
G01 X-0.5905 Y1.7125  
G01 X-0.5595 Y1.7125  
G01 X-0.5428 Y1.6959  
G01 X-0.5415 Y1.6955  
G01 X-0.5409 Y1.6951  
G01 X-0.5402 Y1.6949  
G01 X-0.5384 Y1.6937  
G01 X-0.5365 Y1.6926  
G01 X-0.5360 Y1.6921  
G01 X-0.4650 Y1.6448  
G01 X-0.4648 Y1.6447  
G01 X-0.4626 Y1.6432  
G01 X-0.4604 Y1.6417  
G01 X-0.4602 Y1.6415  
G01 X-0.4601 Y1.6414  
G01 X-0.4583 Y1.6394  
G01 X-0.4566 Y1.6373  
G01 X-0.4565 Y1.6372  
G01 X-0.4563 Y1.6370  
G01 X-0.4552 Y1.6346  
G01 X-0.4540 Y1.6322  
G01 X-0.4540 Y1.6319  
G01 X-0.4539 Y1.6318  
G01 X-0.4534 Y1.6291  
G01 X-0.4529 Y1.6265  
G01 X-0.4529 Y1.6263  
G01 X-0.4528 Y1.6261  
G01 X-0.4531 Y1.6234  
G01 X-0.4532 Y1.6207  
G01 X-0.4533 Y1.6205  
G01 X-0.4765 Y1.3418  
G01 X-0.4012 Y1.3230  
G01 X-0.3301 Y1.3486  
G01 X-0.1490 Y1.4302  
G01 X-0.1490 Y1.4320  
G01 X-0.1478 Y1.4396  
G01 X-0.1454 Y1.4470  
G01 X-0.1419 Y1.4538  
G01 X-0.1374 Y1.4601  
G01 X-0.1319 Y1.4655  
G01 X-0.1257 Y1.4701  
G01 X-0.1188 Y1.4736  
G01 X-0.1115 Y1.4759  
G01 X-0.1039 Y1.4771  
G01 X-0.0961 Y1.4771  
G01 X-0.0885 Y1.4759  
G01 X-0.0812 Y1.4736  
G01 X-0.0743 Y1.4701  
G01 X-0.0681 Y1.4655  
G01 X-0.0626 Y1.4601  
G01 X-0.0581 Y1.4538  
G01 X-0.0546 Y1.4470  
G01 X-0.0522 Y1.4396  
G01 X-0.0510 Y1.4320  
G01 X-0.0510 Y1.4243  
G01 X-0.0522 Y1.4167  
G01 X-0.0546 Y1.4093  
G01 X-0.0581 Y1.4025  
G01 X-0.0626 Y1.3962  
G01 X-0.0681 Y1.3908  
G01 X-0.0743 Y1.3862  
G01 X-0.0812 Y1.3827  
G01 X-0.0885 Y1.3804  
G01 X-0.0961 Y1.3791  
G01 X-0.1039 Y1.3791  
G01 X-0.1115 Y1.3804  
G01 X-0.1188 Y1.3827  
G01 X-0.1257 Y1.3862  
G01 X-0.1309 Y1.3901  
G01 X-0.3110 Y1.3089  
G01 X-0.3117 Y1.3084  
G01 X-0.3136 Y1.3077  
G01 X-0.3155 Y1.3069  
G01 X-0.3163 Y1.3068  
G01 X-0.3905 Y1.2800  
G01 X-0.3912 Y1.2796  
G01 X-0.3932 Y1.2791  
G01 X-0.3953 Y1.2783  
G01 X-0.3960 Y1.2783  
G01 X-0.3967 Y1.2781  
G01 X-0.3989 Y1.2780  
G01 X-0.4010 Y1.2778  
G01 X-0.4018 Y1.2780  
G01 X-0.4025 Y1.2780  
G01 X-0.4046 Y1.2785  
G01 X-0.4067 Y1.2789  
G01 X-0.4074 Y1.2792  
G01 X-0.5036 Y1.3032  
G01 X-0.5047 Y1.3033  
G01 X-0.5064 Y1.3039  
G01 X-0.5081 Y1.3044  
G01 X-0.5091 Y1.3049  
G01 X-0.5102 Y1.3053  
G01 X-0.5116 Y1.3063  
G01 X-0.5132 Y1.3072  
G01 X-0.5140 Y1.3079  
G01 X-0.5149 Y1.3086  
G01 X-0.5161 Y1.3099  
G01 X-0.5174 Y1.3112  
G01 X-0.5179 Y1.3122  
G01 X-0.5187 Y1.3130  
G01 X-0.5194 Y1.3146  
G01 X-0.5204 Y1.3162  
G01 X-0.5207 Y1.3172  
G01 X-0.5211 Y1.3182  
G01 X-0.5215 Y1.3200  
G01 X-0.5219 Y1.3217  
G01 X-0.5220 Y1.3228  
G01 X-0.5222 Y1.3239  
G01 X-0.5220 Y1.3257  
G01 X-0.5220 Y1.3275  
G01 X-0.5218 Y1.3286  
G00 Z0.0500  
G00 X-0.6015 Y1.8549  
G01 Z-0.0040 F10    
G01 X-0.6299 Y1.8265  F20    
G01 X-0.6701 Y1.8265  
G01 X-0.6856 Y1.8420  
G01 X-0.8157 Y1.8048  
G01 X-0.8860 Y1.7579  
G01 X-0.8865 Y1.7574  
G01 X-0.8884 Y1.7563  
G01 X-0.8902 Y1.7551  
G01 X-0.8909 Y1.7549  
G01 X-0.8915 Y1.7545  
G01 X-0.8936 Y1.7539  
G01 X-0.8957 Y1.7532  
G01 X-0.8964 Y1.7532  
G01 X-0.8971 Y1.7530  
G01 X-0.8993 Y1.7530  
G01 X-0.9008 Y1.7529  
G01 X-0.9036 Y1.7501  
G01 X-0.9088 Y1.7466  
G01 X-0.9147 Y1.7442  
G01 X-0.9208 Y1.7430  
G01 X-0.9792 Y1.7430  
G01 X-0.9853 Y1.7442  
G01 X-0.9912 Y1.7466  
G01 X-0.9964 Y1.7501  
G01 X-1.0009 Y1.7546  
G01 X-1.0044 Y1.7598  
G01 X-1.0068 Y1.7657  
G01 X-1.0080 Y1.7718  
G01 X-1.0080 Y1.7782  
G01 X-1.0068 Y1.7843  
G01 X-1.0044 Y1.7902  
G01 X-1.0009 Y1.7954  
G01 X-0.9964 Y1.7999  
G01 X-0.9912 Y1.8034  
G01 X-0.9853 Y1.8058  
G01 X-0.9792 Y1.8070  
G01 X-0.9208 Y1.8070  
G01 X-0.9147 Y1.8058  
G01 X-0.9088 Y1.8034  
G01 X-0.9036 Y1.7999  
G01 X-0.9031 Y1.7994  
G01 X-0.8392 Y1.8420  
G01 X-0.8388 Y1.8424  
G01 X-0.8368 Y1.8436  
G01 X-0.8348 Y1.8449  
G01 X-0.8343 Y1.8451  
G01 X-0.8338 Y1.8454  
G01 X-0.8315 Y1.8460  
G01 X-0.8293 Y1.8468  
G01 X-0.8288 Y1.8468  
G01 X-0.6985 Y1.8840  
G01 X-0.6985 Y1.8951  
G01 X-0.6701 Y1.9235  
G01 X-0.6299 Y1.9235  
G01 X-0.6015 Y1.8951  
G01 X-0.6015 Y1.8549  
G00 Z0.0500  
G00 X-0.8991 Y1.9546  
G01 Z-0.0040 F10    
G01 X-0.9036 Y1.9501  F20    
G01 X-0.9088 Y1.9466  
G01 X-0.9147 Y1.9442  
G01 X-0.9208 Y1.9430  
G01 X-0.9792 Y1.9430  
G01 X-0.9853 Y1.9442  
G01 X-0.9912 Y1.9466  
G01 X-0.9964 Y1.9501  
G01 X-0.9993 Y1.9530  
G01 X-1.0029 Y1.9530  
G01 X-1.0085 Y1.9545  
G01 X-1.0135 Y1.9574  
G01 X-1.0176 Y1.9615  
G01 X-1.0676 Y2.0115  
G01 X-1.0705 Y2.0165  
G01 X-1.0720 Y2.0221  
G01 X-1.0720 Y2.3228  
G01 X-1.0721 Y2.3235  
G01 X-1.0720 Y2.3257  
G01 X-1.0720 Y2.3279  
G01 X-1.0718 Y2.3286  
G01 X-1.0718 Y2.3293  
G01 X-1.0711 Y2.3314  
G01 X-1.0705 Y2.3335  
G01 X-1.0701 Y2.3341  
G01 X-1.0699 Y2.3348  
G01 X-1.0687 Y2.3366  
G01 X-1.0676 Y2.3385  
G01 X-1.0671 Y2.3390  
G01 X-0.9820 Y2.4667  
G01 X-0.9820 Y2.4883  
G01 X-0.9720 Y2.4983  
G01 X-0.9720 Y2.7887  
G01 X-0.9722 Y2.7903  
G01 X-0.9720 Y2.7916  
G01 X-0.9720 Y2.7929  
G01 X-0.9716 Y2.7944  
G01 X-0.9713 Y2.7960  
G01 X-0.9708 Y2.7972  
G01 X-0.9705 Y2.7985  
G01 X-0.9697 Y2.7998  
G01 X-0.9691 Y2.8013  
G01 X-0.9683 Y2.8023  
G01 X-0.9676 Y2.8035  
G01 X-0.9665 Y2.8046  
G01 X-0.9655 Y2.8059  
G01 X-0.9644 Y2.8066  
G01 X-0.9635 Y2.8076  
G01 X-0.9621 Y2.8084  
G01 X-0.9608 Y2.8093  
G01 X-0.9596 Y2.8098  
G01 X-0.9585 Y2.8105  
G01 X-0.9569 Y2.8109  
G01 X-0.6741 Y2.9233  
G01 X-0.6741 Y2.9763  
G01 X-0.6727 Y2.9850  
G01 X-0.6700 Y2.9933  
G01 X-0.6660 Y3.0012  
G01 X-0.6608 Y3.0083  
G01 X-0.6546 Y3.0146  
G01 X-0.6475 Y3.0197  
G01 X-0.6396 Y3.0237  
G01 X-0.6312 Y3.0265  
G01 X-0.6225 Y3.0279  
G01 X-0.6137 Y3.0279  
G01 X-0.6050 Y3.0265  
G01 X-0.5966 Y3.0237  
G01 X-0.5888 Y3.0197  
G01 X-0.5816 Y3.0146  
G01 X-0.5754 Y3.0083  
G01 X-0.5702 Y3.0012  
G01 X-0.5662 Y2.9933  
G01 X-0.5635 Y2.9850  
G01 X-0.5621 Y2.9763  
G01 X-0.5621 Y2.8674  
G01 X-0.5635 Y2.8587  
G01 X-0.5662 Y2.8504  
G01 X-0.5702 Y2.8425  
G01 X-0.5754 Y2.8354  
G01 X-0.5816 Y2.8291  
G01 X-0.5888 Y2.8240  
G01 X-0.5966 Y2.8200  
G01 X-0.6050 Y2.8172  
G01 X-0.6137 Y2.8159  
G01 X-0.6225 Y2.8159  
G01 X-0.6312 Y2.8172  
G01 X-0.6396 Y2.8200  
G01 X-0.6475 Y2.8240  
G01 X-0.6546 Y2.8291  
G01 X-0.6608 Y2.8354  
G01 X-0.6660 Y2.8425  
G01 X-0.6700 Y2.8504  
G01 X-0.6727 Y2.8587  
G01 X-0.6741 Y2.8674  
G01 X-0.6741 Y2.8759  
G01 X-0.9280 Y2.7750  
G01 X-0.9280 Y2.4983  
G01 X-0.9180 Y2.4883  
G01 X-0.9180 Y2.4617  
G01 X-0.9367 Y2.4430  
G01 X-0.9449 Y2.4430  
G01 X-1.0280 Y2.3183  
G01 X-1.0280 Y2.0341  
G01 X-0.9948 Y2.0009  
G01 X-0.9912 Y2.0034  
G01 X-0.9853 Y2.0058  
G01 X-0.9792 Y2.0070  
G01 X-0.9208 Y2.0070  
G01 X-0.9147 Y2.0058  
G01 X-0.9088 Y2.0034  
G01 X-0.9036 Y1.9999  
G01 X-0.8991 Y1.9954  
G01 X-0.8956 Y1.9902  
G01 X-0.8932 Y1.9843  
G01 X-0.8920 Y1.9782  
G01 X-0.8920 Y1.9718  
G01 X-0.8932 Y1.9657  
G01 X-0.8956 Y1.9598  
G01 X-0.8991 Y1.9546  
G00 Z0.0500  
G00 X-0.9007 Y2.0530  
G01 Z-0.0040 F10    
G01 X-0.9036 Y2.0501  F20    
G01 X-0.9088 Y2.0466  
G01 X-0.9147 Y2.0442  
G01 X-0.9208 Y2.0430  
G01 X-0.9792 Y2.0430  
G01 X-0.9853 Y2.0442  
G01 X-0.9912 Y2.0466  
G01 X-0.9964 Y2.0501  
G01 X-1.0009 Y2.0546  
G01 X-1.0044 Y2.0598  
G01 X-1.0068 Y2.0657  
G01 X-1.0080 Y2.0718  
G01 X-1.0080 Y2.0782  
G01 X-1.0068 Y2.0843  
G01 X-1.0044 Y2.0902  
G01 X-1.0009 Y2.0954  
G01 X-0.9964 Y2.0999  
G01 X-0.9912 Y2.1034  
G01 X-0.9853 Y2.1058  
G01 X-0.9792 Y2.1070  
G01 X-0.9208 Y2.1070  
G01 X-0.9147 Y2.1058  
G01 X-0.9088 Y2.1034  
G01 X-0.9052 Y2.1009  
G01 X-0.7820 Y2.2241  
G01 X-0.7820 Y2.2383  
G01 X-0.7633 Y2.2570  
G01 X-0.7367 Y2.2570  
G01 X-0.7362 Y2.2565  
G01 X-0.6606 Y2.2943  
G01 X-0.5485 Y2.3616  
G01 X-0.5485 Y2.3951  
G01 X-0.5201 Y2.4235  
G01 X-0.4799 Y2.4235  
G01 X-0.4515 Y2.3951  
G01 X-0.4515 Y2.3753  
G01 X-0.4411 Y2.3702  
G01 X-0.1209 Y2.2470  
G01 X-0.1035 Y2.2470  
G01 X-0.1010 Y2.2471  
G01 X-0.1006 Y2.2470  
G01 X-0.1003 Y2.2470  
G01 X-0.0978 Y2.2463  
G01 X-0.0953 Y2.2458  
G01 X-0.0950 Y2.2456  
G01 X-0.0947 Y2.2455  
G01 X-0.0925 Y2.2442  
G01 X-0.0902 Y2.2430  
G01 X-0.0900 Y2.2428  
G01 X-0.0896 Y2.2426  
G01 X-0.0878 Y2.2408  
G01 X-0.0860 Y2.2391  
G01 X-0.0858 Y2.2388  
G01 X-0.0855 Y2.2385  
G01 X-0.0843 Y2.2363  
G01 X-0.0829 Y2.2342  
G01 X-0.0828 Y2.2338  
G01 X-0.0826 Y2.2335  
G01 X-0.0820 Y2.2310  
G01 X-0.0813 Y2.2286  
G01 X-0.0812 Y2.2282  
G01 X-0.0811 Y2.2279  
G01 X-0.0811 Y2.2254  
G01 X-0.0794 Y2.1727  
G01 X-0.0743 Y2.1701  
G01 X-0.0681 Y2.1655  
G01 X-0.0626 Y2.1601  
G01 X-0.0581 Y2.1538  
G01 X-0.0546 Y2.1470  
G01 X-0.0522 Y2.1396  
G01 X-0.0510 Y2.1320  
G01 X-0.0510 Y2.1243  
G01 X-0.0522 Y2.1167  
G01 X-0.0546 Y2.1093  
G01 X-0.0581 Y2.1025  
G01 X-0.0626 Y2.0962  
G01 X-0.0681 Y2.0908  
G01 X-0.0743 Y2.0862  
G01 X-0.0812 Y2.0827  
G01 X-0.0885 Y2.0804  
G01 X-0.0961 Y2.0791  
G01 X-0.1039 Y2.0791  
G01 X-0.1115 Y2.0804  
G01 X-0.1188 Y2.0827  
G01 X-0.1257 Y2.0862  
G01 X-0.1319 Y2.0908  
G01 X-0.1374 Y2.0962  
G01 X-0.1419 Y2.1025  
G01 X-0.1454 Y2.1093  
G01 X-0.1478 Y2.1167  
G01 X-0.1490 Y2.1243  
G01 X-0.1490 Y2.1320  
G01 X-0.1478 Y2.1396  
G01 X-0.1454 Y2.1470  
G01 X-0.1419 Y2.1538  
G01 X-0.1374 Y2.1601  
G01 X-0.1319 Y2.1655  
G01 X-0.1257 Y2.1701  
G01 X-0.1234 Y2.1712  
G01 X-0.1244 Y2.2028  
G01 X-0.1262 Y2.2030  
G01 X-0.1279 Y2.2030  
G01 X-0.1290 Y2.2033  
G01 X-0.1302 Y2.2034  
G01 X-0.1318 Y2.2041  
G01 X-0.1335 Y2.2045  
G01 X-0.1345 Y2.2051  
G01 X-0.4562 Y2.3288  
G01 X-0.4572 Y2.3290  
G01 X-0.4589 Y2.3298  
G01 X-0.4606 Y2.3305  
G01 X-0.4615 Y2.3311  
G01 X-0.4707 Y2.3357  
G01 X-0.4799 Y2.3265  
G01 X-0.5201 Y2.3265  
G01 X-0.5206 Y2.3270  
G01 X-0.6369 Y2.2572  
G01 X-0.6376 Y2.2566  
G01 X-0.6394 Y2.2557  
G01 X-0.6412 Y2.2546  
G01 X-0.6420 Y2.2544  
G01 X-0.7180 Y2.2164  
G01 X-0.7180 Y2.2117  
G01 X-0.7367 Y2.1930  
G01 X-0.7509 Y2.1930  
G01 X-0.8865 Y2.0574  
G01 X-0.8915 Y2.0545  
G01 X-0.8971 Y2.0530  
G01 X-0.9007 Y2.0530  
G00 Z0.0500  
G00 X-0.9036 Y2.1501  
G01 Z-0.0040 F10    
G01 X-0.9088 Y2.1466  F20    
G01 X-0.9147 Y2.1442  
G01 X-0.9208 Y2.1430  
G01 X-0.9792 Y2.1430  
G01 X-0.9853 Y2.1442  
G01 X-0.9912 Y2.1466  
G01 X-0.9964 Y2.1501  
G01 X-1.0009 Y2.1546  
G01 X-1.0044 Y2.1598  
G01 X-1.0068 Y2.1657  
G01 X-1.0080 Y2.1718  
G01 X-1.0080 Y2.1782  
G01 X-1.0068 Y2.1843  
G01 X-1.0044 Y2.1902  
G01 X-1.0009 Y2.1954  
G01 X-0.9964 Y2.1999  
G01 X-0.9912 Y2.2034  
G01 X-0.9853 Y2.2058  
G01 X-0.9792 Y2.2070  
G01 X-0.9720 Y2.2070  
G01 X-0.9720 Y2.2779  
G01 X-0.9705 Y2.2835  
G01 X-0.9676 Y2.2885  
G01 X-0.9635 Y2.2926  
G01 X-0.8135 Y2.4426  
G01 X-0.8085 Y2.4455  
G01 X-0.8029 Y2.4470  
G01 X-0.7733 Y2.4470  
G01 X-0.7633 Y2.4570  
G01 X-0.7367 Y2.4570  
G01 X-0.7346 Y2.4549  
G01 X-0.5485 Y2.5293  
G01 X-0.5485 Y2.5451  
G01 X-0.5201 Y2.5735  
G01 X-0.4799 Y2.5735  
G01 X-0.4515 Y2.5451  
G01 X-0.4515 Y2.5049  
G01 X-0.4799 Y2.4765  
G01 X-0.5201 Y2.4765  
G01 X-0.5321 Y2.4885  
G01 X-0.7180 Y2.4141  
G01 X-0.7180 Y2.4117  
G01 X-0.7367 Y2.3930  
G01 X-0.7633 Y2.3930  
G01 X-0.7733 Y2.4030  
G01 X-0.7909 Y2.4030  
G01 X-0.9280 Y2.2659  
G01 X-0.9280 Y2.2070  
G01 X-0.9208 Y2.2070  
G01 X-0.9147 Y2.2058  
G01 X-0.9088 Y2.2034  
G01 X-0.9036 Y2.1999  
G01 X-0.8991 Y2.1954  
G01 X-0.8956 Y2.1902  
G01 X-0.8932 Y2.1843  
G01 X-0.8920 Y2.1782  
G01 X-0.8920 Y2.1718  
G01 X-0.8932 Y2.1657  
G01 X-0.8956 Y2.1598  
G01 X-0.8991 Y2.1546  
G01 X-0.9036 Y2.1501  
G00 Z0.0500  
G00 X-1.2036 Y2.0999  
G01 Z-0.0040 F10    
G01 X-1.1991 Y2.0954  F20    
G01 X-1.1956 Y2.0902  
G01 X-1.1932 Y2.0843  
G01 X-1.1920 Y2.0782  
G01 X-1.1920 Y2.0718  
G01 X-1.1932 Y2.0657  
G01 X-1.1956 Y2.0598  
G01 X-1.1991 Y2.0546  
G01 X-1.2036 Y2.0501  
G01 X-1.2088 Y2.0466  
G01 X-1.2147 Y2.0442  
G01 X-1.2208 Y2.0430  
G01 X-1.2792 Y2.0430  
G01 X-1.2853 Y2.0442  
G01 X-1.2912 Y2.0466  
G01 X-1.2964 Y2.0501  
G01 X-1.2993 Y2.0530  
G01 X-1.3279 Y2.0530  
G01 X-1.3335 Y2.0545  
G01 X-1.3385 Y2.0574  
G01 X-1.3991 Y2.1180  
G01 X-1.4133 Y2.1180  
G01 X-1.4138 Y2.1185  
G01 X-1.5396 Y2.0556  
G01 X-1.5415 Y2.0545  
G01 X-1.5422 Y2.0543  
G01 X-1.5428 Y2.0540  
G01 X-1.5449 Y2.0536  
G01 X-1.5471 Y2.0530  
G01 X-1.5478 Y2.0530  
G01 X-1.5484 Y2.0529  
G01 X-1.5507 Y2.0530  
G01 X-1.6017 Y2.0530  
G01 X-1.6117 Y2.0430  
G01 X-1.6383 Y2.0430  
G01 X-1.6570 Y2.0617  
G01 X-1.6570 Y2.0883  
G01 X-1.6383 Y2.1070  
G01 X-1.6117 Y2.1070  
G01 X-1.6017 Y2.0970  
G01 X-1.5552 Y2.0970  
G01 X-1.4320 Y2.1586  
G01 X-1.4320 Y2.1633  
G01 X-1.4133 Y2.1820  
G01 X-1.3867 Y2.1820  
G01 X-1.3680 Y2.1633  
G01 X-1.3680 Y2.1491  
G01 X-1.3159 Y2.0970  
G01 X-1.2993 Y2.0970  
G01 X-1.2964 Y2.0999  
G01 X-1.2912 Y2.1034  
G01 X-1.2853 Y2.1058  
G01 X-1.2792 Y2.1070  
G01 X-1.2208 Y2.1070  
G01 X-1.2147 Y2.1058  
G01 X-1.2088 Y2.1034  
G01 X-1.2036 Y2.0999  
G00 Z0.0500  
G00 X-1.2036 Y1.9999  
G01 Z-0.0040 F10    
G01 X-1.1991 Y1.9954  F20    
G01 X-1.1956 Y1.9902  
G01 X-1.1932 Y1.9843  
G01 X-1.1920 Y1.9782  
G01 X-1.1920 Y1.9718  
G01 X-1.1932 Y1.9657  
G01 X-1.1956 Y1.9598  
G01 X-1.1991 Y1.9546  
G01 X-1.2036 Y1.9501  
G01 X-1.2088 Y1.9466  
G01 X-1.2147 Y1.9442  
G01 X-1.2208 Y1.9430  
G01 X-1.2792 Y1.9430  
G01 X-1.2853 Y1.9442  
G01 X-1.2912 Y1.9466  
G01 X-1.2964 Y1.9501  
G01 X-1.2993 Y1.9530  
G01 X-1.3529 Y1.9530  
G01 X-1.3585 Y1.9545  
G01 X-1.3635 Y1.9574  
G01 X-1.3991 Y1.9930  
G01 X-1.4083 Y1.9930  
G01 X-1.4530 Y1.9632  
G01 X-1.4530 Y1.8067  
G01 X-1.4156 Y1.7506  
G01 X-1.3073 Y1.7815  
G01 X-1.3068 Y1.7843  
G01 X-1.3044 Y1.7902  
G01 X-1.3009 Y1.7954  
G01 X-1.2964 Y1.7999  
G01 X-1.2912 Y1.8034  
G01 X-1.2853 Y1.8058  
G01 X-1.2792 Y1.8070  
G01 X-1.2208 Y1.8070  
G01 X-1.2147 Y1.8058  
G01 X-1.2088 Y1.8034  
G01 X-1.2036 Y1.7999  
G01 X-1.1991 Y1.7954  
G01 X-1.1956 Y1.7902  
G01 X-1.1932 Y1.7843  
G01 X-1.1920 Y1.7782  
G01 X-1.1920 Y1.7718  
G01 X-1.1932 Y1.7657  
G01 X-1.1956 Y1.7598  
G01 X-1.1991 Y1.7546  
G01 X-1.2036 Y1.7501  
G01 X-1.2088 Y1.7466  
G01 X-1.2147 Y1.7442  
G01 X-1.2208 Y1.7430  
G01 X-1.2792 Y1.7430  
G01 X-1.2808 Y1.7433  
G01 X-1.4184 Y1.7040  
G01 X-1.4207 Y1.7032  
G01 X-1.4212 Y1.7032  
G01 X-1.4217 Y1.7031  
G01 X-1.4241 Y1.7030  
G01 X-1.4265 Y1.7029  
G01 X-1.4270 Y1.7030  
G01 X-1.4275 Y1.7030  
G01 X-1.4298 Y1.7035  
G01 X-1.4322 Y1.7040  
G01 X-1.4326 Y1.7042  
G01 X-1.4332 Y1.7044  
G01 X-1.4352 Y1.7055  
G01 X-1.4373 Y1.7066  
G01 X-1.4377 Y1.7069  
G01 X-1.4382 Y1.7072  
G01 X-1.4399 Y1.7088  
G01 X-1.4417 Y1.7104  
G01 X-1.4420 Y1.7108  
G01 X-1.4424 Y1.7112  
G01 X-1.4436 Y1.7132  
G01 X-1.4921 Y1.7860  
G01 X-1.4926 Y1.7865  
G01 X-1.4937 Y1.7884  
G01 X-1.4949 Y1.7902  
G01 X-1.4951 Y1.7909  
G01 X-1.4955 Y1.7915  
G01 X-1.4961 Y1.7936  
G01 X-1.4968 Y1.7957  
G01 X-1.4968 Y1.7964  
G01 X-1.4970 Y1.7971  
G01 X-1.4970 Y1.7993  
G01 X-1.4971 Y1.8015  
G01 X-1.4970 Y1.8022  
G01 X-1.4970 Y1.9530  
G01 X-1.7029 Y1.9530  
G01 X-1.7085 Y1.9545  
G01 X-1.7135 Y1.9574  
G01 X-1.7176 Y1.9615  
G01 X-1.7205 Y1.9665  
G01 X-1.7220 Y1.9721  
G01 X-1.7220 Y2.1481  
G01 X-1.7222 Y2.1490  
G01 X-1.7220 Y2.1510  
G01 X-1.7220 Y2.1529  
G01 X-1.7217 Y2.1538  
G01 X-1.7217 Y2.1548  
G01 X-1.7210 Y2.1566  
G01 X-1.7205 Y2.1585  
G01 X-1.7200 Y2.1593  
G01 X-1.6207 Y2.4324  
G01 X-1.6198 Y2.4350  
G01 X-1.6197 Y2.4352  
G01 X-1.6181 Y2.4375  
G01 X-1.6165 Y2.4398  
G01 X-1.6164 Y2.4400  
G01 X-1.6142 Y2.4418  
G01 X-1.4547 Y2.5785  
G01 X-1.4547 Y2.6249  
G01 X-1.4538 Y2.6271  
G01 X-1.4521 Y2.6288  
G01 X-1.4499 Y2.6297  
G01 X-1.4001 Y2.6297  
G01 X-1.3979 Y2.6288  
G01 X-1.3962 Y2.6271  
G01 X-1.3953 Y2.6249  
G01 X-1.3953 Y2.5883  
G01 X-1.3452 Y2.5716  
G01 X-1.3445 Y2.5715  
G01 X-1.3424 Y2.5707  
G01 X-1.3403 Y2.5700  
G01 X-1.3397 Y2.5696  
G01 X-1.3391 Y2.5693  
G01 X-1.3373 Y2.5680  
G01 X-1.3355 Y2.5668  
G01 X-1.3350 Y2.5663  
G01 X-1.2560 Y2.5070  
G01 X-1.2367 Y2.5070  
G01 X-1.2180 Y2.4883  
G01 X-1.2180 Y2.4617  
G01 X-1.2367 Y2.4430  
G01 X-1.2633 Y2.4430  
G01 X-1.2820 Y2.4617  
G01 X-1.2820 Y2.4715  
G01 X-1.3603 Y2.5303  
G01 X-1.4201 Y2.5502  
G01 X-1.5813 Y2.4121  
G01 X-1.6780 Y2.1461  
G01 X-1.6780 Y1.9970  
G01 X-1.4817 Y1.9970  
G01 X-1.4320 Y2.0301  
G01 X-1.4320 Y2.0383  
G01 X-1.4133 Y2.0570  
G01 X-1.3867 Y2.0570  
G01 X-1.3680 Y2.0383  
G01 X-1.3680 Y2.0241  
G01 X-1.3409 Y1.9970  
G01 X-1.2993 Y1.9970  
G01 X-1.2964 Y1.9999  
G01 X-1.2912 Y2.0034  
G01 X-1.2853 Y2.0058  
G01 X-1.2792 Y2.0070  
G01 X-1.2208 Y2.0070  
G01 X-1.2147 Y2.0058  
G01 X-1.2088 Y2.0034  
G01 X-1.2036 Y1.9999  
G00 Z0.0500  
G00 X-1.2036 Y1.5999  
G01 Z-0.0040 F10    
G01 X-1.1991 Y1.5954  F20    
G01 X-1.1956 Y1.5902  
G01 X-1.1932 Y1.5843  
G01 X-1.1920 Y1.5782  
G01 X-1.1920 Y1.5718  
G01 X-1.1932 Y1.5657  
G01 X-1.1956 Y1.5598  
G01 X-1.1991 Y1.5546  
G01 X-1.2036 Y1.5501  
G01 X-1.2088 Y1.5466  
G01 X-1.2147 Y1.5442  
G01 X-1.2208 Y1.5430  
G01 X-1.2764 Y1.5430  
G01 X-1.3680 Y1.5125  
G01 X-1.3680 Y1.5117  
G01 X-1.3867 Y1.4930  
G01 X-1.4133 Y1.4930  
G01 X-1.4233 Y1.5030  
G01 X-1.5017 Y1.5030  
G01 X-1.5117 Y1.4930  
G01 X-1.5383 Y1.4930  
G01 X-1.5570 Y1.5117  
G01 X-1.5570 Y1.5383  
G01 X-1.5549 Y1.5404  
G01 X-1.6359 Y1.7430  
G01 X-1.6383 Y1.7430  
G01 X-1.6570 Y1.7617  
G01 X-1.6570 Y1.7883  
G01 X-1.6383 Y1.8070  
G01 X-1.6117 Y1.8070  
G01 X-1.5930 Y1.7883  
G01 X-1.5930 Y1.7617  
G01 X-1.5951 Y1.7596  
G01 X-1.5141 Y1.5570  
G01 X-1.5117 Y1.5570  
G01 X-1.5017 Y1.5470  
G01 X-1.4233 Y1.5470  
G01 X-1.4133 Y1.5570  
G01 X-1.3867 Y1.5570  
G01 X-1.3835 Y1.5537  
G01 X-1.3078 Y1.5789  
G01 X-1.3068 Y1.5843  
G01 X-1.3044 Y1.5902  
G01 X-1.3009 Y1.5954  
G01 X-1.2964 Y1.5999  
G01 X-1.2912 Y1.6034  
G01 X-1.2853 Y1.6058  
G01 X-1.2792 Y1.6070  
G01 X-1.2208 Y1.6070  
G01 X-1.2147 Y1.6058  
G01 X-1.2088 Y1.6034  
G01 X-1.2036 Y1.5999  
G00 Z0.0500  
G00 X-0.6180 Y2.6744  
G01 Z-0.0040 F10    
G01 X-0.6242 Y2.6806  F20    
G01 X-0.6294 Y2.6878  
G01 X-0.6334 Y2.6956  
G01 X-0.6361 Y2.7040  
G01 X-0.6375 Y2.7127  
G01 X-0.6375 Y2.7215  
G01 X-0.6361 Y2.7302  
G01 X-0.6334 Y2.7386  
G01 X-0.6294 Y2.7465  
G01 X-0.6242 Y2.7536  
G01 X-0.6180 Y2.7598  
G01 X-0.6108 Y2.7650  
G01 X-0.6030 Y2.7690  
G01 X-0.5946 Y2.7717  
G01 X-0.5859 Y2.7731  
G01 X-0.4771 Y2.7731  
G01 X-0.4684 Y2.7717  
G01 X-0.4600 Y2.7690  
G01 X-0.4521 Y2.7650  
G01 X-0.4450 Y2.7598  
G01 X-0.4388 Y2.7536  
G01 X-0.4336 Y2.7465  
G01 X-0.4296 Y2.7386  
G01 X-0.4269 Y2.7302  
G01 X-0.4255 Y2.7215  
G01 X-0.4255 Y2.7127  
G01 X-0.4269 Y2.7040  
G01 X-0.4296 Y2.6956  
G01 X-0.4336 Y2.6878  
G01 X-0.4388 Y2.6806  
G01 X-0.4450 Y2.6744  
G01 X-0.4521 Y2.6692  
G01 X-0.4600 Y2.6652  
G01 X-0.4684 Y2.6625  
G01 X-0.4771 Y2.6611  
G01 X-0.5859 Y2.6611  
G01 X-0.5946 Y2.6625  
G01 X-0.6030 Y2.6652  
G01 X-0.6108 Y2.6692  
G01 X-0.6180 Y2.6744  
G00 Z0.0500  
G00 X-0.0829 Y0.1088  
G01 Z-0.0040 F10    
G01 X-0.0832 Y0.1086  F20    
G01 X-0.0834 Y0.1083  
G01 X-0.0851 Y0.1072  
G01 X-0.0867 Y0.1061  
G01 X-0.0870 Y0.1059  
G01 X-0.0873 Y0.1057  
G01 X-0.0891 Y0.1050  
G01 X-0.3136 Y0.0044  
G01 X-0.3139 Y0.0042  
G01 X-0.3157 Y0.0034  
G01 X-0.3175 Y0.0026  
G01 X-0.3178 Y0.0025  
G01 X-0.3181 Y0.0024  
G01 X-0.3201 Y0.0020  
G01 X-0.3220 Y0.0016  
G01 X-0.3224 Y0.0016  
G01 X-0.3227 Y0.0015  
G01 X-0.3247 Y0.0015  
G01 X-0.3266 Y0.0014  
G01 X-0.3270 Y0.0015  
G01 X-1.2994 Y0.0015  
G01 X-1.3012 Y0.0014  
G01 X-1.3017 Y0.0015  
G01 X-1.3023 Y0.0015  
G01 X-1.3040 Y0.0018  
G01 X-1.3057 Y0.0021  
G01 X-1.3063 Y0.0023  
G01 X-1.3069 Y0.0024  
G01 X-1.3085 Y0.0031  
G01 X-1.3101 Y0.0037  
G01 X-1.3106 Y0.0040  
G01 X-1.3111 Y0.0042  
G01 X-1.3126 Y0.0051  
G01 X-1.3141 Y0.0060  
G01 X-1.3145 Y0.0064  
G01 X-1.3150 Y0.0067  
G01 X-1.3162 Y0.0080  
G01 X-1.3175 Y0.0091  
G01 X-1.3178 Y0.0096  
G01 X-1.3183 Y0.0100  
G01 X-1.3192 Y0.0115  
G01 X-1.3203 Y0.0129  
G01 X-1.3205 Y0.0134  
G01 X-1.3208 Y0.0139  
G01 X-1.3215 Y0.0155  
G01 X-1.3222 Y0.0171  
G01 X-1.3224 Y0.0176  
G01 X-1.3226 Y0.0181  
G01 X-1.3229 Y0.0199  
G01 X-1.3381 Y0.0805  
G01 X-1.3434 Y0.0805  
G01 X-1.3644 Y0.1015  
G01 X-1.3856 Y0.1015  
G01 X-1.4066 Y0.0805  
G01 X-1.4434 Y0.0805  
G01 X-1.4644 Y0.1015  
G01 X-1.4856 Y0.1015  
G01 X-1.5015 Y0.0856  
G01 X-1.5015 Y0.0508  
G01 X-1.5014 Y0.0494  
G01 X-1.5015 Y0.0485  
G01 X-1.5015 Y0.0477  
G01 X-1.5018 Y0.0462  
G01 X-1.5020 Y0.0448  
G01 X-1.5022 Y0.0440  
G01 X-1.5024 Y0.0431  
G01 X-1.5030 Y0.0418  
G01 X-1.5034 Y0.0404  
G01 X-1.5039 Y0.0396  
G01 X-1.5042 Y0.0389  
G01 X-1.5050 Y0.0376  
G01 X-1.5057 Y0.0364  
G01 X-1.5063 Y0.0357  
G01 X-1.5067 Y0.0350  
G01 X-1.5078 Y0.0340  
G01 X-1.5088 Y0.0329  
G01 X-1.5094 Y0.0323  
G01 X-1.5100 Y0.0317  
G01 X-1.5113 Y0.0309  
G01 X-1.5124 Y0.0300  
G01 X-1.5132 Y0.0296  
G01 X-1.5139 Y0.0292  
G01 X-1.5152 Y0.0286  
G01 X-1.5632 Y0.0046  
G01 X-1.5639 Y0.0042  
G01 X-1.5652 Y0.0036  
G01 X-1.5666 Y0.0029  
G01 X-1.5674 Y0.0027  
G01 X-1.5681 Y0.0024  
G01 X-1.5696 Y0.0021  
G01 X-1.5710 Y0.0017  
G01 X-1.5719 Y0.0017  
G01 X-1.5727 Y0.0015  
G01 X-1.5742 Y0.0015  
G01 X-1.5756 Y0.0014  
G01 X-1.5765 Y0.0015  
G01 X-1.6994 Y0.0015  
G01 X-1.7010 Y0.0014  
G01 X-1.7017 Y0.0015  
G01 X-1.7023 Y0.0015  
G01 X-1.7040 Y0.0018  
G01 X-1.7056 Y0.0021  
G01 X-1.7062 Y0.0023  
G01 X-1.7069 Y0.0024  
G01 X-1.7084 Y0.0030  
G01 X-1.7100 Y0.0036  
G01 X-1.7105 Y0.0039  
G01 X-1.7111 Y0.0042  
G01 X-1.7125 Y0.0051  
G01 X-1.7140 Y0.0060  
G01 X-1.7144 Y0.0064  
G01 X-1.7150 Y0.0067  
G01 X-1.7162 Y0.0079  
G01 X-1.7174 Y0.0090  
G01 X-1.7178 Y0.0096  
G01 X-1.7183 Y0.0100  
G01 X-1.7192 Y0.0114  
G01 X-1.7928 Y0.1096  
G01 X-1.7933 Y0.1100  
G01 X-1.7942 Y0.1114  
G01 X-1.7952 Y0.1128  
G01 X-1.7955 Y0.1133  
G01 X-1.7958 Y0.1139  
G01 X-1.7965 Y0.1154  
G01 X-1.7972 Y0.1169  
G01 X-1.7974 Y0.1175  
G01 X-1.7976 Y0.1181  
G01 X-1.7979 Y0.1198  
G01 X-1.7983 Y0.1214  
G01 X-1.7984 Y0.1221  
G01 X-1.7985 Y0.1227  
G01 X-1.7985 Y0.1244  
G01 X-1.7986 Y0.1260  
G01 X-1.7985 Y0.1267  
G01 X-1.7985 Y0.8185  
G01 X-1.8699 Y0.9374  
G01 X-1.8708 Y0.9389  
G01 X-1.8710 Y0.9394  
G01 X-1.8713 Y0.9399  
G01 X-1.8719 Y0.9415  
G01 X-1.8726 Y0.9431  
G01 X-1.8727 Y0.9437  
G01 X-1.8729 Y0.9443  
G01 X-1.8732 Y0.9460  
G01 X-1.8735 Y0.9477  
G01 X-1.8735 Y0.9483  
G01 X-1.8736 Y0.9488  
G01 X-1.8735 Y0.9506  
G01 X-1.8735 Y2.4231  
G01 X-1.8736 Y2.4235  
G01 X-1.8735 Y2.4254  
G01 X-1.8735 Y2.4273  
G01 X-1.8734 Y2.4277  
G01 X-1.8734 Y2.4281  
G01 X-1.8730 Y2.4300  
G01 X-1.8726 Y2.4319  
G01 X-1.8724 Y2.4322  
G01 X-1.8723 Y2.4326  
G01 X-1.8716 Y2.4344  
G01 X-1.8708 Y2.4361  
G01 X-1.8706 Y2.4365  
G01 X-1.8704 Y2.4368  
G01 X-1.8693 Y2.4384  
G01 X-1.8683 Y2.4400  
G01 X-1.8680 Y2.4403  
G01 X-1.8677 Y2.4406  
G01 X-1.8663 Y2.4419  
G01 X-1.8650 Y2.4433  
G01 X-1.8646 Y2.4435  
G01 X-1.4670 Y2.8147  
G01 X-1.4663 Y2.8155  
G01 X-1.4656 Y2.8161  
G01 X-1.4649 Y2.8167  
G01 X-1.4646 Y2.8170  
G01 X-1.4643 Y2.8172  
G01 X-1.4635 Y2.8178  
G01 X-1.1156 Y3.0926  
G01 X-1.1150 Y3.0933  
G01 X-1.1138 Y3.0940  
G01 X-1.1128 Y3.0949  
G01 X-1.1119 Y3.0953  
G01 X-1.1111 Y3.0958  
G01 X-1.1099 Y3.0964  
G01 X-1.1086 Y3.0970  
G01 X-1.1077 Y3.0972  
G01 X-1.1069 Y3.0976  
G01 X-1.1055 Y3.0979  
G01 X-1.1042 Y3.0982  
G01 X-1.1032 Y3.0983  
G01 X-1.1023 Y3.0985  
G01 X-1.1009 Y3.0985  
G01 X-1.0996 Y3.0986  
G01 X-1.0986 Y3.0985  
G01 X-0.2015 Y3.0985  
G01 X-0.2006 Y3.0986  
G01 X-0.1992 Y3.0985  
G01 X-0.1977 Y3.0985  
G01 X-0.1969 Y3.0983  
G01 X-0.1960 Y3.0983  
G01 X-0.1946 Y3.0979  
G01 X-0.1931 Y3.0976  
G01 X-0.1924 Y3.0973  
G01 X-0.1916 Y3.0971  
G01 X-0.1902 Y3.0964  
G01 X-0.1889 Y3.0958  
G01 X-0.1882 Y3.0954  
G01 X-0.0902 Y3.0464  
G01 X-0.0889 Y3.0458  
G01 X-0.0882 Y3.0454  
G01 X-0.0874 Y3.0450  
G01 X-0.0863 Y3.0441  
G01 X-0.0850 Y3.0433  
G01 X-0.0844 Y3.0427  
G01 X-0.0838 Y3.0421  
G01 X-0.0828 Y3.0410  
G01 X-0.0817 Y3.0400  
G01 X-0.0813 Y3.0393  
G01 X-0.0807 Y3.0386  
G01 X-0.0800 Y3.0374  
G01 X-0.0792 Y3.0361  
G01 X-0.0789 Y3.0354  
G01 X-0.0784 Y3.0346  
G01 X-0.0780 Y3.0332  
G01 X-0.0774 Y3.0319  
G01 X-0.0772 Y3.0310  
G01 X-0.0770 Y3.0302  
G01 X-0.0768 Y3.0288  
G01 X-0.0765 Y3.0273  
G01 X-0.0765 Y3.0265  
G01 X-0.0764 Y3.0256  
G01 X-0.0764 Y3.0252  
G01 X-0.0683 Y3.0210  
G01 X-0.0610 Y3.0157  
G01 X-0.0546 Y3.0093  
G01 X-0.0492 Y3.0020  
G01 X-0.0451 Y2.9939  
G01 X-0.0423 Y2.9853  
G01 X-0.0409 Y2.9764  
G01 X-0.0409 Y2.8673  
G01 X-0.0423 Y2.8584  
G01 X-0.0451 Y2.8498  
G01 X-0.0492 Y2.8417  
G01 X-0.0546 Y2.8344  
G01 X-0.0610 Y2.8280  
G01 X-0.0683 Y2.8227  
G01 X-0.0764 Y2.8186  
G01 X-0.0765 Y2.8185  
G01 X-0.0765 Y2.5666  
G01 X-0.0735 Y2.5650  
G01 X-0.0671 Y2.5604  
G01 X-0.0615 Y2.5547  
G01 X-0.0568 Y2.5483  
G01 X-0.0532 Y2.5412  
G01 X-0.0507 Y2.5337  
G01 X-0.0495 Y2.5258  
G01 X-0.0495 Y2.5179  
G01 X-0.0507 Y2.5100  
G01 X-0.0532 Y2.5025  
G01 X-0.0568 Y2.4954  
G01 X-0.0615 Y2.4890  
G01 X-0.0671 Y2.4833  
G01 X-0.0735 Y2.4787  
G01 X-0.0765 Y2.4771  
G01 X-0.0765 Y2.3697  
G01 X-0.0735 Y2.3682  
G01 X-0.0671 Y2.3635  
G01 X-0.0615 Y2.3579  
G01 X-0.0568 Y2.3515  
G01 X-0.0553 Y2.3485  
G01 X-0.0227 Y2.3485  
G01 X-0.0181 Y2.3476  
G01 X-0.0139 Y2.3458  
G01 X-0.0100 Y2.3433  
G01 X-0.0067 Y2.3400  
G01 X-0.0042 Y2.3361  
G01 X-0.0024 Y2.3319  
G01 X-0.0015 Y2.3273  
G01 X-0.0015 Y2.0515  
G01 X-0.0014 Y2.0506  
G01 X-0.0015 Y2.0492  
G01 X-0.0015 Y2.0477  
G01 X-0.0017 Y2.0469  
G01 X-0.0017 Y2.0460  
G01 X-0.0021 Y2.0446  
G01 X-0.0024 Y2.0431  
G01 X-0.0027 Y2.0424  
G01 X-0.0029 Y2.0416  
G01 X-0.0036 Y2.0402  
G01 X-0.0042 Y2.0389  
G01 X-0.0046 Y2.0382  
G01 X-0.0050 Y2.0374  
G01 X-0.0059 Y2.0363  
G01 X-0.0067 Y2.0350  
G01 X-0.0073 Y2.0344  
G01 X-0.0079 Y2.0338  
G01 X-0.0090 Y2.0328  
G01 X-0.0100 Y2.0317  
G01 X-0.0107 Y2.0313  
G01 X-0.0114 Y2.0307  
G01 X-0.0126 Y2.0300  
G01 X-0.0139 Y2.0292  
G01 X-0.0146 Y2.0289  
G01 X-0.0154 Y2.0284  
G01 X-0.0168 Y2.0280  
G01 X-0.0181 Y2.0274  
G01 X-0.0190 Y2.0272  
G01 X-0.0908 Y2.0033  
G01 X-0.0912 Y2.0031  
G01 X-0.0930 Y2.0026  
G01 X-0.0948 Y2.0020  
G01 X-0.0952 Y2.0019  
G01 X-0.0957 Y2.0018  
G01 X-0.0975 Y2.0016  
G01 X-0.0994 Y2.0014  
G01 X-0.0998 Y2.0014  
G01 X-0.1003 Y2.0014  
G01 X-0.1021 Y2.0016  
G01 X-0.1040 Y2.0017  
G01 X-0.1044 Y2.0018  
G01 X-0.5190 Y2.0479  
G01 X-0.4883 Y1.9250  
G01 X-0.4793 Y1.9250  
G01 X-0.4500 Y1.8957  
G01 X-0.4500 Y1.8543  
G01 X-0.4564 Y1.8479  
G01 X-0.4056 Y1.7633  
G01 X-0.4050 Y1.7626  
G01 X-0.4044 Y1.7613  
G01 X-0.4037 Y1.7601  
G01 X-0.4034 Y1.7593  
G01 X-0.3541 Y1.6608  
G01 X-0.3532 Y1.6590  
G01 X-0.3531 Y1.6587  
G01 X-0.3529 Y1.6584  
G01 X-0.3524 Y1.6565  
G01 X-0.3518 Y1.6546  
G01 X-0.3518 Y1.6543  
G01 X-0.3517 Y1.6540  
G01 X-0.3516 Y1.6520  
G01 X-0.3514 Y1.6500  
G01 X-0.3514 Y1.6497  
G01 X-0.3514 Y1.6494  
G01 X-0.3516 Y1.6474  
G01 X-0.3742 Y1.4216  
G01 X-0.3665 Y1.4139  
G01 X-0.3665 Y1.3861  
G01 X-0.3861 Y1.3665  
G01 X-0.4139 Y1.3665  
G01 X-0.4335 Y1.3861  
G01 X-0.4335 Y1.4139  
G01 X-0.4210 Y1.4264  
G01 X-0.3991 Y1.6456  
G01 X-0.4456 Y1.7387  
G01 X-0.4974 Y1.8250  
G01 X-0.5207 Y1.8250  
G01 X-0.5500 Y1.8543  
G01 X-0.5500 Y1.8957  
G01 X-0.5335 Y1.9122  
G01 X-0.5665 Y2.0441  
G01 X-0.5835 Y2.0611  
G01 X-0.5835 Y2.0889  
G01 X-0.5639 Y2.1085  
G01 X-0.5361 Y2.1085  
G01 X-0.5233 Y2.0957  
G01 X-0.1025 Y2.0489  
G01 X-0.0485 Y2.0669  
G01 X-0.0485 Y2.3015  
G01 X-0.0553 Y2.3015  
G01 X-0.0568 Y2.2985  
G01 X-0.0615 Y2.2921  
G01 X-0.0671 Y2.2865  
G01 X-0.0735 Y2.2818  
G01 X-0.0806 Y2.2782  
G01 X-0.0882 Y2.2757  
G01 X-0.0960 Y2.2745  
G01 X-0.1040 Y2.2745  
G01 X-0.1118 Y2.2757  
G01 X-0.1194 Y2.2782  
G01 X-0.1265 Y2.2818  
G01 X-0.1329 Y2.2865  
G01 X-0.1385 Y2.2921  
G01 X-0.1432 Y2.2985  
G01 X-0.1468 Y2.3056  
G01 X-0.1493 Y2.3132  
G01 X-0.1505 Y2.3210  
G01 X-0.1505 Y2.3290  
G01 X-0.1493 Y2.3368  
G01 X-0.1468 Y2.3444  
G01 X-0.1432 Y2.3515  
G01 X-0.1385 Y2.3579  
G01 X-0.1329 Y2.3635  
G01 X-0.1265 Y2.3682  
G01 X-0.1235 Y2.3697  
G01 X-0.1235 Y2.4771  
G01 X-0.1265 Y2.4787  
G01 X-0.1329 Y2.4833  
G01 X-0.1385 Y2.4890  
G01 X-0.1432 Y2.4954  
G01 X-0.1468 Y2.5025  
G01 X-0.1493 Y2.5100  
G01 X-0.1505 Y2.5179  
G01 X-0.1505 Y2.5258  
G01 X-0.1493 Y2.5337  
G01 X-0.1468 Y2.5412  
G01 X-0.1432 Y2.5483  
G01 X-0.1385 Y2.5547  
G01 X-0.1329 Y2.5604  
G01 X-0.1265 Y2.5650  
G01 X-0.1235 Y2.5666  
G01 X-0.1235 Y2.8201  
G01 X-0.1286 Y2.8227  
G01 X-0.1359 Y2.8280  
G01 X-0.1423 Y2.8344  
G01 X-0.1476 Y2.8417  
G01 X-0.1517 Y2.8498  
G01 X-0.1545 Y2.8584  
G01 X-0.1559 Y2.8673  
G01 X-0.1559 Y2.9764  
G01 X-0.1545 Y2.9853  
G01 X-0.1517 Y2.9939  
G01 X-0.1476 Y3.0020  
G01 X-0.1423 Y3.0093  
G01 X-0.1359 Y3.0157  
G01 X-0.1351 Y3.0163  
G01 X-0.2055 Y3.0515  
G01 X-1.0918 Y3.0515  
G01 X-1.4022 Y2.8062  
G01 X-1.3998 Y2.8062  
G01 X-1.3970 Y2.8051  
G01 X-1.3949 Y2.8030  
G01 X-1.3938 Y2.8002  
G01 X-1.3938 Y2.7498  
G01 X-1.3949 Y2.7470  
G01 X-1.3970 Y2.7449  
G01 X-1.3998 Y2.7438  
G01 X-1.4502 Y2.7438  
G01 X-1.4530 Y2.7449  
G01 X-1.4551 Y2.7470  
G01 X-1.4562 Y2.7498  
G01 X-1.4562 Y2.7605  
G01 X-1.8265 Y2.4148  
G01 X-1.8265 Y0.9565  
G01 X-1.7551 Y0.8376  
G01 X-1.7542 Y0.8361  
G01 X-1.7540 Y0.8356  
G01 X-1.7537 Y0.8351  
G01 X-1.7531 Y0.8335  
G01 X-1.7524 Y0.8319  
G01 X-1.7523 Y0.8313  
G01 X-1.7521 Y0.8307  
G01 X-1.7518 Y0.8290  
G01 X-1.7515 Y0.8273  
G01 X-1.7515 Y0.8267  
G01 X-1.7514 Y0.8262  
G01 X-1.7515 Y0.8244  
G01 X-1.7515 Y0.1328  
G01 X-1.6883 Y0.0485  
G01 X-1.5805 Y0.0485  
G01 X-1.5485 Y0.0645  
G01 X-1.5485 Y0.0856  
G01 X-1.5695 Y0.1066  
G01 X-1.5695 Y0.1434  
G01 X-1.5485 Y0.1644  
G01 X-1.5485 Y0.1856  
G01 X-1.5695 Y0.2066  
G01 X-1.5695 Y0.2434  
G01 X-1.5434 Y0.2695  
G01 X-1.5066 Y0.2695  
G01 X-1.4856 Y0.2485  
G01 X-1.4644 Y0.2485  
G01 X-1.4434 Y0.2695  
G01 X-1.4157 Y0.2695  
G01 X-1.4010 Y0.4459  
G01 X-1.4053 Y0.4501  
G01 X-1.4096 Y0.4565  
G01 X-1.4125 Y0.4636  
G01 X-1.4140 Y0.4712  
G01 X-1.4140 Y0.4788  
G01 X-1.4125 Y0.4864  
G01 X-1.4096 Y0.4935  
G01 X-1.4053 Y0.4999  
G01 X-1.3999 Y0.5053  
G01 X-1.3935 Y0.5096  
G01 X-1.3864 Y0.5125  
G01 X-1.3788 Y0.5140  
G01 X-1.3712 Y0.5140  
G01 X-1.3636 Y0.5125  
G01 X-1.3565 Y0.5096  
G01 X-1.3501 Y0.5053  
G01 X-1.3447 Y0.4999  
G01 X-1.3438 Y0.4985  
G01 X-1.2067 Y0.4985  
G01 X-1.1912 Y0.5140  
G01 X-1.1588 Y0.5140  
G01 X-1.1360 Y0.4912  
G01 X-1.1360 Y0.4588  
G01 X-1.1588 Y0.4360  
G01 X-1.1912 Y0.4360  
G01 X-1.2067 Y0.4515  
G01 X-1.3438 Y0.4515  
G01 X-1.3447 Y0.4501  
G01 X-1.3501 Y0.4447  
G01 X-1.3542 Y0.4420  
G01 X-1.3703 Y0.2485  
G01 X-1.3644 Y0.2485  
G01 X-1.3434 Y0.2695  
G01 X-1.3066 Y0.2695  
G01 X-1.2805 Y0.2434  
G01 X-1.2805 Y0.2066  
G01 X-1.3066 Y0.1805  
G01 X-1.3434 Y0.1805  
G01 X-1.3644 Y0.2015  
G01 X-1.3742 Y0.2015  
G01 X-1.3764 Y0.1749  
G01 X-1.3764 Y0.1744  
G01 X-1.3766 Y0.1726  
G01 X-1.3768 Y0.1707  
G01 X-1.3769 Y0.1703  
G01 X-1.3770 Y0.1698  
G01 X-1.3775 Y0.1680  
G01 X-1.3781 Y0.1663  
G01 X-1.3783 Y0.1658  
G01 X-1.3784 Y0.1654  
G01 X-1.3793 Y0.1638  
G01 X-1.3802 Y0.1622  
G01 X-1.3805 Y0.1618  
G01 X-1.3807 Y0.1614  
G01 X-1.3819 Y0.1600  
G01 X-1.3831 Y0.1586  
G01 X-1.3834 Y0.1582  
G01 X-1.3838 Y0.1579  
G01 X-1.3852 Y0.1567  
G01 X-1.3866 Y0.1556  
G01 X-1.3870 Y0.1553  
G01 X-1.3874 Y0.1550  
G01 X-1.3890 Y0.1542  
G01 X-1.3905 Y0.1534  
G01 X-1.3856 Y0.1485  
G01 X-1.3644 Y0.1485  
G01 X-1.3434 Y0.1695  
G01 X-1.3066 Y0.1695  
G01 X-1.2805 Y0.1434  
G01 X-1.2805 Y0.1066  
G01 X-1.2930 Y0.0940  
G01 X-1.2817 Y0.0485  
G01 X-0.3300 Y0.0485  
G01 X-0.1219 Y0.1418  
G01 X-0.1219 Y0.2193  
G01 X-0.1286 Y0.2227  
G01 X-0.1359 Y0.2280  
G01 X-0.1423 Y0.2344  
G01 X-0.1476 Y0.2417  
G01 X-0.1517 Y0.2498  
G01 X-0.1545 Y0.2584  
G01 X-0.1559 Y0.2673  
G01 X-0.1559 Y0.3764  
G01 X-0.1545 Y0.3853  
G01 X-0.1517 Y0.3939  
G01 X-0.1476 Y0.4020  
G01 X-0.1423 Y0.4093  
G01 X-0.1359 Y0.4157  
G01 X-0.1286 Y0.4210  
G01 X-0.1205 Y0.4251  
G01 X-0.1119 Y0.4279  
G01 X-0.1030 Y0.4294  
G01 X-0.0939 Y0.4294  
G01 X-0.0850 Y0.4279  
G01 X-0.0764 Y0.4251  
G01 X-0.0683 Y0.4210  
G01 X-0.0610 Y0.4157  
G01 X-0.0546 Y0.4093  
G01 X-0.0492 Y0.4020  
G01 X-0.0451 Y0.3939  
G01 X-0.0423 Y0.3853  
G01 X-0.0409 Y0.3764  
G01 X-0.0409 Y0.2673  
G01 X-0.0423 Y0.2584  
G01 X-0.0451 Y0.2498  
G01 X-0.0492 Y0.2417  
G01 X-0.0546 Y0.2344  
G01 X-0.0610 Y0.2280  
G01 X-0.0683 Y0.2227  
G01 X-0.0749 Y0.2193  
G01 X-0.0749 Y0.1269  
G01 X-0.0749 Y0.1249  
G01 X-0.0749 Y0.1246  
G01 X-0.0749 Y0.1243  
G01 X-0.0753 Y0.1223  
G01 X-0.0756 Y0.1204  
G01 X-0.0758 Y0.1201  
G01 X-0.0758 Y0.1197  
G01 X-0.0766 Y0.1179  
G01 X-0.0773 Y0.1160  
G01 X-0.0775 Y0.1158  
G01 X-0.0776 Y0.1154  
G01 X-0.0787 Y0.1138  
G01 X-0.0797 Y0.1121  
G01 X-0.0800 Y0.1119  
G01 X-0.0802 Y0.1116  
G01 X-0.0816 Y0.1102  
G01 X-0.0829 Y0.1088  
G00 Z0.0500  
G00 X-0.4240 Y0.1126  
G01 Z-0.0040 F10    
G01 X-0.4254 Y0.1037  F20    
G01 X-0.4282 Y0.0951  
G01 X-0.4323 Y0.0870  
G01 X-0.4376 Y0.0797  
G01 X-0.4440 Y0.0733  
G01 X-0.4514 Y0.0679  
G01 X-0.4594 Y0.0638  
G01 X-0.4680 Y0.0610  
G01 X-0.4770 Y0.0596  
G01 X-0.5860 Y0.0596  
G01 X-0.5950 Y0.0610  
G01 X-0.6036 Y0.0638  
G01 X-0.6116 Y0.0679  
G01 X-0.6190 Y0.0733  
G01 X-0.6254 Y0.0797  
G01 X-0.6307 Y0.0870  
G01 X-0.6348 Y0.0951  
G01 X-0.6376 Y0.1037  
G01 X-0.6390 Y0.1126  
G01 X-0.6390 Y0.1217  
G01 X-0.6376 Y0.1306  
G01 X-0.6348 Y0.1392  
G01 X-0.6307 Y0.1473  
G01 X-0.6254 Y0.1546  
G01 X-0.6190 Y0.1610  
G01 X-0.6116 Y0.1663  
G01 X-0.6036 Y0.1704  
G01 X-0.5950 Y0.1732  
G01 X-0.5860 Y0.1746  
G01 X-0.4770 Y0.1746  
G01 X-0.4680 Y0.1732  
G01 X-0.4594 Y0.1704  
G01 X-0.4514 Y0.1663  
G01 X-0.4440 Y0.1610  
G01 X-0.4376 Y0.1546  
G01 X-0.4323 Y0.1473  
G01 X-0.4282 Y0.1392  
G01 X-0.4254 Y0.1306  
G01 X-0.4240 Y0.1217  
G01 X-0.4240 Y0.1126  
G00 Z0.0500  
G00 X-0.5743 Y0.2344  
G01 Z-0.0040 F10    
G01 X-0.5807 Y0.2280  F20    
G01 X-0.5880 Y0.2227  
G01 X-0.5960 Y0.2186  
G01 X-0.6046 Y0.2158  
G01 X-0.6136 Y0.2144  
G01 X-0.6226 Y0.2144  
G01 X-0.6316 Y0.2158  
G01 X-0.6402 Y0.2186  
G01 X-0.6482 Y0.2227  
G01 X-0.6556 Y0.2280  
G01 X-0.6620 Y0.2344  
G01 X-0.6673 Y0.2417  
G01 X-0.6714 Y0.2498  
G01 X-0.6742 Y0.2584  
G01 X-0.6756 Y0.2673  
G01 X-0.6756 Y0.3461  
G01 X-0.7634 Y0.4339  
G01 X-0.7805 Y0.4412  
G01 X-0.7815 Y0.4404  
G01 X-0.7886 Y0.4375  
G01 X-0.7962 Y0.4360  
G01 X-0.8038 Y0.4360  
G01 X-0.8114 Y0.4375  
G01 X-0.8185 Y0.4404  
G01 X-0.8249 Y0.4447  
G01 X-0.8303 Y0.4501  
G01 X-0.8346 Y0.4565  
G01 X-0.8375 Y0.4636  
G01 X-0.8390 Y0.4712  
G01 X-0.8390 Y0.4788  
G01 X-0.8375 Y0.4864  
G01 X-0.8346 Y0.4935  
G01 X-0.8303 Y0.4999  
G01 X-0.8249 Y0.5053  
G01 X-0.8185 Y0.5096  
G01 X-0.8114 Y0.5125  
G01 X-0.8038 Y0.5140  
G01 X-0.7962 Y0.5140  
G01 X-0.7886 Y0.5125  
G01 X-0.7815 Y0.5096  
G01 X-0.7751 Y0.5053  
G01 X-0.7697 Y0.4999  
G01 X-0.7654 Y0.4935  
G01 X-0.7625 Y0.4864  
G01 X-0.7621 Y0.4844  
G01 X-0.7409 Y0.4754  
G01 X-0.7389 Y0.4746  
G01 X-0.7387 Y0.4745  
G01 X-0.7369 Y0.4732  
G01 X-0.7350 Y0.4720  
G01 X-0.7348 Y0.4719  
G01 X-0.7333 Y0.4703  
G01 X-0.6663 Y0.4033  
G01 X-0.6620 Y0.4093  
G01 X-0.6556 Y0.4157  
G01 X-0.6482 Y0.4210  
G01 X-0.6402 Y0.4251  
G01 X-0.6316 Y0.4279  
G01 X-0.6226 Y0.4294  
G01 X-0.6136 Y0.4294  
G01 X-0.6046 Y0.4279  
G01 X-0.5960 Y0.4251  
G01 X-0.5880 Y0.4210  
G01 X-0.5807 Y0.4157  
G01 X-0.5743 Y0.4093  
G01 X-0.5689 Y0.4020  
G01 X-0.5648 Y0.3939  
G01 X-0.5620 Y0.3853  
G01 X-0.5606 Y0.3764  
G01 X-0.5606 Y0.2673  
G01 X-0.5620 Y0.2584  
G01 X-0.5648 Y0.2498  
G01 X-0.5689 Y0.2417  
G01 X-0.5743 Y0.2344  
G00 Z0.0500  
G00 X-0.8805 Y0.2434  
G01 Z-0.0040 F10    
G01 X-0.8805 Y0.2066  F20    
G01 X-0.9066 Y0.1805  
G01 X-0.9434 Y0.1805  
G01 X-0.9695 Y0.2066  
G01 X-0.9695 Y0.2434  
G01 X-0.9434 Y0.2695  
G01 X-0.9066 Y0.2695  
G01 X-0.8805 Y0.2434  
G00 Z0.0500  
G00 X-0.9066 Y0.1695  
G01 Z-0.0040 F10    
G01 X-0.8805 Y0.1434  F20    
G01 X-0.8805 Y0.1066  
G01 X-0.9066 Y0.0805  
G01 X-0.9434 Y0.0805  
G01 X-0.9695 Y0.1066  
G01 X-0.9695 Y0.1434  
G01 X-0.9434 Y0.1695  
G01 X-0.9066 Y0.1695  
G00 Z0.0500  
G00 X-1.0066 Y0.1695  
G01 Z-0.0040 F10    
G01 X-0.9805 Y0.1434  F20    
G01 X-0.9805 Y0.1066  
G01 X-1.0066 Y0.0805  
G01 X-1.0434 Y0.0805  
G01 X-1.0695 Y0.1066  
G01 X-1.0695 Y0.1434  
G01 X-1.0434 Y0.1695  
G01 X-1.0066 Y0.1695  
G00 Z0.0500  
G00 X-1.0066 Y0.1805  
G01 Z-0.0040 F10    
G01 X-1.0434 Y0.1805  F20    
G01 X-1.0695 Y0.2066  
G01 X-1.0695 Y0.2434  
G01 X-1.0434 Y0.2695  
G01 X-1.0066 Y0.2695  
G01 X-0.9805 Y0.2434  
G01 X-0.9805 Y0.2066  
G01 X-1.0066 Y0.1805  
G00 Z0.0500  
G00 X-1.0805 Y0.2066  
G01 Z-0.0040 F10    
G01 X-1.1066 Y0.1805  F20    
G01 X-1.1434 Y0.1805  
G01 X-1.1695 Y0.2066  
G01 X-1.1695 Y0.2182  
G01 X-1.2015 Y0.1755  
G01 X-1.2015 Y0.1644  
G01 X-1.1805 Y0.1434  
G01 X-1.1805 Y0.1066  
G01 X-1.2066 Y0.0805  
G01 X-1.2434 Y0.0805  
G01 X-1.2695 Y0.1066  
G01 X-1.2695 Y0.1368  
G01 X-1.2700 Y0.1374  
G01 X-1.2706 Y0.1387  
G01 X-1.2714 Y0.1400  
G01 X-1.2717 Y0.1408  
G01 X-1.2721 Y0.1416  
G01 X-1.2724 Y0.1430  
G01 X-1.2729 Y0.1444  
G01 X-1.2731 Y0.1452  
G01 X-1.2733 Y0.1460  
G01 X-1.2734 Y0.1475  
G01 X-1.2736 Y0.1490  
G01 X-1.2735 Y0.1498  
G01 X-1.2736 Y0.1506  
G01 X-1.2734 Y0.1521  
G01 X-1.2733 Y0.1536  
G01 X-1.2731 Y0.1544  
G01 X-1.2730 Y0.1552  
G01 X-1.2726 Y0.1566  
G01 X-1.2722 Y0.1581  
G01 X-1.2718 Y0.1588  
G01 X-1.2593 Y0.1964  
G01 X-1.2695 Y0.2066  
G01 X-1.2695 Y0.2434  
G01 X-1.2434 Y0.2695  
G01 X-1.2066 Y0.2695  
G01 X-1.1970 Y0.2599  
G01 X-1.1220 Y0.3598  
G01 X-1.1042 Y0.4490  
G01 X-1.1053 Y0.4501  
G01 X-1.1096 Y0.4565  
G01 X-1.1125 Y0.4636  
G01 X-1.1140 Y0.4712  
G01 X-1.1140 Y0.4788  
G01 X-1.1125 Y0.4864  
G01 X-1.1096 Y0.4935  
G01 X-1.1053 Y0.4999  
G01 X-1.0999 Y0.5053  
G01 X-1.0944 Y0.5089  
G01 X-1.0735 Y0.6765  
G01 X-1.0735 Y1.0987  
G01 X-1.0736 Y1.0997  
G01 X-1.0735 Y1.1010  
G01 X-1.0735 Y1.1023  
G01 X-1.0733 Y1.1033  
G01 X-1.0732 Y1.1043  
G01 X-1.0729 Y1.1056  
G01 X-1.0726 Y1.1069  
G01 X-1.0722 Y1.1078  
G01 X-1.0719 Y1.1088  
G01 X-1.0713 Y1.1099  
G01 X-1.0708 Y1.1111  
G01 X-1.0703 Y1.1120  
G01 X-1.0698 Y1.1129  
G01 X-1.0690 Y1.1139  
G01 X-1.0683 Y1.1150  
G01 X-1.0675 Y1.1157  
G01 X-0.9735 Y1.2332  
G01 X-0.9735 Y1.3153  
G01 X-1.0683 Y1.4100  
G01 X-1.0708 Y1.4139  
G01 X-1.0726 Y1.4181  
G01 X-1.0735 Y1.4227  
G01 X-1.0735 Y1.8494  
G01 X-1.0736 Y1.8512  
G01 X-1.0735 Y1.8517  
G01 X-1.0735 Y1.8523  
G01 X-1.0732 Y1.8540  
G01 X-1.0729 Y1.8557  
G01 X-1.0727 Y1.8563  
G01 X-1.0726 Y1.8569  
G01 X-1.0719 Y1.8585  
G01 X-1.0713 Y1.8601  
G01 X-1.0710 Y1.8606  
G01 X-1.0708 Y1.8611  
G01 X-1.0699 Y1.8626  
G01 X-1.0690 Y1.8641  
G01 X-1.0686 Y1.8645  
G01 X-1.0683 Y1.8650  
G01 X-1.0670 Y1.8662  
G01 X-1.0658 Y1.8675  
G01 X-1.0654 Y1.8678  
G01 X-1.0650 Y1.8683  
G01 X-1.0635 Y1.8692  
G01 X-1.0621 Y1.8703  
G01 X-1.0616 Y1.8705  
G01 X-1.0611 Y1.8708  
G01 X-1.0595 Y1.8715  
G01 X-1.0579 Y1.8722  
G01 X-1.0574 Y1.8724  
G01 X-1.0569 Y1.8726  
G01 X-1.0551 Y1.8729  
G01 X-1.0082 Y1.8847  
G01 X-1.0082 Y1.8848  
G01 X-1.0057 Y1.8909  
G01 X-1.0020 Y1.8964  
G01 X-0.9974 Y1.9010  
G01 X-0.9919 Y1.9047  
G01 X-0.9858 Y1.9072  
G01 X-0.9793 Y1.9085  
G01 X-0.9207 Y1.9085  
G01 X-0.9164 Y1.9076  
G01 X-0.8654 Y1.9204  
G01 X-0.7835 Y2.0637  
G01 X-0.7835 Y2.0889  
G01 X-0.7639 Y2.1085  
G01 X-0.7361 Y2.1085  
G01 X-0.7165 Y2.0889  
G01 X-0.7165 Y2.0611  
G01 X-0.7361 Y2.0415  
G01 X-0.7421 Y2.0415  
G01 X-0.8286 Y1.8901  
G01 X-0.8287 Y1.8899  
G01 X-0.8297 Y1.8881  
G01 X-0.8307 Y1.8863  
G01 X-0.8309 Y1.8861  
G01 X-0.8310 Y1.8859  
G01 X-0.8324 Y1.8844  
G01 X-0.8338 Y1.8828  
G01 X-0.8340 Y1.8827  
G01 X-0.8341 Y1.8825  
G01 X-0.8358 Y1.8813  
G01 X-0.8374 Y1.8800  
G01 X-0.8377 Y1.8799  
G01 X-0.8379 Y1.8797  
G01 X-0.8397 Y1.8789  
G01 X-0.8416 Y1.8779  
G01 X-0.8418 Y1.8779  
G01 X-0.8421 Y1.8778  
G01 X-0.8441 Y1.8773  
G01 X-0.8460 Y1.8767  
G01 X-0.8463 Y1.8767  
G01 X-0.8918 Y1.8653  
G01 X-0.8918 Y1.8652  
G01 X-0.8943 Y1.8591  
G01 X-0.8980 Y1.8536  
G01 X-0.9026 Y1.8490  
G01 X-0.9081 Y1.8453  
G01 X-0.9142 Y1.8428  
G01 X-0.9207 Y1.8415  
G01 X-0.9793 Y1.8415  
G01 X-0.9836 Y1.8424  
G01 X-1.0265 Y1.8317  
G01 X-1.0265 Y1.4347  
G01 X-0.9350 Y1.3433  
G01 X-0.9317 Y1.3400  
G01 X-0.9292 Y1.3361  
G01 X-0.9274 Y1.3319  
G01 X-0.9265 Y1.3273  
G01 X-0.9265 Y1.2263  
G01 X-0.9264 Y1.2253  
G01 X-0.9265 Y1.2240  
G01 X-0.9265 Y1.2227  
G01 X-0.9267 Y1.2217  
G01 X-0.9268 Y1.2207  
G01 X-0.9271 Y1.2194  
G01 X-0.9274 Y1.2181  
G01 X-0.9278 Y1.2172  
G01 X-0.9281 Y1.2162  
G01 X-0.9287 Y1.2151  
G01 X-0.9292 Y1.2139  
G01 X-0.9297 Y1.2130  
G01 X-0.9302 Y1.2121  
G01 X-0.9310 Y1.2111  
G01 X-0.9317 Y1.2100  
G01 X-0.9325 Y1.2093  
G01 X-1.0265 Y1.0918  
G01 X-1.0265 Y0.6758  
G01 X-1.0264 Y0.6744  
G01 X-1.0265 Y0.6735  
G01 X-1.0265 Y0.6727  
G01 X-1.0268 Y0.6712  
G01 X-1.0478 Y0.5030  
G01 X-1.0447 Y0.4999  
G01 X-1.0404 Y0.4935  
G01 X-1.0375 Y0.4864  
G01 X-1.0360 Y0.4788  
G01 X-1.0360 Y0.4712  
G01 X-1.0375 Y0.4636  
G01 X-1.0404 Y0.4565  
G01 X-1.0447 Y0.4501  
G01 X-1.0501 Y0.4447  
G01 X-1.0565 Y0.4404  
G01 X-1.0581 Y0.4398  
G01 X-1.0766 Y0.3470  
G01 X-1.0767 Y0.3464  
G01 X-1.0771 Y0.3448  
G01 X-1.0774 Y0.3431  
G01 X-1.0777 Y0.3425  
G01 X-1.0778 Y0.3419  
G01 X-1.0785 Y0.3404  
G01 X-1.0792 Y0.3388  
G01 X-1.0795 Y0.3383  
G01 X-1.0798 Y0.3378  
G01 X-1.0808 Y0.3364  
G01 X-1.0818 Y0.3350  
G01 X-1.0822 Y0.3346  
G01 X-1.1310 Y0.2695  
G01 X-1.1066 Y0.2695  
G01 X-1.0805 Y0.2434  
G01 X-1.0805 Y0.2066  
G00 Z0.0500  
G00 X-1.1066 Y0.1695  
G01 Z-0.0040 F10    
G01 X-1.0805 Y0.1434  F20    
G01 X-1.0805 Y0.1066  
G01 X-1.1066 Y0.0805  
G01 X-1.1434 Y0.0805  
G01 X-1.1695 Y0.1066  
G01 X-1.1695 Y0.1434  
G01 X-1.1434 Y0.1695  
G01 X-1.1066 Y0.1695  
G00 Z0.0500  
G00 X-1.4235 Y0.1695  
G01 Z-0.0040 F10    
G01 X-1.4290 Y0.1805  F20    
G01 X-1.4434 Y0.1805  
G01 X-1.4644 Y0.2015  
G01 X-1.4856 Y0.2015  
G01 X-1.5015 Y0.1856  
G01 X-1.5015 Y0.1644  
G01 X-1.4856 Y0.1485  
G01 X-1.4644 Y0.1485  
G01 X-1.4434 Y0.1695  
G01 X-1.4235 Y0.1695  
G00 Z0.0500  
G00 X-1.6015 Y0.1644  
G01 Z-0.0040 F10    
G01 X-1.5805 Y0.1434  F20    
G01 X-1.5805 Y0.1066  
G01 X-1.6066 Y0.0805  
G01 X-1.6434 Y0.0805  
G01 X-1.6695 Y0.1066  
G01 X-1.6695 Y0.1434  
G01 X-1.6485 Y0.1644  
G01 X-1.6485 Y0.1856  
G01 X-1.6695 Y0.2066  
G01 X-1.6695 Y0.2434  
G01 X-1.6635 Y0.2494  
G01 X-1.6704 Y0.2632  
G01 X-1.6708 Y0.2639  
G01 X-1.6714 Y0.2652  
G01 X-1.6721 Y0.2666  
G01 X-1.6723 Y0.2674  
G01 X-1.6726 Y0.2681  
G01 X-1.6729 Y0.2696  
G01 X-1.6733 Y0.2710  
G01 X-1.6733 Y0.2719  
G01 X-1.6735 Y0.2727  
G01 X-1.6735 Y0.2742  
G01 X-1.6736 Y0.2756  
G01 X-1.6735 Y0.2765  
G01 X-1.6735 Y0.2773  
G01 X-1.6732 Y0.2788  
G01 X-1.6730 Y0.2802  
G01 X-1.6728 Y0.2810  
G01 X-1.6726 Y0.2819  
G01 X-1.6720 Y0.2832  
G01 X-1.6716 Y0.2846  
G01 X-1.6711 Y0.2854  
G01 X-1.6708 Y0.2861  
G01 X-1.6700 Y0.2874  
G01 X-1.6693 Y0.2886  
G01 X-1.6687 Y0.2893  
G01 X-1.6683 Y0.2900  
G01 X-1.6672 Y0.2910  
G01 X-1.6662 Y0.2921  
G01 X-1.6656 Y0.2927  
G01 X-1.5433 Y0.4150  
G01 X-1.5140 Y0.4589  
G01 X-1.5140 Y0.4912  
G01 X-1.4912 Y0.5140  
G01 X-1.4731 Y0.6045  
G01 X-1.4726 Y0.6069  
G01 X-1.4717 Y0.6090  
G01 X-1.4708 Y0.6111  
G01 X-1.4696 Y0.6130  
G01 X-1.4683 Y0.6150  
G01 X-1.4666 Y0.6166  
G01 X-1.4650 Y0.6183  
G01 X-1.4630 Y0.6196  
G01 X-1.4611 Y0.6208  
G01 X-1.4590 Y0.6217  
G01 X-1.4569 Y0.6226  
G01 X-1.4546 Y0.6231  
G01 X-1.4523 Y0.6235  
G01 X-1.4500 Y0.6235  
G01 X-1.1970 Y0.6235  
G01 X-1.1735 Y0.9758  
G01 X-1.1735 Y1.0653  
G01 X-1.2650 Y1.1567  
G01 X-1.2683 Y1.1600  
G01 X-1.2708 Y1.1639  
G01 X-1.2726 Y1.1681  
G01 X-1.2735 Y1.1727  
G01 X-1.2735 Y1.3773  
G01 X-1.2726 Y1.3819  
G01 X-1.2708 Y1.3861  
G01 X-1.2683 Y1.3900  
G01 X-1.1735 Y1.4847  
G01 X-1.1735 Y1.8355  
G01 X-1.2019 Y1.8497  
G01 X-1.2026 Y1.8490  
G01 X-1.2081 Y1.8453  
G01 X-1.2142 Y1.8428  
G01 X-1.2207 Y1.8415  
G01 X-1.2793 Y1.8415  
G01 X-1.2858 Y1.8428  
G01 X-1.2919 Y1.8453  
G01 X-1.2974 Y1.8490  
G01 X-1.2999 Y1.8515  
G01 X-1.3403 Y1.8515  
G01 X-1.3665 Y1.8253  
G01 X-1.3665 Y1.8111  
G01 X-1.3861 Y1.7915  
G01 X-1.4139 Y1.7915  
G01 X-1.4335 Y1.8111  
G01 X-1.4335 Y1.8389  
G01 X-1.4139 Y1.8585  
G01 X-1.3997 Y1.8585  
G01 X-1.3650 Y1.8933  
G01 X-1.3611 Y1.8958  
G01 X-1.3569 Y1.8976  
G01 X-1.3523 Y1.8985  
G01 X-1.2999 Y1.8985  
G01 X-1.2974 Y1.9010  
G01 X-1.2919 Y1.9047  
G01 X-1.2858 Y1.9072  
G01 X-1.2793 Y1.9085  
G01 X-1.2207 Y1.9085  
G01 X-1.2142 Y1.9072  
G01 X-1.2081 Y1.9047  
G01 X-1.2026 Y1.9010  
G01 X-1.2002 Y1.8986  
G01 X-1.1992 Y1.8985  
G01 X-1.1977 Y1.8985  
G01 X-1.1969 Y1.8983  
G01 X-1.1960 Y1.8983  
G01 X-1.1946 Y1.8979  
G01 X-1.1931 Y1.8976  
G01 X-1.1924 Y1.8973  
G01 X-1.1916 Y1.8971  
G01 X-1.1902 Y1.8964  
G01 X-1.1889 Y1.8958  
G01 X-1.1882 Y1.8954  
G01 X-1.1402 Y1.8714  
G01 X-1.1389 Y1.8708  
G01 X-1.1382 Y1.8704  
G01 X-1.1374 Y1.8700  
G01 X-1.1363 Y1.8691  
G01 X-1.1350 Y1.8683  
G01 X-1.1344 Y1.8677  
G01 X-1.1338 Y1.8671  
G01 X-1.1328 Y1.8660  
G01 X-1.1317 Y1.8650  
G01 X-1.1313 Y1.8643  
G01 X-1.1307 Y1.8636  
G01 X-1.1300 Y1.8624  
G01 X-1.1292 Y1.8611  
G01 X-1.1289 Y1.8604  
G01 X-1.1284 Y1.8596  
G01 X-1.1280 Y1.8582  
G01 X-1.1274 Y1.8569  
G01 X-1.1272 Y1.8560  
G01 X-1.1270 Y1.8552  
G01 X-1.1268 Y1.8538  
G01 X-1.1265 Y1.8523  
G01 X-1.1265 Y1.8515  
G01 X-1.1264 Y1.8506  
G01 X-1.1265 Y1.8492  
G01 X-1.1265 Y1.4727  
G01 X-1.1274 Y1.4681  
G01 X-1.1292 Y1.4639  
G01 X-1.1317 Y1.4600  
G01 X-1.1350 Y1.4567  
G01 X-1.2265 Y1.3653  
G01 X-1.2265 Y1.1847  
G01 X-1.1317 Y1.0900  
G01 X-1.1292 Y1.0861  
G01 X-1.1274 Y1.0819  
G01 X-1.1265 Y1.0773  
G01 X-1.1265 Y0.9765  
G01 X-1.1264 Y0.9757  
G01 X-1.1265 Y0.9742  
G01 X-1.1265 Y0.9727  
G01 X-1.1267 Y0.9719  
G01 X-1.1515 Y0.5992  
G01 X-1.1515 Y0.5977  
G01 X-1.1517 Y0.5969  
G01 X-1.1517 Y0.5961  
G01 X-1.1521 Y0.5946  
G01 X-1.1524 Y0.5931  
G01 X-1.1527 Y0.5924  
G01 X-1.1529 Y0.5917  
G01 X-1.1536 Y0.5903  
G01 X-1.1542 Y0.5889  
G01 X-1.1546 Y0.5882  
G01 X-1.1550 Y0.5875  
G01 X-1.1559 Y0.5863  
G01 X-1.1567 Y0.5850  
G01 X-1.1573 Y0.5845  
G01 X-1.1578 Y0.5838  
G01 X-1.1589 Y0.5828  
G01 X-1.1600 Y0.5817  
G01 X-1.1607 Y0.5813  
G01 X-1.1613 Y0.5808  
G01 X-1.1626 Y0.5800  
G01 X-1.1639 Y0.5792  
G01 X-1.1646 Y0.5789  
G01 X-1.1653 Y0.5785  
G01 X-1.1667 Y0.5780  
G01 X-1.1681 Y0.5774  
G01 X-1.1689 Y0.5772  
G01 X-1.1697 Y0.5770  
G01 X-1.1712 Y0.5768  
G01 X-1.1727 Y0.5765  
G01 X-1.1735 Y0.5765  
G01 X-1.1743 Y0.5764  
G01 X-1.1758 Y0.5765  
G01 X-1.4307 Y0.5765  
G01 X-1.4458 Y0.5010  
G01 X-1.4360 Y0.4912  
G01 X-1.4360 Y0.4588  
G01 X-1.4588 Y0.4360  
G01 X-1.4728 Y0.4360  
G01 X-1.5042 Y0.3889  
G01 X-1.5055 Y0.3870  
G01 X-1.5067 Y0.3850  
G01 X-1.5084 Y0.3834  
G01 X-1.5100 Y0.3818  
G01 X-1.6214 Y0.2704  
G01 X-1.6210 Y0.2695  
G01 X-1.6066 Y0.2695  
G01 X-1.5805 Y0.2434  
G01 X-1.5805 Y0.2066  
G01 X-1.6015 Y0.1856  
G01 X-1.6015 Y0.1644  
G00 Z0.0500  
G00 X-1.2780 Y0.6699  
G01 Z-0.0040 F10    
G01 X-1.2801 Y0.6720  F20    
G01 X-1.2812 Y0.6748  
G01 X-1.2812 Y0.6908  
G01 X-1.7854 Y0.9789  
G01 X-1.7861 Y0.9792  
G01 X-1.7874 Y0.9800  
G01 X-1.7887 Y0.9807  
G01 X-1.7893 Y0.9813  
G01 X-1.7900 Y0.9817  
G01 X-1.7910 Y0.9828  
G01 X-1.7922 Y0.9838  
G01 X-1.7927 Y0.9844  
G01 X-1.7933 Y0.9850  
G01 X-1.7941 Y0.9863  
G01 X-1.7950 Y0.9874  
G01 X-1.7954 Y0.9882  
G01 X-1.7958 Y0.9889  
G01 X-1.7964 Y0.9902  
G01 X-1.7971 Y0.9916  
G01 X-1.7973 Y0.9924  
G01 X-1.7976 Y0.9931  
G01 X-1.7979 Y0.9946  
G01 X-1.7983 Y0.9960  
G01 X-1.7983 Y0.9969  
G01 X-1.7985 Y0.9977  
G01 X-1.7985 Y0.9992  
G01 X-1.7986 Y1.0007  
G01 X-1.7985 Y1.0015  
G01 X-1.7985 Y2.3982  
G01 X-1.7986 Y2.3987  
G01 X-1.7985 Y2.4005  
G01 X-1.7985 Y2.4023  
G01 X-1.7984 Y2.4028  
G01 X-1.7984 Y2.4033  
G01 X-1.7979 Y2.4051  
G01 X-1.7976 Y2.4069  
G01 X-1.7974 Y2.4073  
G01 X-1.7973 Y2.4078  
G01 X-1.7965 Y2.4095  
G01 X-1.7958 Y2.4111  
G01 X-1.7955 Y2.4116  
G01 X-1.7953 Y2.4120  
G01 X-1.7943 Y2.4135  
G01 X-1.7933 Y2.4150  
G01 X-1.7929 Y2.4153  
G01 X-1.7926 Y2.4158  
G01 X-1.7913 Y2.4170  
G01 X-1.7900 Y2.4183  
G01 X-1.7896 Y2.4185  
G01 X-1.4913 Y2.6920  
G01 X-1.4900 Y2.6933  
G01 X-1.4896 Y2.6935  
G01 X-1.4892 Y2.6939  
G01 X-1.4876 Y2.6948  
G01 X-1.4861 Y2.6958  
G01 X-1.4857 Y2.6960  
G01 X-1.4852 Y2.6963  
G01 X-1.4835 Y2.6969  
G01 X-1.4819 Y2.6976  
G01 X-1.4813 Y2.6977  
G01 X-1.4809 Y2.6979  
G01 X-1.4791 Y2.6981  
G01 X-1.4773 Y2.6985  
G01 X-1.4768 Y2.6985  
G01 X-1.4763 Y2.6986  
G01 X-1.4745 Y2.6985  
G01 X-1.2510 Y2.6985  
G01 X-1.2497 Y2.6986  
G01 X-1.2487 Y2.6985  
G01 X-1.2477 Y2.6985  
G01 X-1.2464 Y2.6982  
G01 X-1.2451 Y2.6981  
G01 X-1.2441 Y2.6978  
G01 X-1.2431 Y2.6976  
G01 X-1.2419 Y2.6971  
G01 X-1.2407 Y2.6967  
G01 X-1.2398 Y2.6962  
G01 X-1.2389 Y2.6958  
G01 X-1.2378 Y2.6951  
G01 X-1.2366 Y2.6945  
G01 X-1.2359 Y2.6938  
G01 X-1.2350 Y2.6933  
G01 X-1.2341 Y2.6923  
G01 X-1.2331 Y2.6915  
G01 X-1.2325 Y2.6907  
G01 X-1.2317 Y2.6900  
G01 X-1.2310 Y2.6889  
G01 X-1.1325 Y2.5657  
G01 X-1.1317 Y2.5650  
G01 X-1.1310 Y2.5639  
G01 X-1.1302 Y2.5629  
G01 X-1.1297 Y2.5620  
G01 X-1.1292 Y2.5611  
G01 X-1.1287 Y2.5599  
G01 X-1.1281 Y2.5588  
G01 X-1.1278 Y2.5578  
G01 X-1.1274 Y2.5569  
G01 X-1.1271 Y2.5556  
G01 X-1.1268 Y2.5543  
G01 X-1.1267 Y2.5533  
G01 X-1.1265 Y2.5523  
G01 X-1.1265 Y2.5510  
G01 X-1.1264 Y2.5497  
G01 X-1.1265 Y2.5487  
G01 X-1.1265 Y2.2227  
G01 X-1.1274 Y2.2181  
G01 X-1.1292 Y2.2139  
G01 X-1.1317 Y2.2100  
G01 X-1.1350 Y2.2067  
G01 X-1.1817 Y2.1600  
G01 X-1.1850 Y2.1567  
G01 X-1.1889 Y2.1542  
G01 X-1.1931 Y2.1524  
G01 X-1.1977 Y2.1515  
G01 X-1.2001 Y2.1515  
G01 X-1.2026 Y2.1490  
G01 X-1.2081 Y2.1453  
G01 X-1.2142 Y2.1428  
G01 X-1.2207 Y2.1415  
G01 X-1.2793 Y2.1415  
G01 X-1.2858 Y2.1428  
G01 X-1.2919 Y2.1453  
G01 X-1.2974 Y2.1490  
G01 X-1.3020 Y2.1536  
G01 X-1.3057 Y2.1591  
G01 X-1.3082 Y2.1652  
G01 X-1.3095 Y2.1717  
G01 X-1.3095 Y2.1783  
G01 X-1.3082 Y2.1848  
G01 X-1.3057 Y2.1909  
G01 X-1.3020 Y2.1964  
G01 X-1.2974 Y2.2010  
G01 X-1.2919 Y2.2047  
G01 X-1.2858 Y2.2072  
G01 X-1.2793 Y2.2085  
G01 X-1.2735 Y2.2085  
G01 X-1.2735 Y2.3137  
G01 X-1.3889 Y2.4060  
G01 X-1.3900 Y2.4067  
G01 X-1.3907 Y2.4075  
G01 X-1.3915 Y2.4081  
G01 X-1.3923 Y2.4091  
G01 X-1.3997 Y2.4165  
G01 X-1.4139 Y2.4165  
G01 X-1.4335 Y2.4361  
G01 X-1.4335 Y2.4639  
G01 X-1.4139 Y2.4835  
G01 X-1.3861 Y2.4835  
G01 X-1.3665 Y2.4639  
G01 X-1.3665 Y2.4497  
G01 X-1.3593 Y2.4425  
G01 X-1.2361 Y2.3440  
G01 X-1.2350 Y2.3433  
G01 X-1.2343 Y2.3425  
G01 X-1.2335 Y2.3419  
G01 X-1.2327 Y2.3409  
G01 X-1.2317 Y2.3400  
G01 X-1.2312 Y2.3391  
G01 X-1.2305 Y2.3384  
G01 X-1.2299 Y2.3372  
G01 X-1.2292 Y2.3361  
G01 X-1.2288 Y2.3352  
G01 X-1.2283 Y2.3343  
G01 X-1.2279 Y2.3331  
G01 X-1.2274 Y2.3319  
G01 X-1.2272 Y2.3309  
G01 X-1.2269 Y2.3299  
G01 X-1.2268 Y2.3286  
G01 X-1.2265 Y2.3273  
G01 X-1.2265 Y2.3263  
G01 X-1.2264 Y2.3253  
G01 X-1.2265 Y2.3240  
G01 X-1.2265 Y2.2085  
G01 X-1.2207 Y2.2085  
G01 X-1.2142 Y2.2072  
G01 X-1.2081 Y2.2047  
G01 X-1.2054 Y2.2029  
G01 X-1.1735 Y2.2347  
G01 X-1.1735 Y2.5418  
G01 X-1.2613 Y2.6515  
